; GCode generated by CraftWare

G28 X Y ; home horizontally
G28 Z ; home vertically


M104 S215 ;set head temp (no wait)
M190 S60 ;set bed temp (wait)
M109 S215 ;set head temp (wait)
; ------------------------------------
; Layer #0
; ------------------------------------
M106 S0 ;turn off fan
G21 ; mm
G90 ; abs
G92 E0 ;reset extr
G0 F600 Z0.300
;segType:Skirt
G0 F3000 E-1.00000
G0 X91.806 Y145.085 F5400
G0 F3000 E0.00000
G1 X91.150 Y144.691 E0.03818 F2400
G1 X90.888 Y144.428 E0.05670
G1 X90.559 Y144.231 E0.07581
G1 X85.572 Y139.244 E0.42771
G1 X84.784 Y137.931 E0.50407
G1 X84.653 Y137.538 E0.52478
G1 X84.522 Y137.406 E0.53404
G1 X84.522 Y137.144 E0.54713
G1 X84.390 Y137.013 E0.55639
G1 X84.390 Y136.750 E0.56949
G1 X84.259 Y136.619 E0.57875
G1 X84.259 Y136.356 E0.59185
G1 X84.128 Y136.225 E0.60111
G1 X84.128 Y135.700 E0.62730
G1 X83.997 Y135.569 E0.63656
G1 X83.997 Y134.519 E0.68894
G1 X83.865 Y134.388 E0.69820
G1 X83.865 Y67.188 E4.05083
G1 X83.865 Y65.613 E4.12940
G1 X83.997 Y65.481 E4.13866
G1 X83.997 Y64.956 E4.16486
G1 X84.128 Y64.038 E4.21116
G1 X84.259 Y63.644 E4.23186
G1 X84.259 Y63.381 E4.24496
G1 X84.390 Y63.250 E4.25422
G1 X84.390 Y62.988 E4.26732
G1 X84.522 Y62.856 E4.27658
G1 X84.522 Y62.594 E4.28967
G1 X85.506 Y60.953 E4.38514
G1 X86.031 Y60.428 E4.42219
G1 X86.228 Y60.100 E4.44126
G1 X89.903 Y56.425 E4.70055
G1 X90.231 Y56.228 E4.71966
G1 X90.756 Y55.703 E4.75670
G1 X91.413 Y55.309 E4.79488
G1 X91.675 Y55.047 E4.81340
G1 X92.069 Y54.915 E4.83411
G1 X92.397 Y54.719 E4.85318
G1 X93.578 Y54.325 E4.91530
G1 X94.038 Y54.259 E4.93847
G1 X94.431 Y54.128 E4.95918
G1 X95.219 Y54.128 E4.99847
G1 X95.350 Y53.997 E5.00773
G1 X162.550 Y53.997 E8.36035
G1 X164.125 Y53.997 E8.43893
G1 X165.044 Y54.128 E8.48523
G1 X165.569 Y54.128 E8.51142
G1 X165.700 Y54.259 E8.52068
G1 X166.225 Y54.259 E8.54687
G1 X166.356 Y54.390 E8.55613
G1 X166.619 Y54.390 E8.56923
G1 X166.750 Y54.522 E8.57849
G1 X167.013 Y54.522 E8.59158
G1 X167.144 Y54.653 E8.60084
G1 X167.406 Y54.653 E8.61394
G1 X169.047 Y55.638 E8.70941
G1 X169.572 Y56.163 E8.74645
G1 X169.900 Y56.359 E8.76553
G1 X173.575 Y60.034 E9.02482
G1 X173.772 Y60.363 E9.04393
G1 X174.297 Y60.888 E9.08097
G1 X174.691 Y61.544 E9.11915
G1 X174.953 Y61.806 E9.13767
G1 X175.085 Y62.200 E9.15838
G1 X175.281 Y62.528 E9.17745
G1 X175.544 Y63.315 E9.21887
G1 X175.610 Y63.775 E9.24203
G1 X175.741 Y63.906 E9.25129
G1 X175.741 Y64.431 E9.27748
G1 X175.872 Y64.563 E9.28674
G1 X175.872 Y65.088 E9.31294
G1 X176.003 Y66.006 E9.35924
G1 X176.003 Y133.206 E12.71186
G1 X176.003 Y134.181 E12.76051
G0 F3000 E11.76051
G0 X170.334 Y133.973 F5400
G0 X170.400 Y132.979
G0 X170.400 Y95.418
G0 X165.276 Y59.976
G0 X165.334 Y60.376
G0 F3000 E12.76051
;segType:HShell
G1 X169.624 Y64.666 E13.06316 F2400
G0 X169.182 Y63.659 F5400
G1 X166.341 Y60.818 E13.26362 F2400
G0 X167.503 Y61.130 F5400
G0 X168.016 Y61.265
;segType:Perimeter
G1 X168.554 Y61.530 E13.29355 F1440
G1 X169.188 Y62.253 E13.34150
G1 X169.755 Y63.101 E13.39242
G1 X170.206 Y64.017 E13.44333
G1 X170.534 Y64.983 E13.49425
G1 X170.733 Y65.984 E13.54515
G1 X170.800 Y67.007 E13.59628
G1 X170.800 Y132.993 E16.88834
G1 X170.731 Y134.025 E16.93998
G1 X170.531 Y135.026 E16.99090
G1 X170.206 Y135.984 E17.04134
G1 X169.755 Y136.899 E17.09224
G1 X169.188 Y137.748 E17.14317
G1 X168.515 Y138.515 E17.19408
G1 X167.747 Y139.188 E17.24501
G1 X166.899 Y139.755 E17.29591
G1 X165.984 Y140.206 E17.34683
G1 X165.017 Y140.534 E17.39776
G1 X164.016 Y140.733 E17.44867
G1 X162.993 Y140.800 E17.49980
G1 X97.007 Y140.800 E20.79188
G1 X95.974 Y140.731 E20.84350
G1 X94.974 Y140.531 E20.89441
G1 X94.016 Y140.206 E20.94485
G1 X93.101 Y139.755 E20.99576
G1 X92.253 Y139.188 E21.04668
G1 X91.485 Y138.515 E21.09760
G1 X90.812 Y137.748 E21.14852
G1 X90.245 Y136.899 E21.19944
G1 X89.794 Y135.984 E21.25034
G1 X89.466 Y135.017 E21.30127
G1 X89.267 Y134.016 E21.35218
G1 X89.200 Y132.993 E21.40331
G1 X89.200 Y67.007 E24.69540
G1 X89.269 Y65.974 E24.74701
G1 X89.469 Y64.974 E24.79793
G1 X89.794 Y64.016 E24.84837
G1 X90.245 Y63.101 E24.89928
G1 X90.812 Y62.252 E24.95020
G1 X91.485 Y61.485 E25.00112
G1 X92.252 Y60.812 E25.05202
G1 X93.101 Y60.245 E25.10295
G1 X94.016 Y59.794 E25.15385
G1 X94.983 Y59.466 E25.20479
G1 X95.984 Y59.267 E25.25571
G1 X97.006 Y59.200 E25.30680
G1 X162.993 Y59.200 E28.59891
G1 X164.025 Y59.269 E28.65051
G1 X165.026 Y59.469 E28.70144
G1 X165.984 Y59.794 E28.75188
G1 X166.899 Y60.245 E28.80277
G1 X167.747 Y60.812 E28.85369
G1 X168.470 Y61.445 E28.90162
G0 X168.735 Y61.983 F5400
G0 X168.870 Y62.497
G0 X168.925 Y62.580
;segType:Loop
G1 X169.408 Y63.302 E28.94494 F2400
G1 X169.836 Y64.170 E28.99322
G1 X170.147 Y65.087 E29.04152
G1 X170.335 Y66.036 E29.08980
G1 X170.400 Y67.020 E29.13898
G1 X170.400 Y132.979 E32.42972
G1 X170.334 Y133.973 E32.47940
G1 X170.144 Y134.922 E32.52771
G1 X169.836 Y135.830 E32.57554
G1 X169.408 Y136.698 E32.62383
G1 X168.870 Y137.504 E32.67214
G1 X168.232 Y138.231 E32.72043
G1 X167.503 Y138.870 E32.76874
G1 X166.699 Y139.408 E32.81703
G1 X165.830 Y139.835 E32.86533
G1 X164.913 Y140.147 E32.91364
G1 X163.964 Y140.335 E32.96194
G1 X162.980 Y140.400 E33.01111
G1 X97.020 Y140.400 E36.30188
G1 X96.027 Y140.334 E36.35152
G1 X95.078 Y140.144 E36.39983
G1 X94.170 Y139.836 E36.44766
G1 X93.302 Y139.408 E36.49595
G1 X92.496 Y138.870 E36.54426
G1 X91.769 Y138.232 E36.59256
G1 X91.130 Y137.504 E36.64086
G1 X90.592 Y136.698 E36.68917
G1 X90.165 Y135.830 E36.73745
G1 X89.853 Y134.913 E36.78576
G1 X89.665 Y133.964 E36.83406
G1 X89.600 Y132.980 E36.88323
G1 X89.600 Y67.020 E40.17400
G1 X89.666 Y66.027 E40.22365
G1 X89.856 Y65.078 E40.27195
G1 X90.164 Y64.170 E40.31978
G1 X90.593 Y63.301 E40.36809
G1 X91.130 Y62.496 E40.41639
G1 X91.769 Y61.768 E40.46469
G1 X92.496 Y61.130 E40.51298
G1 X93.302 Y60.592 E40.56129
G1 X94.170 Y60.165 E40.60957
G1 X95.087 Y59.853 E40.65790
G1 X96.036 Y59.665 E40.70619
G1 X97.019 Y59.600 E40.75532
G1 X162.980 Y59.600 E44.04613
G1 X163.973 Y59.666 E44.09576
G1 X164.922 Y59.856 E44.14408
G1 X165.830 Y60.164 E44.19191
G1 X166.698 Y60.592 E44.24019
G1 X167.503 Y61.130 E44.28850
G1 X168.231 Y61.768 E44.33680
G1 X168.804 Y62.422 E44.38014
G0 F3000 E43.38014
G0 X170.039 Y114.862 F5400
G0 F3000 E44.38014
;segType:HShell
G1 X150.606 Y95.429 E45.75125 F2400
G0 X150.456 Y94.890 F5400
;segType:Perimeter
G1 X149.656 Y94.905 E45.79117 F1440
G1 X148.366 Y95.124 E45.85645
G1 X147.000 Y95.201 E45.92468
G1 X145.634 Y95.124 E45.99294
G1 X144.285 Y94.895 E46.06121
G1 X142.970 Y94.516 E46.12948
G1 X141.706 Y93.992 E46.19774
G1 X140.509 Y93.331 E46.26600
G1 X139.393 Y92.539 E46.33422
G1 X138.373 Y91.627 E46.40252
G1 X137.461 Y90.607 E46.47075
G1 X136.669 Y89.491 E46.53902
G1 X136.008 Y88.294 E46.60726
G1 X135.484 Y87.030 E46.67554
G1 X135.105 Y85.715 E46.74380
G1 X134.876 Y84.366 E46.81206
G1 X134.799 Y83.000 E46.88033
G1 X134.876 Y81.634 E46.94856
G1 X135.105 Y80.285 E47.01683
G1 X135.484 Y78.970 E47.08510
G1 X136.008 Y77.706 E47.15336
G1 X136.669 Y76.509 E47.22161
G1 X137.461 Y75.393 E47.28988
G1 X138.373 Y74.373 E47.35814
G1 X139.393 Y73.461 E47.42640
G1 X140.509 Y72.669 E47.49465
G1 X141.706 Y72.008 E47.56291
G1 X142.970 Y71.484 E47.63117
G1 X144.285 Y71.105 E47.69944
G1 X145.634 Y70.876 E47.76767
G1 X147.000 Y70.799 E47.83597
G1 X148.366 Y70.876 E47.90419
G1 X149.715 Y71.105 E47.97247
G1 X151.030 Y71.484 E48.04075
G1 X152.294 Y72.008 E48.10900
G1 X153.491 Y72.669 E48.17725
G1 X154.607 Y73.461 E48.24550
G1 X155.627 Y74.372 E48.31376
G1 X156.539 Y75.393 E48.38206
G1 X157.331 Y76.509 E48.45033
G1 X157.993 Y77.706 E48.51856
G1 X158.516 Y78.970 E48.58680
G1 X158.895 Y80.285 E48.65509
G1 X159.124 Y81.634 E48.72336
G1 X159.201 Y83.000 E48.79158
G1 X159.124 Y84.366 E48.85988
G1 X158.895 Y85.715 E48.92811
G1 X158.516 Y87.030 E48.99638
G1 X157.993 Y88.294 E49.06465
G1 X157.331 Y89.491 E49.13290
G1 X156.539 Y90.607 E49.20116
G1 X155.627 Y91.627 E49.26942
G1 X154.607 Y92.539 E49.33768
G1 X153.491 Y93.331 E49.40594
G1 X152.294 Y93.992 E49.47420
G1 X151.030 Y94.516 E49.54246
G1 X149.772 Y94.878 E49.60773
G0 X149.045 Y95.212 F5400
G0 X148.697 Y95.473
;segType:Loop
G1 X148.410 Y95.522 E49.62225 F2400
G1 X147.000 Y95.601 E49.69271
G1 X145.589 Y95.522 E49.76322
G1 X144.196 Y95.285 E49.83374
G1 X142.838 Y94.894 E49.90424
G1 X141.532 Y94.353 E49.97475
G1 X140.296 Y93.670 E50.04522
G1 X139.143 Y92.852 E50.11572
G1 X138.089 Y91.910 E50.18624
G1 X137.148 Y90.857 E50.25674
G1 X136.330 Y89.704 E50.32722
G1 X135.647 Y88.468 E50.39772
G1 X135.106 Y87.162 E50.46822
G1 X134.715 Y85.804 E50.53873
G1 X134.478 Y84.411 E50.60925
G1 X134.399 Y83.000 E50.67975
G1 X134.478 Y81.590 E50.75022
G1 X134.714 Y80.196 E50.82074
G1 X135.106 Y78.838 E50.89125
G1 X135.647 Y77.532 E50.96175
G1 X136.330 Y76.296 E51.03224
G1 X137.148 Y75.143 E51.10276
G1 X138.090 Y74.090 E51.17325
G1 X139.143 Y73.148 E51.24375
G1 X140.296 Y72.330 E51.31424
G1 X141.532 Y71.647 E51.38475
G1 X142.838 Y71.106 E51.45525
G1 X144.196 Y70.715 E51.52575
G1 X145.589 Y70.478 E51.59622
G1 X147.000 Y70.399 E51.66676
G1 X148.411 Y70.478 E51.73725
G1 X149.804 Y70.714 E51.80773
G1 X151.162 Y71.106 E51.87828
G1 X152.468 Y71.647 E51.94877
G1 X153.704 Y72.330 E52.01926
G1 X154.856 Y73.147 E52.08974
G1 X155.910 Y74.089 E52.16025
G1 X156.852 Y75.143 E52.23078
G1 X157.670 Y76.296 E52.30130
G1 X158.353 Y77.533 E52.37178
G1 X158.894 Y78.838 E52.44226
G1 X159.286 Y80.197 E52.51280
G1 X159.522 Y81.589 E52.58328
G1 X159.601 Y83.000 E52.65378
G1 X159.522 Y84.412 E52.72431
G1 X159.285 Y85.804 E52.79478
G1 X158.894 Y87.162 E52.86528
G1 X158.353 Y88.468 E52.93579
G1 X157.670 Y89.704 E53.00629
G1 X156.852 Y90.857 E53.07678
G1 X155.910 Y91.910 E53.14728
G1 X154.857 Y92.852 E53.21778
G1 X153.704 Y93.670 E53.28829
G1 X152.468 Y94.353 E53.35878
G1 X151.162 Y94.894 E53.42928
G1 X149.804 Y95.286 E53.49980
G1 X148.894 Y95.440 E53.54582
G0 F3000 E52.54582
G0 X148.894 Y95.440 F5400
G0 X148.423 Y104.480
G0 X149.804 Y104.714
G0 X151.162 Y105.106
G0 X152.468 Y105.647
G0 X153.704 Y106.330
G0 X154.857 Y107.148
G0 X155.910 Y108.089
G0 X156.852 Y109.144
G0 X157.670 Y110.296
G0 X158.353 Y111.532
G0 X158.894 Y112.838
G0 X159.285 Y114.195
G0 X159.522 Y115.589
G0 X159.601 Y117.000
G0 X159.522 Y118.410
G0 X159.285 Y119.804
G0 X158.894 Y121.162
G0 X158.353 Y122.468
G0 X157.670 Y123.704
G0 X156.852 Y124.857
G0 X155.911 Y125.910
G0 X154.857 Y126.852
G0 X153.704 Y127.670
G0 X152.467 Y128.354
G0 X151.162 Y128.894
G0 X149.804 Y129.285
G0 X148.411 Y129.522
G0 X147.113 Y129.595
G0 X146.549 Y140.400
G0 X146.568 Y140.039
G0 F3000 E53.54582
;segType:HShell
G1 X125.750 Y119.221 E55.01465 F2400
G0 X125.212 Y119.045 F5400
;segType:Perimeter
G1 X124.878 Y119.773 E55.05456 F1440
G1 X124.516 Y121.030 E55.11983
G1 X123.992 Y122.294 E55.18809
G1 X123.331 Y123.491 E55.25634
G1 X122.539 Y124.607 E55.32461
G1 X121.627 Y125.627 E55.39286
G1 X120.607 Y126.539 E55.46112
G1 X119.491 Y127.331 E55.52939
G1 X118.294 Y127.992 E55.59764
G1 X117.030 Y128.516 E55.66590
G1 X115.715 Y128.895 E55.73417
G1 X114.366 Y129.124 E55.80243
G1 X113.000 Y129.201 E55.87068
G1 X111.634 Y129.124 E55.93894
G1 X110.285 Y128.895 E56.00721
G1 X108.970 Y128.516 E56.07547
G1 X107.706 Y127.992 E56.14373
G1 X106.509 Y127.331 E56.21199
G1 X105.393 Y126.539 E56.28025
G1 X104.373 Y125.627 E56.34850
G1 X103.461 Y124.607 E56.41676
G1 X102.669 Y123.491 E56.48503
G1 X102.008 Y122.294 E56.55328
G1 X101.484 Y121.030 E56.62155
G1 X101.105 Y119.715 E56.68980
G1 X100.876 Y118.366 E56.75807
G1 X100.799 Y117.000 E56.82633
G1 X100.876 Y115.634 E56.89458
G1 X101.105 Y114.285 E56.96284
G1 X101.484 Y112.970 E57.03111
G1 X102.008 Y111.706 E57.09938
G1 X102.669 Y110.509 E57.16762
G1 X103.461 Y109.393 E57.23589
G1 X104.373 Y108.373 E57.30414
G1 X105.393 Y107.461 E57.37240
G1 X106.509 Y106.669 E57.44067
G1 X107.706 Y106.008 E57.50892
G1 X108.970 Y105.484 E57.57718
G1 X110.285 Y105.105 E57.64544
G1 X111.634 Y104.876 E57.71372
G1 X113.000 Y104.799 E57.78198
G1 X114.366 Y104.876 E57.85021
G1 X115.715 Y105.105 E57.91848
G1 X117.030 Y105.484 E57.98675
G1 X118.294 Y106.008 E58.05500
G1 X119.491 Y106.669 E58.12327
G1 X120.607 Y107.461 E58.19152
G1 X121.627 Y108.373 E58.25979
G1 X122.539 Y109.393 E58.32803
G1 X123.331 Y110.509 E58.39631
G1 X123.992 Y111.706 E58.46455
G1 X124.516 Y112.970 E58.53282
G1 X124.895 Y114.285 E58.60108
G1 X125.124 Y115.634 E58.66935
G1 X125.201 Y117.000 E58.73758
G1 X125.124 Y118.366 E58.80584
G1 X124.905 Y119.656 E58.87112
G0 X124.890 Y120.456 F5400
G0 X124.975 Y120.883
;segType:Loop
G1 X124.894 Y121.162 E58.88563 F2400
G1 X124.353 Y122.468 E58.95613
G1 X123.670 Y123.704 E59.02662
G1 X122.852 Y124.857 E59.09713
G1 X121.911 Y125.911 E59.16762
G1 X120.857 Y126.852 E59.23813
G1 X119.704 Y127.670 E59.30863
G1 X118.468 Y128.353 E59.37912
G1 X117.162 Y128.894 E59.44963
G1 X115.804 Y129.285 E59.52014
G1 X114.411 Y129.522 E59.59063
G1 X113.000 Y129.601 E59.66113
G1 X111.589 Y129.522 E59.73163
G1 X110.196 Y129.285 E59.80214
G1 X108.838 Y128.894 E59.87264
G1 X107.532 Y128.353 E59.94314
G1 X106.296 Y127.670 E60.01364
G1 X105.143 Y126.852 E60.08414
G1 X104.089 Y125.911 E60.15464
G1 X103.148 Y124.857 E60.22513
G1 X102.330 Y123.704 E60.29565
G1 X101.647 Y122.468 E60.36614
G1 X101.106 Y121.162 E60.43665
G1 X100.715 Y119.804 E60.50714
G1 X100.478 Y118.411 E60.57765
G1 X100.399 Y117.000 E60.64815
G1 X100.478 Y115.589 E60.71865
G1 X100.715 Y114.196 E60.78915
G1 X101.106 Y112.838 E60.85966
G1 X101.647 Y111.532 E60.93016
G1 X102.330 Y110.296 E61.00065
G1 X103.148 Y109.143 E61.07116
G1 X104.090 Y108.090 E61.14166
G1 X105.143 Y107.148 E61.21215
G1 X106.296 Y106.330 E61.28267
G1 X107.532 Y105.647 E61.35316
G1 X108.838 Y105.106 E61.42366
G1 X110.196 Y104.714 E61.49416
G1 X111.589 Y104.478 E61.56468
G1 X113.000 Y104.399 E61.63518
G1 X114.411 Y104.478 E61.70565
G1 X115.804 Y104.714 E61.77616
G1 X117.162 Y105.106 E61.84669
G1 X118.468 Y105.647 E61.91718
G1 X119.704 Y106.330 E61.98768
G1 X120.857 Y107.148 E62.05817
G1 X121.911 Y108.090 E62.12868
G1 X122.852 Y109.143 E62.19916
G1 X123.670 Y110.296 E62.26967
G1 X124.353 Y111.532 E62.34015
G1 X124.894 Y112.838 E62.41067
G1 X125.286 Y114.196 E62.48118
G1 X125.522 Y115.589 E62.55170
G1 X125.601 Y117.000 E62.62216
G1 X125.522 Y118.411 E62.69266
G1 X125.286 Y119.804 E62.76318
G1 X125.030 Y120.691 E62.80921
G0 F3000 E61.80921
G0 X158.493 Y140.400 F5400
G0 X157.882 Y140.039
G0 F3000 E62.80921
;segType:HShell
G1 X147.761 Y129.919 E63.52324 F2400
G0 X147.723 Y129.361 F5400
;segType:Perimeter
G1 X146.940 Y129.197 E63.56315 F1440
G1 X145.634 Y129.124 E63.62842
G1 X144.285 Y128.895 E63.69667
G1 X142.970 Y128.516 E63.76493
G1 X141.706 Y127.992 E63.83321
G1 X140.509 Y127.331 E63.90147
G1 X139.393 Y126.539 E63.96972
G1 X138.373 Y125.627 E64.03797
G1 X137.461 Y124.607 E64.10622
G1 X136.669 Y123.491 E64.17449
G1 X136.008 Y122.294 E64.24276
G1 X135.484 Y121.030 E64.31101
G1 X135.105 Y119.715 E64.37927
G1 X134.876 Y118.366 E64.44754
G1 X134.799 Y117.000 E64.51580
G1 X134.876 Y115.634 E64.58403
G1 X135.105 Y114.285 E64.65230
G1 X135.484 Y112.970 E64.72058
G1 X136.008 Y111.706 E64.78883
G1 X136.669 Y110.509 E64.85708
G1 X137.461 Y109.393 E64.92534
G1 X138.373 Y108.373 E64.99359
G1 X139.393 Y107.461 E65.06186
G1 X140.509 Y106.669 E65.13011
G1 X141.706 Y106.008 E65.19837
G1 X142.970 Y105.484 E65.26663
G1 X144.285 Y105.105 E65.33489
G1 X145.634 Y104.876 E65.40316
G1 X147.000 Y104.799 E65.47143
G1 X148.366 Y104.876 E65.53966
G1 X149.715 Y105.105 E65.60794
G1 X151.030 Y105.484 E65.67620
G1 X152.294 Y106.008 E65.74448
G1 X153.491 Y106.669 E65.81272
G1 X154.607 Y107.461 E65.88096
G1 X155.627 Y108.373 E65.94922
G1 X156.539 Y109.393 E66.01753
G1 X157.331 Y110.509 E66.08574
G1 X157.993 Y111.706 E66.15401
G1 X158.516 Y112.970 E66.22227
G1 X158.895 Y114.285 E66.29052
G1 X159.124 Y115.634 E66.35881
G1 X159.201 Y117.000 E66.42703
G1 X159.124 Y118.366 E66.49530
G1 X158.895 Y119.715 E66.56359
G1 X158.516 Y121.029 E66.63182
G1 X157.992 Y122.294 E66.70010
G1 X157.331 Y123.491 E66.76835
G1 X156.539 Y124.607 E66.83662
G1 X155.627 Y125.627 E66.90487
G1 X154.607 Y126.539 E66.97312
G1 X153.491 Y127.331 E67.04139
G1 X152.294 Y127.993 E67.10966
G1 X151.030 Y128.516 E67.17791
G1 X149.715 Y128.895 E67.24616
G1 X148.366 Y129.124 E67.31443
G1 X147.060 Y129.197 E67.37969
G0 X146.277 Y129.361 F5400
G0 X145.879 Y129.538
;segType:Loop
G1 X145.589 Y129.522 E67.39420 F2400
G1 X144.196 Y129.285 E67.46469
G1 X142.838 Y128.894 E67.53519
G1 X141.532 Y128.353 E67.60571
G1 X140.295 Y127.670 E67.67621
G1 X139.143 Y126.852 E67.74671
G1 X138.090 Y125.911 E67.81719
G1 X137.148 Y124.857 E67.88769
G1 X136.330 Y123.704 E67.95820
G1 X135.647 Y122.467 E68.02872
G1 X135.106 Y121.162 E68.09920
G1 X134.715 Y119.804 E68.16970
G1 X134.478 Y118.411 E68.24023
G1 X134.399 Y117.000 E68.31072
G1 X134.478 Y115.589 E68.38119
G1 X134.714 Y114.196 E68.45170
G1 X135.106 Y112.838 E68.52223
G1 X135.647 Y111.532 E68.59271
G1 X136.330 Y110.296 E68.66321
G1 X137.148 Y109.143 E68.73371
G1 X138.090 Y108.090 E68.80420
G1 X139.143 Y107.148 E68.87470
G1 X140.296 Y106.330 E68.94520
G1 X141.532 Y105.647 E69.01570
G1 X142.838 Y105.106 E69.08620
G1 X144.196 Y104.715 E69.15670
G1 X145.589 Y104.478 E69.22721
G1 X147.000 Y104.399 E69.29772
G1 X148.410 Y104.478 E69.36818
G1 X149.804 Y104.714 E69.43870
G1 X151.162 Y105.106 E69.50921
G1 X152.468 Y105.647 E69.57972
G1 X153.704 Y106.330 E69.65020
G1 X154.857 Y107.148 E69.72070
G1 X155.910 Y108.089 E69.79120
G1 X156.852 Y109.144 E69.86173
G1 X157.670 Y110.296 E69.93222
G1 X158.353 Y111.532 E70.00271
G1 X158.894 Y112.838 E70.07321
G1 X159.285 Y114.195 E70.14369
G1 X159.522 Y115.589 E70.21422
G1 X159.601 Y117.000 E70.28471
G1 X159.522 Y118.410 E70.35518
G1 X159.285 Y119.804 E70.42573
G1 X158.894 Y121.162 E70.49622
G1 X158.353 Y122.468 E70.56673
G1 X157.670 Y123.704 E70.63722
G1 X156.852 Y124.857 E70.70773
G1 X155.911 Y125.910 E70.77822
G1 X154.857 Y126.852 E70.84872
G1 X153.704 Y127.670 E70.91923
G1 X152.467 Y128.354 E70.98974
G1 X151.162 Y128.894 E71.06024
G1 X149.804 Y129.285 E71.13073
G1 X148.411 Y129.522 E71.20124
G1 X147.000 Y129.601 E71.27174
G1 X146.079 Y129.550 E71.31776
G0 F3000 E70.31776
G0 X145.589 Y129.522 F5400
G0 X144.196 Y129.285
G0 X142.838 Y128.894
G0 X141.532 Y128.353
G0 X140.295 Y127.670
G0 X139.143 Y126.852
G0 X138.090 Y125.911
G0 X137.148 Y124.857
G0 X136.330 Y123.704
G0 X135.647 Y122.467
G0 X135.106 Y121.162
G0 X134.715 Y119.804
G0 X134.682 Y119.614
G0 X134.253 Y119.240
G0 F3000 E71.31776
;segType:HShell
G1 X110.760 Y95.747 E72.97532 F2400
G0 X110.955 Y95.212 F5400
;segType:Perimeter
G1 X110.227 Y94.878 E73.01523 F1440
G1 X108.970 Y94.516 E73.08049
G1 X107.706 Y93.992 E73.14876
G1 X106.509 Y93.331 E73.21702
G1 X105.393 Y92.539 E73.28529
G1 X104.373 Y91.627 E73.35353
G1 X103.461 Y90.607 E73.42179
G1 X102.669 Y89.491 E73.49005
G1 X102.007 Y88.294 E73.55832
G1 X101.484 Y87.030 E73.62657
G1 X101.105 Y85.715 E73.69484
G1 X100.876 Y84.366 E73.76309
G1 X100.799 Y83.000 E73.83135
G1 X100.876 Y81.634 E73.89961
G1 X101.105 Y80.285 E73.96788
G1 X101.484 Y78.970 E74.03613
G1 X102.007 Y77.706 E74.10438
G1 X102.669 Y76.509 E74.17265
G1 X103.461 Y75.393 E74.24092
G1 X104.373 Y74.373 E74.30918
G1 X105.393 Y73.461 E74.37743
G1 X106.509 Y72.669 E74.44570
G1 X107.706 Y72.008 E74.51395
G1 X108.971 Y71.484 E74.58222
G1 X110.285 Y71.105 E74.65046
G1 X111.634 Y70.876 E74.71874
G1 X113.000 Y70.799 E74.78701
G1 X114.366 Y70.876 E74.85523
G1 X115.715 Y71.105 E74.92353
G1 X117.030 Y71.484 E74.99177
G1 X118.294 Y72.008 E75.06005
G1 X119.491 Y72.669 E75.12829
G1 X120.607 Y73.461 E75.19657
G1 X121.627 Y74.373 E75.26481
G1 X122.539 Y75.393 E75.33306
G1 X123.331 Y76.509 E75.40135
G1 X123.992 Y77.706 E75.46958
G1 X124.516 Y78.970 E75.53783
G1 X124.895 Y80.285 E75.60610
G1 X125.124 Y81.634 E75.67438
G1 X125.201 Y83.000 E75.74261
G1 X125.124 Y84.366 E75.81088
G1 X124.895 Y85.715 E75.87915
G1 X124.516 Y87.030 E75.94741
G1 X123.992 Y88.294 E76.01567
G1 X123.331 Y89.491 E76.08393
G1 X122.539 Y90.607 E76.15218
G1 X121.627 Y91.627 E76.22043
G1 X120.607 Y92.539 E76.28870
G1 X119.491 Y93.331 E76.35696
G1 X118.294 Y93.992 E76.42521
G1 X117.030 Y94.516 E76.49346
G1 X115.715 Y94.895 E76.56174
G1 X114.366 Y95.124 E76.63001
G1 X113.000 Y95.201 E76.69824
G1 X111.634 Y95.124 E76.76650
G1 X110.344 Y94.905 E76.83178
G0 X109.544 Y94.890 F5400
G0 X109.117 Y94.975
;segType:Loop
G1 X108.838 Y94.894 E76.84627 F2400
G1 X107.532 Y94.353 E76.91679
G1 X106.296 Y93.670 E76.98728
G1 X105.143 Y92.852 E77.05780
G1 X104.090 Y91.911 E77.12828
G1 X103.148 Y90.857 E77.19877
G1 X102.330 Y89.704 E77.26928
G1 X101.646 Y88.467 E77.33979
G1 X101.106 Y87.162 E77.41029
G1 X100.715 Y85.804 E77.48080
G1 X100.478 Y84.411 E77.55129
G1 X100.399 Y83.000 E77.62179
G1 X100.478 Y81.589 E77.69229
G1 X100.715 Y80.196 E77.76280
G1 X101.106 Y78.838 E77.83329
G1 X101.646 Y77.533 E77.90379
G1 X102.330 Y76.296 E77.97430
G1 X103.148 Y75.143 E78.04480
G1 X104.090 Y74.089 E78.11531
G1 X105.143 Y73.148 E78.18579
G1 X106.296 Y72.330 E78.25630
G1 X107.532 Y71.647 E78.32679
G1 X108.838 Y71.106 E78.39732
G1 X110.196 Y70.715 E78.46779
G1 X111.590 Y70.478 E78.53834
G1 X113.000 Y70.399 E78.60881
G1 X114.411 Y70.478 E78.67930
G1 X115.805 Y70.715 E78.74983
G1 X117.162 Y71.106 E78.82031
G1 X118.468 Y71.647 E78.89082
G1 X119.704 Y72.330 E78.96131
G1 X120.857 Y73.148 E79.03182
G1 X121.910 Y74.089 E79.10230
G1 X122.852 Y75.143 E79.17282
G1 X123.670 Y76.296 E79.24333
G1 X124.353 Y77.532 E79.31381
G1 X124.894 Y78.838 E79.38430
G1 X125.286 Y80.196 E79.45482
G1 X125.522 Y81.590 E79.52534
G1 X125.601 Y83.000 E79.59580
G1 X125.522 Y84.411 E79.66631
G1 X125.285 Y85.804 E79.73683
G1 X124.894 Y87.162 E79.80732
G1 X124.353 Y88.468 E79.87783
G1 X123.670 Y89.704 E79.94832
G1 X122.852 Y90.857 E80.01882
G1 X121.911 Y91.910 E80.08931
G1 X120.857 Y92.852 E80.15982
G1 X119.704 Y93.670 E80.23032
G1 X118.468 Y94.353 E80.30081
G1 X117.162 Y94.894 E80.37130
G1 X115.804 Y95.286 E80.44183
G1 X114.411 Y95.522 E80.51234
G1 X113.000 Y95.601 E80.58280
G1 X111.589 Y95.522 E80.65330
G1 X110.196 Y95.286 E80.72382
G1 X109.309 Y95.030 E80.76985
G0 X110.073 Y95.625 F5400
;segType:HShell
G1 X134.375 Y119.927 E82.48451 F2400
G0 X134.604 Y120.722 F5400
G1 X123.949 Y110.067 E83.23632 F2400
G0 X124.661 Y111.344 F5400
G1 X134.884 Y121.567 E83.95763 F2400
G0 X135.284 Y122.533 F5400
G1 X125.068 Y112.317 E84.67841 F2400
G0 F3000 E83.67841
G0 X124.711 Y112.396 F5400
G0 X136.725 Y109.739
G0 X137.148 Y109.143
G0 X138.090 Y108.090
G0 X139.143 Y107.148
G0 X140.296 Y106.330
G0 X141.532 Y105.647
G0 X142.838 Y105.106
G0 X144.196 Y104.715
G0 X145.589 Y104.478
G0 X147.000 Y104.399
G0 X148.410 Y104.478
G0 X149.804 Y104.714
G0 X151.162 Y105.106
G0 X152.468 Y105.647
G0 X153.257 Y106.083
G0 X153.789 Y105.966
G0 F3000 E84.67841
G1 X143.195 Y95.372 E85.42584 F2400
G0 X142.332 Y95.074 F5400
G1 X152.548 Y105.290 E86.14662 F2400
G0 X151.582 Y104.890 F5400
G1 X141.364 Y94.672 E86.86760 F2400
G0 X143.990 Y95.601 F5400
G1 X170.039 Y121.650 E88.70553 F2400
G0 X170.039 Y121.085 F5400
G1 X144.689 Y95.735 E90.49412 F2400
G0 X145.371 Y95.850 F5400
G1 X170.039 Y120.519 E92.23463 F2400
G0 X170.039 Y119.953 F5400
G1 X145.992 Y95.905 E93.93134 F2400
G0 X146.591 Y95.939 F5400
G1 X170.039 Y119.388 E95.58577 F2400
G0 X170.039 Y118.822 F5400
G1 X147.170 Y95.952 E97.19934 F2400
G0 X147.706 Y95.922 F5400
G1 X170.039 Y118.256 E98.77512 F2400
G0 X170.039 Y117.691 F5400
G1 X148.241 Y95.892 E100.31310 F2400
G0 X148.745 Y95.831 F5400
G1 X170.039 Y117.125 E101.81552 F2400
G0 X170.039 Y116.559 F5400
G1 X149.229 Y95.749 E103.28383 F2400
G0 X149.712 Y95.666 F5400
G1 X170.039 Y115.994 E104.71802 F2400
G0 X170.039 Y115.428 F5400
G1 X150.167 Y95.556 E106.12011 F2400
G0 F3000 E105.12011
G0 X149.791 Y95.288 F5400
G0 X148.410 Y95.522
G0 X147.000 Y95.601
G0 X145.589 Y95.522
G0 X144.196 Y95.285
G0 X142.838 Y94.894
G0 X141.532 Y94.353
G0 X140.296 Y93.670
G0 X139.143 Y92.852
G0 X138.089 Y91.910
G0 X137.148 Y90.857
G0 X136.330 Y89.704
G0 X135.647 Y88.468
G0 X135.106 Y87.162
G0 X134.715 Y85.804
G0 X134.478 Y84.411
G0 X134.477 Y84.398
G0 X124.710 Y77.452
G0 F3000 E106.12011
G1 X134.926 Y87.668 E106.84089 F2400
G0 X135.329 Y88.637 F5400
G1 X125.110 Y78.418 E107.56187 F2400
G0 X125.392 Y79.266 F5400
G1 X136.030 Y89.904 E108.31243 F2400
G0 X140.096 Y93.970 F5400
G1 X150.734 Y104.608 E109.06300 F2400
G0 X149.939 Y104.379 F5400
G1 X125.621 Y80.061 E110.77876 F2400
G0 X125.745 Y80.750 F5400
G1 X149.250 Y104.255 E112.43717 F2400
G0 X148.569 Y104.139 F5400
G1 X125.861 Y81.431 E114.03934 F2400
G0 X125.908 Y82.045 F5400
G1 X147.955 Y104.092 E115.59486 F2400
G0 X147.356 Y104.058 F5400
G1 X125.942 Y82.644 E117.10573 F2400
G0 X125.950 Y83.218 F5400
G1 X146.782 Y104.050 E118.57558 F2400
G0 X146.247 Y104.080 F5400
G1 X125.920 Y83.753 E120.00977 F2400
G0 X125.890 Y84.289 F5400
G1 X145.711 Y104.110 E121.40829 F2400
G0 X145.212 Y104.177 F5400
G1 X125.823 Y84.788 E122.77625 F2400
G0 X125.741 Y85.272 F5400
G1 X144.728 Y104.259 E124.11589 F2400
G0 X144.245 Y104.341 F5400
G1 X125.659 Y85.755 E125.42721 F2400
G0 X125.544 Y86.206 F5400
G1 X143.794 Y104.456 E126.71480 F2400
G0 X143.355 Y104.582 F5400
G1 X125.418 Y86.645 E127.98033 F2400
G0 X125.291 Y87.085 F5400
G1 X142.915 Y104.709 E129.22382 F2400
G0 X142.498 Y104.857 F5400
G1 X125.143 Y87.502 E130.44830 F2400
G0 X124.977 Y87.902 F5400
G1 X142.098 Y105.023 E131.65625 F2400
G0 X141.698 Y105.188 F5400
G1 X124.812 Y88.302 E132.84767 F2400
G0 X124.639 Y88.695 F5400
G1 X141.305 Y105.361 E134.02354 F2400
G0 X140.941 Y105.562 F5400
G1 X124.438 Y89.059 E135.18791 F2400
G0 X124.236 Y89.424 F5400
G1 X140.576 Y105.764 E136.34077 F2400
G0 X140.212 Y105.965 F5400
G1 X124.035 Y89.788 E137.48215 F2400
G0 X123.810 Y90.129 F5400
G1 X139.871 Y106.190 E138.61534 F2400
G0 X139.540 Y106.425 F5400
G1 X123.575 Y90.460 E139.74174 F2400
G0 X123.341 Y90.791 F5400
G1 X139.209 Y106.659 E140.86137 F2400
G0 X138.882 Y106.898 F5400
G1 X123.102 Y91.118 E141.97478 F2400
G0 X122.835 Y91.416 F5400
G1 X138.584 Y107.165 E143.08594 F2400
G0 X138.285 Y107.432 F5400
G1 X122.568 Y91.715 E144.19485 F2400
G0 X122.301 Y92.014 F5400
G1 X137.986 Y107.699 E145.30153 F2400
G0 X137.703 Y107.982 F5400
G1 X122.018 Y92.297 E146.40817 F2400
G0 X121.720 Y92.564 F5400
G1 X137.436 Y108.280 E147.51706 F2400
G0 X137.169 Y108.579 F5400
G1 X121.421 Y92.831 E148.62819 F2400
G0 X121.122 Y93.098 F5400
G1 X136.902 Y108.878 E149.74156 F2400
G0 X136.663 Y109.204 F5400
G1 X120.796 Y93.337 E150.86108 F2400
G0 X120.465 Y93.572 F5400
G1 X136.428 Y109.535 E151.98740 F2400
G0 X136.193 Y109.866 F5400
G1 X120.134 Y93.807 E153.12048 F2400
G0 X119.794 Y94.032 F5400
G1 X135.968 Y110.206 E154.26167 F2400
G0 X135.767 Y110.571 F5400
G1 X119.429 Y94.233 E155.41437 F2400
G0 X119.065 Y94.435 F5400
G1 X135.565 Y110.935 E156.57855 F2400
G0 X135.364 Y111.299 F5400
G1 X118.701 Y94.636 E157.75424 F2400
G0 X118.308 Y94.809 F5400
G1 X135.191 Y111.692 E158.94540 F2400
G0 X135.025 Y112.092 F5400
G1 X117.908 Y94.975 E160.15311 F2400
G0 X117.508 Y95.141 F5400
G1 X134.859 Y112.492 E161.37733 F2400
G0 X134.711 Y112.909 F5400
G1 X117.091 Y95.289 E162.62048 F2400
G0 X116.652 Y95.416 F5400
G1 X134.584 Y113.348 E163.88568 F2400
G0 X134.458 Y113.787 F5400
G1 X116.213 Y95.542 E165.17294 F2400
G0 X115.763 Y95.658 F5400
G1 X134.342 Y114.237 E166.48383 F2400
G0 X134.260 Y114.721 F5400
G1 X115.279 Y95.740 E167.82302 F2400
G0 X114.796 Y95.822 F5400
G1 X134.178 Y115.204 E169.19056 F2400
G0 X134.111 Y115.703 F5400
G1 X114.297 Y95.889 E170.58854 F2400
G0 X113.761 Y95.919 F5400
G1 X134.081 Y116.239 E172.02218 F2400
G0 X134.051 Y116.774 F5400
G1 X113.226 Y95.949 E173.49148 F2400
G0 X112.653 Y95.943 F5400
G1 X134.057 Y117.347 E175.00168 F2400
G0 X134.091 Y117.946 F5400
G1 X112.054 Y95.909 E176.55652 F2400
G0 X111.442 Y95.862 F5400
G1 X134.138 Y118.558 E178.15784 F2400
G0 X135.955 Y123.770 F5400
G1 X125.368 Y113.183 E178.90476 F2400
G0 X125.597 Y113.978 F5400
G1 X151.659 Y140.039 E180.74354 F2400
G0 X151.093 Y140.039 F5400
G1 X125.733 Y114.679 E182.53286 F2400
G0 X125.849 Y115.360 F5400
G1 X150.528 Y140.039 E184.27410 F2400
G0 X149.962 Y140.039 F5400
G1 X125.905 Y115.982 E185.97146 F2400
G0 X125.939 Y116.582 F5400
G1 X149.396 Y140.039 E187.62652 F2400
G0 X148.831 Y140.039 F5400
G1 X125.953 Y117.162 E189.24066 F2400
G0 X125.923 Y117.697 F5400
G1 X148.265 Y140.039 E190.81702 F2400
G0 X147.699 Y140.039 F5400
G1 X125.893 Y118.233 E192.35558 F2400
G0 X125.832 Y118.738 F5400
G1 X147.133 Y140.039 E193.85852 F2400
G0 X140.231 Y128.046 F5400
G1 X152.225 Y140.039 E194.70474 F2400
G0 X152.790 Y140.039 F5400
G1 X141.467 Y128.716 E195.50366 F2400
G0 X142.433 Y129.116 F5400
G1 X153.356 Y140.039 E196.27436 F2400
G0 X153.922 Y140.039 F5400
G1 X143.278 Y129.396 E197.02532 F2400
G0 X144.073 Y129.625 F5400
G1 X154.487 Y140.039 E197.76014 F2400
G0 X155.053 Y140.039 F5400
G1 X144.760 Y129.747 E198.48636 F2400
G0 X145.442 Y129.862 F5400
G1 X155.619 Y140.039 E199.20440 F2400
G0 X156.184 Y140.039 F5400
G1 X146.054 Y129.909 E199.91918 F2400
G0 X146.653 Y129.943 F5400
G1 X156.750 Y140.039 E200.63156 F2400
G0 X157.316 Y140.039 F5400
G1 X147.226 Y129.949 E201.34346 F2400
G0 X158.447 Y140.039 F5400
G1 X148.297 Y129.889 E202.05962 F2400
G0 X148.795 Y129.822 F5400
G1 X159.013 Y140.039 E202.78050 F2400
G0 X159.579 Y140.039 F5400
G1 X149.279 Y129.740 E203.50718 F2400
G0 X149.763 Y129.658 F5400
G1 X160.144 Y140.039 E204.23966 F2400
G0 X160.710 Y140.039 F5400
G1 X150.213 Y129.542 E204.98028 F2400
G0 X150.652 Y129.416 F5400
G1 X161.276 Y140.039 E205.72982 F2400
G0 X161.841 Y140.039 F5400
G1 X151.091 Y129.289 E206.48830 F2400
G0 X151.508 Y129.141 F5400
G1 X162.407 Y140.039 E207.25726 F2400
G0 X162.972 Y140.039 F5400
G1 X151.908 Y128.975 E208.03790 F2400
G0 X152.308 Y128.809 F5400
G1 X163.503 Y140.004 E208.82778 F2400
G0 X164.021 Y139.957 F5400
G1 X152.701 Y128.636 E209.62652 F2400
G0 X153.065 Y128.435 F5400
G1 X164.493 Y139.863 E210.43284 F2400
G0 X164.950 Y139.754 F5400
G1 X153.429 Y128.233 E211.24566 F2400
G0 X153.794 Y128.032 F5400
G1 X165.372 Y139.611 E212.06260 F2400
G0 X165.784 Y139.457 F5400
G1 X154.134 Y127.807 E212.88456 F2400
G0 X154.465 Y127.572 F5400
G1 X166.163 Y139.270 E213.70994 F2400
G0 X166.539 Y139.081 F5400
G1 X154.796 Y127.337 E214.53852 F2400
G0 X155.122 Y127.098 F5400
G1 X166.879 Y138.854 E215.36798 F2400
G0 X167.218 Y138.628 F5400
G1 X155.421 Y126.831 E216.20028 F2400
G0 X155.720 Y126.564 F5400
G1 X167.526 Y138.371 E217.03330 F2400
G0 X167.828 Y138.106 F5400
G1 X156.019 Y126.297 E217.86654 F2400
G0 X156.301 Y126.014 F5400
G1 X168.110 Y137.823 E218.69974 F2400
G0 X168.375 Y137.522 F5400
G1 X156.568 Y125.715 E219.53276 F2400
G0 X156.835 Y125.417 F5400
G1 X168.631 Y137.212 E220.36502 F2400
G0 X168.858 Y136.873 F5400
G1 X157.102 Y125.118 E221.19444 F2400
G0 X157.341 Y124.791 F5400
G1 X169.084 Y136.534 E222.02302 F2400
G0 X169.273 Y136.157 F5400
G1 X157.575 Y124.460 E222.84832 F2400
G0 X157.810 Y124.129 F5400
G1 X169.460 Y135.778 E223.67026 F2400
G0 X169.613 Y135.366 F5400
G1 X158.035 Y123.788 E224.48714 F2400
G0 X158.236 Y123.424 F5400
G1 X169.756 Y134.944 E225.29992 F2400
G0 X169.864 Y134.486 F5400
G1 X158.438 Y123.059 E226.10610 F2400
G0 X158.639 Y122.695 F5400
G1 X169.958 Y134.014 E226.90474 F2400
G0 X170.005 Y133.495 F5400
G1 X158.812 Y122.302 E227.69444 F2400
G0 X158.977 Y121.902 F5400
G1 X170.039 Y132.964 E228.47492 F2400
G0 X170.039 Y132.398 F5400
G1 X159.143 Y121.502 E229.24372 F2400
G0 X159.291 Y121.085 F5400
G1 X170.039 Y131.833 E230.00208 F2400
G0 X170.039 Y131.267 F5400
G1 X159.418 Y120.645 E230.75148 F2400
G0 X159.544 Y120.206 F5400
G1 X170.039 Y130.701 E231.49198 F2400
G0 X170.039 Y130.136 F5400
G1 X159.659 Y119.755 E232.22436 F2400
G0 X159.741 Y119.272 F5400
G1 X170.039 Y129.570 E232.95098 F2400
G0 X170.039 Y129.004 F5400
G1 X159.823 Y118.788 E233.67178 F2400
G0 X159.890 Y118.289 F5400
G1 X170.039 Y128.439 E234.38790 F2400
G0 X170.039 Y127.873 F5400
G1 X159.920 Y117.753 E235.10192 F2400
G0 X159.950 Y117.218 F5400
G1 X170.039 Y127.307 E235.81378 F2400
G0 X170.039 Y126.742 F5400
G1 X159.942 Y116.644 E236.52620 F2400
G0 X159.908 Y116.045 F5400
G1 X170.039 Y126.176 E237.24100 F2400
G0 X170.039 Y125.610 F5400
G1 X159.861 Y115.431 E237.95918 F2400
G0 X159.745 Y114.750 F5400
G1 X170.039 Y125.045 E238.68554 F2400
G0 X170.039 Y124.479 F5400
G1 X159.621 Y114.061 E239.42060 F2400
G0 X159.392 Y113.266 F5400
G1 X170.039 Y123.913 E240.17182 F2400
G0 X170.039 Y123.347 F5400
G1 X159.110 Y112.418 E240.94294 F2400
G0 X158.710 Y111.452 F5400
G1 X170.039 Y122.782 E241.74228 F2400
G0 X170.039 Y122.216 F5400
G1 X158.035 Y110.212 E242.58926 F2400
G0 X170.039 Y114.297 F5400
G1 X151.045 Y95.302 E243.92940 F2400
G0 X151.466 Y95.158 F5400
G1 X170.039 Y113.731 E245.23982 F2400
G0 X170.039 Y113.165 F5400
G1 X151.866 Y94.992 E246.52204 F2400
G0 X152.266 Y94.826 F5400
G1 X170.039 Y112.599 E247.77602 F2400
G0 X170.039 Y112.034 F5400
G1 X152.663 Y94.657 E249.00204 F2400
G0 X153.027 Y94.456 F5400
G1 X170.039 Y111.468 E250.20236 F2400
G0 X170.039 Y110.902 F5400
G1 X153.391 Y94.254 E251.37698 F2400
G0 X153.756 Y94.053 F5400
G1 X170.039 Y110.337 E252.52590 F2400
G0 X170.039 Y109.771 F5400
G1 X154.099 Y93.831 E253.65056 F2400
G0 X154.430 Y93.596 F5400
G1 X170.039 Y109.205 E254.75186 F2400
G0 X170.040 Y108.640 F5400
G1 X154.761 Y93.361 E255.82982 F2400
G0 X155.091 Y93.126 F5400
G1 X170.039 Y108.074 E256.88450 F2400
G0 X170.040 Y107.508 F5400
G1 X155.390 Y92.859 E257.91810 F2400
G0 X155.689 Y92.592 F5400
G1 X170.039 Y106.943 E258.93064 F2400
G0 X170.040 Y106.377 F5400
G1 X155.987 Y92.325 E259.92208 F2400
G0 X156.273 Y92.045 F5400
G1 X170.040 Y105.811 E260.89338 F2400
G0 X170.039 Y105.246 F5400
G1 X156.540 Y91.746 E261.84582 F2400
G0 X156.807 Y91.448 F5400
G1 X170.039 Y104.680 E262.77944 F2400
G0 X170.039 Y104.114 F5400
G1 X157.074 Y91.149 E263.69422 F2400
G0 X157.316 Y90.825 F5400
G1 X170.040 Y103.549 E264.59192 F2400
G0 X170.040 Y102.983 F5400
G1 X157.551 Y90.494 E265.47306 F2400
G0 X157.786 Y90.163 F5400
G1 X170.039 Y102.417 E266.33762 F2400
G0 X170.039 Y101.851 F5400
G1 X158.014 Y89.826 E267.18606 F2400
G0 X158.215 Y89.462 F5400
G1 X170.039 Y101.286 E268.02032 F2400
G0 X170.039 Y100.720 F5400
G1 X158.417 Y89.097 E268.84036 F2400
G0 X158.618 Y88.733 F5400
G1 X170.039 Y100.154 E269.64620 F2400
G0 X170.039 Y99.589 F5400
G1 X158.795 Y88.344 E270.43960 F2400
G0 X158.960 Y87.944 F5400
G1 X170.039 Y99.023 E271.22132 F2400
G0 X170.039 Y98.457 F5400
G1 X159.126 Y87.544 E271.99134 F2400
G0 X159.278 Y87.130 F5400
G1 X170.039 Y97.892 E272.75062 F2400
G0 X170.039 Y97.326 F5400
G1 X159.405 Y86.691 E273.50094 F2400
G0 X159.531 Y86.252 F5400
G1 X170.039 Y96.760 E274.24238 F2400
G0 X170.039 Y96.195 F5400
G1 X159.650 Y85.806 E274.97538 F2400
G0 X159.733 Y85.322 F5400
G1 X170.039 Y95.629 E275.70258 F2400
G0 X170.039 Y95.063 F5400
G1 X159.815 Y84.838 E276.42398 F2400
G0 X159.886 Y84.345 F5400
G1 X170.039 Y94.498 E277.14032 F2400
G0 X170.039 Y93.932 F5400
G1 X159.917 Y83.809 E277.85456 F2400
G0 X159.947 Y83.273 F5400
G1 X170.039 Y93.366 E278.56666 F2400
G0 X170.039 Y92.800 F5400
G1 X159.946 Y82.707 E279.27884 F2400
G0 X159.912 Y82.107 F5400
G1 X170.039 Y92.235 E279.99340 F2400
G0 X170.039 Y91.669 F5400
G1 X159.873 Y81.502 E280.71076 F2400
G0 X159.757 Y80.821 F5400
G1 X170.039 Y91.103 E281.43624 F2400
G0 X170.039 Y90.538 F5400
G1 X159.641 Y80.139 E282.16990 F2400
G0 X159.416 Y79.349 F5400
G1 X170.039 Y89.972 E282.91944 F2400
G0 X170.039 Y89.406 F5400
G1 X159.152 Y78.519 E283.68762 F2400
G0 X158.752 Y77.553 F5400
G1 X170.039 Y88.841 E284.48404 F2400
G0 X170.039 Y88.275 F5400
G1 X158.108 Y76.343 E285.32590 F2400
G0 F3000 E284.32590
G0 X157.936 Y76.776 F5400
G0 X164.674 Y59.806
G0 X164.539 Y60.147
G0 F3000 E285.32590
G1 X169.854 Y65.462 E285.70092 F2400
G0 X169.982 Y66.156 F5400
G1 X163.845 Y60.019 E286.13394 F2400
G0 X163.239 Y59.979 F5400
G1 X170.022 Y66.761 E286.61248 F2400
G0 X170.039 Y67.345 F5400
G1 X162.655 Y59.961 E287.13348 F2400
G0 X162.090 Y59.961 F5400
G1 X170.039 Y67.910 E287.69440 F2400
G0 X170.039 Y68.476 F5400
G1 X161.524 Y59.961 E288.29520 F2400
G0 X160.958 Y59.961 F5400
G1 X170.039 Y69.042 E288.93592 F2400
G0 X170.039 Y69.607 F5400
G1 X160.393 Y59.961 E289.61654 F2400
G0 X159.827 Y59.961 F5400
G1 X170.039 Y70.173 E290.33710 F2400
G0 X170.039 Y70.739 F5400
G1 X159.261 Y59.961 E291.09756 F2400
G0 X158.696 Y59.961 F5400
G1 X170.039 Y71.304 E291.89794 F2400
G0 X170.039 Y71.870 F5400
G1 X158.130 Y59.961 E292.73822 F2400
G0 X157.564 Y59.961 F5400
G1 X170.039 Y72.436 E293.61840 F2400
G0 X170.039 Y73.001 F5400
G1 X156.999 Y59.961 E294.53852 F2400
G0 X156.433 Y59.961 F5400
G1 X170.039 Y73.567 E295.49854 F2400
G0 X170.039 Y74.133 F5400
G1 X155.867 Y59.961 E296.49848 F2400
G0 X155.301 Y59.961 F5400
G1 X170.039 Y74.699 E297.53834 F2400
G0 X170.039 Y75.264 F5400
G1 X154.736 Y59.961 E298.61810 F2400
G0 X154.170 Y59.961 F5400
G1 X170.039 Y75.830 E299.73776 F2400
G0 X170.039 Y76.396 F5400
G1 X153.604 Y59.961 E300.89734 F2400
G0 X153.039 Y59.961 F5400
G1 X170.039 Y76.961 E302.09684 F2400
G0 X170.039 Y77.527 F5400
G1 X152.473 Y59.961 E303.33624 F2400
G0 X151.907 Y59.961 F5400
G1 X170.039 Y78.093 E304.61558 F2400
G0 X170.039 Y78.658 F5400
G1 X151.342 Y59.961 E305.93482 F2400
G0 X150.776 Y59.961 F5400
G1 X170.039 Y79.224 E307.29394 F2400
G0 X170.039 Y79.790 F5400
G1 X150.210 Y59.961 E308.69300 F2400
G0 X149.645 Y59.961 F5400
G1 X170.039 Y80.355 E310.13196 F2400
G0 X170.039 Y80.921 F5400
G1 X149.079 Y59.961 E311.61084 F2400
G0 X148.513 Y59.961 F5400
G1 X170.039 Y81.487 E313.12964 F2400
G0 X170.039 Y82.052 F5400
G1 X147.948 Y59.961 E314.68836 F2400
G0 X147.382 Y59.961 F5400
G1 X170.039 Y82.618 E316.28696 F2400
G0 X170.039 Y83.184 F5400
G1 X146.816 Y59.961 E317.92548 F2400
G0 X146.251 Y59.961 F5400
G1 X170.039 Y83.750 E319.60392 F2400
G0 X170.039 Y84.315 F5400
G1 X145.685 Y59.961 E321.32226 F2400
G0 X145.119 Y59.961 F5400
G1 X170.039 Y84.881 E323.08054 F2400
G0 X170.039 Y85.447 F5400
G1 X144.553 Y59.961 E324.87872 F2400
G0 X143.988 Y59.961 F5400
G1 X170.039 Y86.012 E326.71682 F2400
G0 X170.039 Y86.578 F5400
G1 X143.422 Y59.961 E328.59482 F2400
G0 X142.856 Y59.961 F5400
G1 X170.039 Y87.144 E330.51272 F2400
G0 X170.039 Y87.709 F5400
G1 X156.173 Y73.843 E331.49106 F2400
G0 X156.156 Y73.826 F5400
G1 X142.291 Y59.961 E332.46936 F2400
G0 X153.657 Y71.892 F5400
G1 X141.725 Y59.961 E333.31122 F2400
G0 X141.159 Y59.961 F5400
G1 X152.447 Y71.248 E334.10764 F2400
G0 X151.481 Y70.848 F5400
G1 X140.594 Y59.961 E334.87582 F2400
G0 X140.028 Y59.961 F5400
G1 X150.651 Y70.584 E335.62536 F2400
G0 X149.861 Y70.359 F5400
G1 X139.462 Y59.961 E336.35900 F2400
G0 X138.897 Y59.961 F5400
G1 X149.179 Y70.243 E337.08452 F2400
G0 X148.498 Y70.127 F5400
G1 X138.331 Y59.961 E337.80184 F2400
G0 X137.765 Y59.961 F5400
G1 X147.893 Y70.088 E338.51640 F2400
G0 X147.293 Y70.054 F5400
G1 X137.200 Y59.961 E339.22860 F2400
G0 X136.634 Y59.961 F5400
G1 X146.727 Y70.053 E339.94072 F2400
G0 X146.191 Y70.083 F5400
G1 X136.068 Y59.961 E340.65492 F2400
G0 X135.502 Y59.961 F5400
G1 X145.655 Y70.114 E341.37128 F2400
G0 X145.162 Y70.185 F5400
G1 X134.937 Y59.961 E342.09268 F2400
G0 X134.371 Y59.961 F5400
G1 X144.678 Y70.267 E342.81988 F2400
G0 X144.194 Y70.350 F5400
G1 X133.805 Y59.961 E343.55288 F2400
G0 X133.240 Y59.961 F5400
G1 X143.748 Y70.469 E344.29432 F2400
G0 X143.309 Y70.595 F5400
G1 X132.674 Y59.961 E345.04464 F2400
G0 X132.108 Y59.961 F5400
G1 X142.870 Y70.722 E345.80392 F2400
G0 X142.456 Y70.874 F5400
G1 X131.543 Y59.961 E346.57396 F2400
G0 X130.977 Y59.961 F5400
G1 X142.056 Y71.040 E347.35564 F2400
G0 X141.656 Y71.205 F5400
G1 X130.411 Y59.961 E348.14904 F2400
G0 X129.846 Y59.961 F5400
G1 X141.267 Y71.382 E348.95488 F2400
G0 X140.903 Y71.583 F5400
G1 X129.280 Y59.961 E349.77492 F2400
G0 X128.714 Y59.961 F5400
G1 X140.538 Y71.785 E350.60920 F2400
G0 X140.174 Y71.986 F5400
G1 X128.149 Y59.961 E351.45764 F2400
G0 X127.583 Y59.961 F5400
G1 X139.837 Y72.214 E352.32220 F2400
G0 X139.506 Y72.449 F5400
G1 X127.017 Y59.961 E353.20332 F2400
G0 X126.452 Y59.961 F5400
G1 X139.175 Y72.684 E354.10104 F2400
G0 X138.851 Y72.926 F5400
G1 X125.886 Y59.961 E355.01580 F2400
G0 X125.320 Y59.961 F5400
G1 X138.552 Y73.193 E355.94944 F2400
G0 X138.254 Y73.460 F5400
G1 X124.754 Y59.961 E356.90188 F2400
G0 X124.189 Y59.961 F5400
G1 X137.955 Y73.727 E357.87316 F2400
G0 X137.675 Y74.013 F5400
G1 X123.623 Y59.961 E358.86464 F2400
G0 X123.057 Y59.961 F5400
G1 X137.408 Y74.311 E359.87716 F2400
G0 X137.141 Y74.610 F5400
G1 X122.492 Y59.961 E360.91076 F2400
G0 X121.926 Y59.961 F5400
G1 X136.874 Y74.909 E361.96544 F2400
G0 X136.639 Y75.239 F5400
G1 X121.360 Y59.961 E363.04344 F2400
G0 X120.795 Y59.961 F5400
G1 X136.404 Y75.570 E364.14476 F2400
G0 X136.169 Y75.901 F5400
G1 X120.229 Y59.961 E365.26940 F2400
G0 X119.663 Y59.961 F5400
G1 X135.947 Y76.244 E366.41832 F2400
G0 X135.746 Y76.609 F5400
G1 X119.098 Y59.961 E367.59296 F2400
G0 X118.532 Y59.961 F5400
G1 X135.544 Y76.973 E368.79328 F2400
G0 X135.343 Y77.337 F5400
G1 X117.966 Y59.961 E370.01932 F2400
G0 X117.401 Y59.961 F5400
G1 X135.174 Y77.734 E371.27332 F2400
G0 X135.008 Y78.134 F5400
G1 X116.835 Y59.961 E372.55552 F2400
G0 X116.269 Y59.961 F5400
G1 X134.842 Y78.534 E373.86592 F2400
G0 X134.698 Y78.955 F5400
G1 X115.703 Y59.961 E375.20604 F2400
G0 X115.138 Y59.961 F5400
G1 X134.571 Y79.394 E376.57716 F2400
G0 X134.444 Y79.833 F5400
G1 X114.572 Y59.961 E377.97928 F2400
G0 X114.006 Y59.961 F5400
G1 X134.334 Y80.288 E379.41348 F2400
G0 X134.251 Y80.771 F5400
G1 X113.441 Y59.961 E380.88180 F2400
G0 X112.875 Y59.961 F5400
G1 X134.169 Y81.255 E382.38424 F2400
G0 X134.108 Y81.759 F5400
G1 X112.309 Y59.961 E383.92224 F2400
G0 X111.744 Y59.961 F5400
G1 X134.078 Y82.294 E385.49800 F2400
G0 X134.048 Y82.830 F5400
G1 X111.178 Y59.961 E387.11156 F2400
G0 X110.612 Y59.961 F5400
G1 X134.061 Y83.409 E388.76600 F2400
G0 X134.095 Y84.008 F5400
G1 X110.047 Y59.961 E390.46272 F2400
G0 X109.481 Y59.961 F5400
G1 X134.150 Y84.629 E392.20320 F2400
G0 X134.265 Y85.311 F5400
G1 X108.915 Y59.961 E393.99180 F2400
G0 X108.350 Y59.961 F5400
G1 X134.399 Y86.010 E395.82972 F2400
G0 X134.628 Y86.805 F5400
G1 X124.034 Y76.211 E396.57716 F2400
G0 X119.788 Y71.965 F5400
G1 X107.784 Y59.961 E397.42412 F2400
G0 X107.218 Y59.961 F5400
G1 X118.548 Y71.290 E398.22348 F2400
G0 X117.582 Y70.890 F5400
G1 X106.653 Y59.961 E398.99460 F2400
G0 X106.087 Y59.961 F5400
G1 X116.734 Y70.608 E399.74580 F2400
G0 X115.939 Y70.379 F5400
G1 X105.521 Y59.961 E400.48088 F2400
G0 X104.955 Y59.961 F5400
G1 X115.250 Y70.255 E401.20724 F2400
G0 X114.569 Y70.139 F5400
G1 X104.390 Y59.961 E401.92540 F2400
G0 X103.824 Y59.961 F5400
G1 X113.955 Y70.092 E402.64024 F2400
G0 X113.356 Y70.058 F5400
G1 X103.258 Y59.961 E403.35268 F2400
G0 X102.693 Y59.961 F5400
G1 X112.782 Y70.050 E404.06456 F2400
G0 X112.247 Y70.080 F5400
G1 X102.127 Y59.961 E404.77852 F2400
G0 X101.561 Y59.961 F5400
G1 X111.711 Y70.110 E405.49464 F2400
G0 X111.212 Y70.177 F5400
G1 X100.996 Y59.961 E406.21548 F2400
G0 X100.430 Y59.961 F5400
G1 X110.728 Y70.259 E406.94208 F2400
G0 X110.245 Y70.341 F5400
G1 X99.864 Y59.961 E407.67448 F2400
G0 X99.299 Y59.961 F5400
G1 X109.794 Y70.456 E408.41496 F2400
G0 X109.355 Y70.582 F5400
G1 X98.733 Y59.961 E409.16436 F2400
G0 X98.167 Y59.961 F5400
G1 X108.915 Y70.709 E409.92268 F2400
G0 X108.498 Y70.857 F5400
G1 X97.602 Y59.961 E410.69148 F2400
G0 X97.036 Y59.961 F5400
G1 X108.098 Y71.023 E411.47200 F2400
G0 X107.698 Y71.188 F5400
G1 X96.505 Y59.995 E412.26172 F2400
G0 X95.986 Y60.042 F5400
G1 X107.305 Y71.361 E413.06032 F2400
G0 X106.941 Y71.562 F5400
G1 X95.514 Y60.136 E413.86656 F2400
G0 X95.057 Y60.244 F5400
G1 X106.576 Y71.764 E414.67932 F2400
G0 X106.212 Y71.965 F5400
G1 X94.634 Y60.387 E415.49620 F2400
G0 X94.222 Y60.540 F5400
G1 X105.871 Y72.190 E416.31812 F2400
G0 X105.540 Y72.425 F5400
G1 X93.843 Y60.727 E417.14344 F2400
G0 X93.466 Y60.916 F5400
G1 X105.209 Y72.659 E417.97200 F2400
G0 X104.882 Y72.898 F5400
G1 X93.127 Y61.142 E418.80140 F2400
G0 X92.788 Y61.369 F5400
G1 X104.583 Y73.165 E419.63368 F2400
G0 X104.285 Y73.432 F5400
G1 X92.478 Y61.625 E420.46668 F2400
G0 X92.177 Y61.890 F5400
G1 X103.986 Y73.699 E421.29988 F2400
G0 X103.703 Y73.982 F5400
G1 X91.894 Y62.172 E422.13312 F2400
G0 X91.629 Y62.474 F5400
G1 X103.436 Y74.280 E422.96616 F2400
G0 X103.169 Y74.579 F5400
G1 X91.372 Y62.782 E423.79848 F2400
G0 X91.146 Y63.121 F5400
G1 X102.902 Y74.878 E424.62792 F2400
G0 X102.663 Y75.204 F5400
G1 X90.919 Y63.461 E425.45652 F2400
G0 X90.730 Y63.837 F5400
G1 X102.428 Y75.535 E426.28188 F2400
G0 X102.193 Y75.866 F5400
G1 X90.543 Y64.216 E427.10388 F2400
G0 X90.389 Y64.628 F5400
G1 X101.968 Y76.206 E427.92080 F2400
G0 X101.767 Y76.571 F5400
G1 X90.246 Y65.050 E428.73364 F2400
G0 X90.137 Y65.507 F5400
G1 X101.565 Y76.935 E429.53996 F2400
G0 X101.364 Y77.299 F5400
G1 X90.043 Y65.979 E430.33868 F2400
G0 X89.996 Y66.497 F5400
G1 X101.191 Y77.692 E431.12856 F2400
G0 X101.025 Y78.092 F5400
G1 X89.961 Y67.028 E431.90916 F2400
G0 X89.961 Y67.593 F5400
G1 X100.859 Y78.492 E432.67816 F2400
G0 X100.711 Y78.909 F5400
G1 X89.961 Y68.159 E433.43664 F2400
G0 X89.961 Y68.724 F5400
G1 X100.584 Y79.348 E434.18620 F2400
G0 X100.458 Y79.787 F5400
G1 X89.961 Y69.290 E434.92680 F2400
G0 X89.961 Y69.856 F5400
G1 X100.342 Y80.237 E435.65932 F2400
G0 X100.260 Y80.721 F5400
G1 X89.961 Y70.421 E436.38600 F2400
G0 X89.961 Y70.987 F5400
G1 X100.178 Y81.205 E437.10688 F2400
G0 X100.111 Y81.703 F5400
G1 X89.961 Y71.553 E437.82304 F2400
G0 X89.961 Y72.119 F5400
G1 X100.081 Y82.239 E438.53704 F2400
G0 X100.051 Y82.774 F5400
G1 X89.961 Y72.684 E439.24896 F2400
G0 X89.961 Y73.250 F5400
G1 X100.057 Y83.347 E439.96132 F2400
G0 X100.091 Y83.946 F5400
G1 X89.961 Y73.816 E440.67608 F2400
G0 X89.961 Y74.381 F5400
G1 X100.138 Y84.558 E441.39412 F2400
G0 X100.253 Y85.240 F5400
G1 X89.961 Y74.947 E442.12036 F2400
G0 X89.961 Y75.513 F5400
G1 X100.375 Y85.927 E442.85520 F2400
G0 X100.604 Y86.722 F5400
G1 X89.961 Y76.078 E443.60616 F2400
G0 X89.961 Y76.644 F5400
G1 X100.884 Y87.567 E444.37688 F2400
G0 X101.284 Y88.533 F5400
G1 X89.961 Y77.210 E445.17580 F2400
G0 X89.961 Y77.775 F5400
G1 X101.954 Y89.769 E446.02200 F2400
G0 X107.467 Y94.716 F5400
G1 X117.683 Y104.932 E446.74276 F2400
G0 X118.656 Y105.339 F5400
G1 X108.432 Y95.116 E447.46408 F2400
G0 X109.278 Y95.396 F5400
G1 X119.933 Y106.051 E448.21588 F2400
G0 F3000 E447.21588
G0 X119.400 Y106.162 F5400
G0 X118.468 Y105.647
G0 X117.162 Y105.106
G0 X115.804 Y104.714
G0 X114.411 Y104.478
G0 X113.000 Y104.399
G0 X111.589 Y104.478
G0 X110.196 Y104.714
G0 X108.838 Y105.106
G0 X107.532 Y105.647
G0 X106.296 Y106.330
G0 X105.143 Y107.148
G0 X104.090 Y108.090
G0 X103.148 Y109.143
G0 X102.817 Y109.609
G0 X89.600 Y112.357
G0 X89.961 Y112.282
G0 F3000 E448.21588
G1 X103.754 Y126.076 E449.18908 F2400
G0 F3000 E448.18908
G0 X104.147 Y125.962 F5400
G0 X105.143 Y126.852
G0 X106.296 Y127.670
G0 X107.532 Y128.353
G0 X108.838 Y128.894
G0 X110.196 Y129.285
G0 X111.589 Y129.522
G0 X113.000 Y129.601
G0 X114.411 Y129.522
G0 X115.804 Y129.285
G0 X117.162 Y128.894
G0 X118.468 Y128.353
G0 X119.704 Y127.670
G0 X120.857 Y126.852
G0 X121.911 Y125.911
G0 X122.852 Y124.857
G0 X123.670 Y123.704
G0 X124.353 Y122.468
G0 X124.894 Y121.162
G0 X125.282 Y119.817
G0 X125.668 Y119.705
G0 F3000 E449.18908
G1 X146.002 Y140.039 E450.62376 F2400
G0 X145.436 Y140.039 F5400
G1 X125.558 Y120.161 E452.02632 F2400
G0 X125.431 Y120.600 F5400
G1 X144.871 Y140.039 E453.39792 F2400
G0 X144.305 Y140.039 F5400
G1 X125.304 Y121.039 E454.73852 F2400
G0 X125.160 Y121.460 F5400
G1 X143.739 Y140.039 E456.04936 F2400
G0 X143.174 Y140.039 F5400
G1 X124.995 Y121.860 E457.33200 F2400
G0 X124.829 Y122.260 F5400
G1 X142.608 Y140.039 E458.58644 F2400
G0 X142.042 Y140.039 F5400
G1 X124.660 Y122.657 E459.81284 F2400
G0 X124.459 Y123.021 F5400
G1 X141.477 Y140.039 E461.01356 F2400
G0 X140.911 Y140.039 F5400
G1 X124.257 Y123.386 E462.18856 F2400
G0 X124.056 Y123.750 F5400
G1 X140.345 Y140.039 E463.33788 F2400
G0 X139.780 Y140.039 F5400
G1 X123.835 Y124.094 E464.46288 F2400
G0 X123.600 Y124.425 F5400
G1 X139.214 Y140.039 E465.56452 F2400
G0 X138.648 Y140.039 F5400
G1 X123.365 Y124.756 E466.64284 F2400
G0 X123.130 Y125.087 F5400
G1 X138.083 Y140.039 E467.69780 F2400
G0 X137.517 Y140.039 F5400
G1 X122.863 Y125.385 E468.73176 F2400
G0 X122.596 Y125.684 F5400
G1 X136.951 Y140.039 E469.74460 F2400
G0 X136.385 Y140.039 F5400
G1 X122.329 Y125.983 E470.73636 F2400
G0 X122.050 Y126.269 F5400
G1 X135.820 Y140.039 E471.70792 F2400
G0 X135.254 Y140.039 F5400
G1 X121.751 Y126.536 E472.66064 F2400
G0 X121.452 Y126.803 F5400
G1 X134.688 Y140.039 E473.59456 F2400
G0 X134.123 Y140.039 F5400
G1 X121.153 Y127.070 E474.50960 F2400
G0 X120.830 Y127.313 F5400
G1 X133.557 Y140.039 E475.40756 F2400
G0 X132.991 Y140.039 F5400
G1 X120.499 Y127.547 E476.28896 F2400
G0 X120.168 Y127.782 F5400
G1 X132.426 Y140.039 E477.15376 F2400
G0 X131.860 Y140.039 F5400
G1 X119.832 Y128.011 E478.00240 F2400
G0 X119.467 Y128.212 F5400
G1 X131.294 Y140.039 E478.83688 F2400
G0 X130.729 Y140.039 F5400
G1 X119.103 Y128.414 E479.65712 F2400
G0 X118.739 Y128.615 F5400
G1 X130.163 Y140.039 E480.46320 F2400
G0 X129.597 Y140.039 F5400
G1 X118.350 Y128.792 E481.25676 F2400
G0 X117.950 Y128.958 F5400
G1 X129.032 Y140.039 E482.03864 F2400
G0 X128.466 Y140.039 F5400
G1 X117.550 Y129.123 E482.80880 F2400
G0 X117.137 Y129.276 F5400
G1 X127.900 Y140.039 E483.56820 F2400
G0 X127.335 Y140.039 F5400
G1 X116.698 Y129.403 E484.31868 F2400
G0 X116.259 Y129.529 F5400
G1 X126.769 Y140.039 E485.06024 F2400
G0 X126.203 Y140.039 F5400
G1 X115.813 Y129.649 E485.79332 F2400
G0 X115.329 Y129.731 F5400
G1 X125.637 Y140.039 E486.52064 F2400
G0 X125.072 Y140.039 F5400
G1 X114.846 Y129.813 E487.24212 F2400
G0 X114.353 Y129.886 F5400
G1 X124.506 Y140.039 E487.95848 F2400
G0 X123.940 Y140.039 F5400
G1 X113.817 Y129.916 E488.67276 F2400
G0 X113.282 Y129.946 F5400
G1 X123.375 Y140.039 E489.38488 F2400
G0 X122.809 Y140.039 F5400
G1 X112.716 Y129.946 E490.09700 F2400
G0 X112.116 Y129.912 F5400
G1 X122.243 Y140.039 E490.81152 F2400
G0 X121.678 Y140.039 F5400
G1 X111.512 Y129.874 E491.52872 F2400
G0 X110.831 Y129.759 F5400
G1 X121.112 Y140.039 E492.25408 F2400
G0 X120.546 Y140.039 F5400
G1 X110.150 Y129.643 E492.98764 F2400
G0 X109.361 Y129.420 F5400
G1 X119.981 Y140.039 E493.73692 F2400
G0 X119.415 Y140.039 F5400
G1 X108.533 Y129.158 E494.50468 F2400
G0 X107.568 Y128.758 F5400
G1 X118.849 Y140.039 E495.30068 F2400
G0 X118.284 Y140.039 F5400
G1 X106.362 Y128.118 E496.14180 F2400
G0 X103.924 Y126.246 F5400
G1 X117.718 Y140.039 E497.11500 F2400
G0 X117.152 Y140.039 F5400
G1 X89.961 Y112.848 E499.03352 F2400
G0 X89.961 Y113.414 F5400
G1 X116.586 Y140.039 E500.91212 F2400
G0 X116.021 Y140.039 F5400
G1 X89.961 Y113.979 E502.75080 F2400
G0 X89.961 Y114.545 F5400
G1 X115.455 Y140.039 E504.54956 F2400
G0 X114.889 Y140.039 F5400
G1 X89.961 Y115.111 E506.30844 F2400
G0 X89.961 Y115.676 F5400
G1 X114.324 Y140.039 E508.02740 F2400
G0 X113.758 Y140.039 F5400
G1 X89.961 Y116.242 E509.70644 F2400
G0 X89.961 Y116.808 F5400
G1 X113.192 Y140.039 E511.34560 F2400
G0 X112.627 Y140.039 F5400
G1 X89.961 Y117.373 E512.94484 F2400
G0 X89.961 Y117.939 F5400
G1 X112.061 Y140.039 E514.50416 F2400
G0 X111.495 Y140.039 F5400
G1 X89.961 Y118.505 E516.02356 F2400
G0 X89.961 Y119.070 F5400
G1 X110.930 Y140.039 E517.50304 F2400
G0 X110.364 Y140.039 F5400
G1 X89.961 Y119.636 E518.94264 F2400
G0 X89.961 Y120.202 F5400
G1 X109.798 Y140.039 E520.34228 F2400
G0 X109.233 Y140.039 F5400
G1 X89.961 Y120.767 E521.70204 F2400
G0 X89.961 Y121.333 F5400
G1 X108.667 Y140.039 E523.02184 F2400
G0 X108.101 Y140.039 F5400
G1 X89.961 Y121.899 E524.30176 F2400
G0 X89.961 Y122.464 F5400
G1 X107.536 Y140.039 E525.54176 F2400
G0 X106.970 Y140.039 F5400
G1 X89.961 Y123.030 E526.74184 F2400
G0 X89.961 Y123.596 F5400
G1 X106.404 Y140.039 E527.90196 F2400
G0 X105.838 Y140.039 F5400
G1 X89.961 Y124.162 E529.02228 F2400
G0 X89.961 Y124.727 F5400
G1 X105.273 Y140.039 E530.10268 F2400
G0 X104.707 Y140.039 F5400
G1 X89.961 Y125.293 E531.14312 F2400
G0 X89.961 Y125.859 F5400
G1 X104.141 Y140.039 E532.14368 F2400
G0 X103.576 Y140.039 F5400
G1 X89.961 Y126.424 E533.10432 F2400
G0 X89.961 Y126.990 F5400
G1 X103.010 Y140.039 E534.02504 F2400
G0 X102.444 Y140.039 F5400
G1 X89.961 Y127.556 E534.90584 F2400
G0 X89.961 Y128.121 F5400
G1 X101.879 Y140.039 E535.74672 F2400
G0 X101.313 Y140.039 F5400
G1 X89.961 Y128.687 E536.54768 F2400
G0 X89.961 Y129.253 F5400
G1 X100.747 Y140.039 E537.30872 F2400
G0 X100.182 Y140.039 F5400
G1 X89.961 Y129.818 E538.02984 F2400
G0 X89.961 Y130.384 F5400
G1 X99.616 Y140.039 E538.71104 F2400
G0 X99.050 Y140.039 F5400
G1 X89.961 Y130.950 E539.35236 F2400
G0 X89.961 Y131.515 F5400
G1 X98.485 Y140.039 E539.95380 F2400
G0 X97.919 Y140.039 F5400
G1 X89.961 Y132.081 E540.51532 F2400
G0 X89.961 Y132.647 F5400
G1 X97.353 Y140.039 E541.03692 F2400
G0 X96.770 Y140.022 F5400
G1 X89.978 Y133.230 E541.51616 F2400
G0 X90.017 Y133.835 F5400
G1 X96.164 Y139.982 E541.94988 F2400
G0 X95.472 Y139.855 F5400
G1 X90.144 Y134.527 E542.32580 F2400
G0 X90.372 Y135.321 F5400
G1 X94.679 Y139.628 E542.62968 F2400
G0 X93.676 Y139.191 F5400
G1 X90.809 Y136.324 E542.83192 F2400
G0 X101.882 Y123.638 F5400
G1 X89.961 Y111.716 E543.67304 F2400
G0 X89.961 Y111.151 F5400
G1 X101.242 Y122.432 E544.46900 F2400
G0 X100.842 Y121.467 F5400
G1 X89.961 Y110.585 E545.23676 F2400
G0 X89.961 Y110.019 F5400
G1 X100.580 Y120.639 E545.98604 F2400
G0 X100.357 Y119.850 F5400
G1 X89.961 Y109.454 E546.71956 F2400
G0 X89.961 Y108.888 F5400
G1 X100.241 Y119.169 E547.44488 F2400
G0 X100.126 Y118.488 F5400
G1 X89.961 Y108.322 E548.16212 F2400
G0 X89.961 Y107.757 F5400
G1 X100.088 Y117.884 E548.87664 F2400
G0 X100.054 Y117.284 F5400
G1 X89.961 Y107.191 E549.58880 F2400
G0 X89.961 Y106.625 F5400
G1 X100.054 Y116.718 E550.30092 F2400
G0 X100.084 Y116.183 F5400
G1 X89.961 Y106.060 E551.01512 F2400
G0 X89.961 Y105.494 F5400
G1 X100.114 Y115.647 E551.73152 F2400
G0 X100.187 Y115.154 F5400
G1 X89.961 Y104.928 E552.45300 F2400
G0 X89.961 Y104.363 F5400
G1 X100.269 Y114.671 E553.18028 F2400
G0 X100.351 Y114.187 F5400
G1 X89.961 Y103.797 E553.91340 F2400
G0 X89.961 Y103.231 F5400
G1 X100.471 Y113.741 E554.65496 F2400
G0 X100.597 Y113.302 F5400
G1 X89.961 Y102.666 E555.40544 F2400
G0 X89.961 Y102.100 F5400
G1 X100.724 Y112.863 E556.16484 F2400
G0 X100.877 Y112.450 F5400
G1 X89.961 Y101.534 E556.93504 F2400
G0 X89.961 Y100.968 F5400
G1 X101.042 Y112.050 E557.71692 F2400
G0 X101.208 Y111.650 F5400
G1 X89.961 Y100.403 E558.51048 F2400
G0 X89.961 Y99.837 F5400
G1 X101.385 Y111.261 E559.31652 F2400
G0 X101.586 Y110.897 F5400
G1 X89.961 Y99.271 E560.13676 F2400
G0 X89.961 Y98.706 F5400
G1 X101.788 Y110.533 E560.97124 F2400
G0 X101.989 Y110.168 F5400
G1 X89.961 Y98.140 E561.81996 F2400
G0 X89.961 Y97.574 F5400
G1 X102.218 Y109.832 E562.68476 F2400
G0 X102.453 Y109.501 F5400
G1 X89.961 Y97.009 E563.56616 F2400
G0 X89.961 Y96.443 F5400
G1 X102.687 Y109.170 E564.46412 F2400
G0 X102.930 Y108.847 F5400
G1 X89.961 Y95.877 E565.37916 F2400
G0 X89.961 Y95.312 F5400
G1 X103.197 Y108.548 E566.31304 F2400
G0 X103.464 Y108.249 F5400
G1 X89.961 Y94.746 E567.26580 F2400
G0 X89.961 Y94.180 F5400
G1 X103.731 Y107.951 E568.23736 F2400
G0 X104.017 Y107.671 F5400
G1 X89.961 Y93.615 E569.22912 F2400
G0 X89.961 Y93.049 F5400
G1 X104.316 Y107.404 E570.24200 F2400
G0 X104.615 Y107.137 F5400
G1 X89.961 Y92.483 E571.27592 F2400
G0 X89.961 Y91.917 F5400
G1 X104.913 Y106.870 E572.33092 F2400
G0 X105.244 Y106.635 F5400
G1 X89.961 Y91.352 E573.40924 F2400
G0 X89.961 Y90.786 F5400
G1 X105.575 Y106.400 E574.51092 F2400
G0 X105.906 Y106.165 F5400
G1 X89.961 Y90.220 E575.63592 F2400
G0 X89.961 Y89.655 F5400
G1 X106.250 Y105.944 E576.78520 F2400
G0 X106.614 Y105.743 F5400
G1 X89.961 Y89.089 E577.96020 F2400
G0 X89.961 Y88.523 F5400
G1 X106.979 Y105.541 E579.16088 F2400
G0 X107.343 Y105.340 F5400
G1 X89.961 Y87.958 E580.38732 F2400
G0 X89.961 Y87.392 F5400
G1 X107.740 Y105.171 E581.64172 F2400
G0 X108.140 Y105.005 F5400
G1 X89.961 Y86.826 E582.92436 F2400
G0 X89.961 Y86.261 F5400
G1 X108.540 Y104.840 E584.23524 F2400
G0 X108.961 Y104.696 F5400
G1 X89.961 Y85.695 E585.57580 F2400
G0 X89.961 Y85.129 F5400
G1 X109.400 Y104.569 E586.94740 F2400
G0 X109.839 Y104.442 F5400
G1 X89.961 Y84.564 E588.34996 F2400
G0 X89.961 Y83.998 F5400
G1 X110.295 Y104.332 E589.78468 F2400
G0 X110.779 Y104.250 F5400
G1 X89.961 Y83.432 E591.25348 F2400
G0 X89.961 Y82.867 F5400
G1 X111.262 Y104.168 E592.75640 F2400
G0 X111.767 Y104.107 F5400
G1 X89.961 Y82.301 E594.29500 F2400
G0 X89.961 Y81.735 F5400
G1 X112.303 Y104.077 E595.87132 F2400
G0 X112.838 Y104.047 F5400
G1 X89.961 Y81.169 E597.48548 F2400
G0 X89.961 Y80.604 F5400
G1 X113.418 Y104.061 E599.14056 F2400
G0 X114.018 Y104.095 F5400
G1 X89.961 Y80.038 E600.83788 F2400
G0 X89.961 Y79.472 F5400
G1 X114.640 Y104.151 E602.57912 F2400
G0 X115.321 Y104.267 F5400
G1 X89.961 Y78.907 E604.36840 F2400
G0 X89.961 Y78.341 F5400
G1 X116.022 Y104.403 E606.20720 F2400
G0 X116.817 Y104.632 F5400
G1 X106.230 Y94.045 E606.95416 F2400
; ------------------------------------
; Layer #1
; ------------------------------------
G92 E0 ;reset extr
G0 F3000 E-1.00000
G0 F600 Z0.600
G0 X106.653 Y93.867 F7200
G0 X107.532 Y94.353
G0 X108.838 Y94.894
G0 X110.196 Y95.286
G0 X111.589 Y95.522
G0 X113.000 Y95.601
G0 X114.411 Y95.522
G0 X115.804 Y95.286
G0 X117.162 Y94.894
G0 X118.468 Y94.353
G0 X119.704 Y93.670
G0 X120.857 Y92.852
G0 X121.911 Y91.910
G0 X122.852 Y90.857
G0 X123.670 Y89.704
G0 X124.353 Y88.468
G0 X124.894 Y87.162
G0 X125.210 Y86.065
G0 X134.445 Y82.182
G0 X134.478 Y81.590
G0 X134.714 Y80.196
G0 X135.106 Y78.838
G0 X135.647 Y77.532
G0 X136.330 Y76.296
G0 X137.148 Y75.143
G0 X138.090 Y74.090
G0 X139.143 Y73.148
G0 X140.296 Y72.330
G0 X141.532 Y71.647
G0 X142.838 Y71.106
G0 X144.196 Y70.715
G0 X145.589 Y70.478
G0 X147.000 Y70.399
G0 X148.411 Y70.478
G0 X149.804 Y70.714
G0 X151.162 Y71.106
G0 X152.468 Y71.647
G0 X153.704 Y72.330
G0 X154.856 Y73.147
G0 X155.201 Y73.455
G0 X155.568 Y73.300
G0 F3000 E0.00000
;segType:HShell
G1 X167.373 Y61.495 E0.83293 F3600
G0 X167.837 Y61.177 F7200
;segType:Perimeter
G1 X168.555 Y61.530 E0.87284 F2160
G1 X169.188 Y62.253 E0.92079
G1 X169.756 Y63.103 E0.97176
G1 X170.207 Y64.019 E1.02273
G1 X170.535 Y64.986 E1.07367
G1 X170.733 Y65.988 E1.12463
G1 X170.800 Y67.007 E1.17556
G1 X170.800 Y132.993 E4.46765
G1 X170.733 Y134.012 E4.51856
G1 X170.535 Y135.014 E4.56953
G1 X170.207 Y135.981 E4.62049
G1 X169.756 Y136.897 E4.67144
G1 X169.188 Y137.747 E4.72241
G1 X168.515 Y138.515 E4.77336
G1 X167.747 Y139.188 E4.82431
G1 X166.897 Y139.756 E4.87528
G1 X165.981 Y140.207 E4.92623
G1 X165.014 Y140.534 E4.97718
G1 X164.012 Y140.733 E5.02815
G1 X162.993 Y140.800 E5.07907
G1 X97.007 Y140.800 E8.37116
G1 X95.988 Y140.733 E8.42209
G1 X94.986 Y140.535 E8.47305
G1 X94.019 Y140.207 E8.52401
G1 X93.102 Y139.756 E8.57496
G1 X92.253 Y139.188 E8.62592
G1 X91.485 Y138.515 E8.67688
G1 X90.812 Y137.747 E8.72783
G1 X90.244 Y136.898 E8.77879
G1 X89.793 Y135.981 E8.82974
G1 X89.466 Y135.014 E8.88070
G1 X89.267 Y134.012 E8.93166
G1 X89.200 Y132.993 E8.98259
G1 X89.200 Y67.007 E12.27468
G1 X89.267 Y65.988 E12.32561
G1 X89.466 Y64.986 E12.37657
G1 X89.793 Y64.019 E12.42753
G1 X90.244 Y63.103 E12.47848
G1 X90.812 Y62.253 E12.52944
G1 X91.485 Y61.485 E12.58040
G1 X92.253 Y60.812 E12.63134
G1 X93.103 Y60.244 E12.68232
G1 X94.019 Y59.793 E12.73326
G1 X94.986 Y59.465 E12.78423
G1 X95.988 Y59.267 E12.83519
G1 X97.007 Y59.200 E12.88610
G1 X162.993 Y59.200 E16.17820
G1 X164.012 Y59.267 E16.22913
G1 X165.014 Y59.465 E16.28008
G1 X165.981 Y59.793 E16.33104
G1 X166.897 Y60.244 E16.38199
G1 X167.747 Y60.812 E16.43296
G1 X168.470 Y61.446 E16.48093
G0 X168.824 Y62.163 F7200
G0 X168.870 Y62.497
G0 X168.926 Y62.580
;segType:Loop
G1 X169.408 Y63.303 E16.52427 F3600
G1 X169.837 Y64.172 E16.57263
G1 X170.147 Y65.090 E16.62095
G1 X170.336 Y66.040 E16.66929
G1 X170.400 Y67.020 E16.71827
G1 X170.400 Y132.980 E20.00906
G1 X170.336 Y133.960 E20.05803
G1 X170.147 Y134.910 E20.10636
G1 X169.836 Y135.828 E20.15472
G1 X169.408 Y136.697 E20.20304
G1 X168.870 Y137.503 E20.25140
G1 X168.232 Y138.231 E20.29973
G1 X167.503 Y138.870 E20.34806
G1 X166.697 Y139.408 E20.39640
G1 X165.828 Y139.836 E20.44474
G1 X164.910 Y140.147 E20.49308
G1 X163.960 Y140.336 E20.54143
G1 X162.980 Y140.400 E20.59040
G1 X97.020 Y140.400 E23.88119
G1 X96.040 Y140.336 E23.93016
G1 X95.090 Y140.147 E23.97851
G1 X94.172 Y139.836 E24.02685
G1 X93.303 Y139.408 E24.07518
G1 X92.497 Y138.870 E24.12353
G1 X91.769 Y138.232 E24.17186
G1 X91.130 Y137.503 E24.22019
G1 X90.592 Y136.697 E24.26854
G1 X90.164 Y135.828 E24.31687
G1 X89.853 Y134.910 E24.36521
G1 X89.664 Y133.960 E24.41356
G1 X89.600 Y132.980 E24.46253
G1 X89.600 Y67.020 E27.75332
G1 X89.664 Y66.040 E27.80229
G1 X89.853 Y65.090 E27.85064
G1 X90.164 Y64.172 E27.89898
G1 X90.592 Y63.303 E27.94731
G1 X91.130 Y62.497 E27.99566
G1 X91.769 Y61.768 E28.04399
G1 X92.497 Y61.130 E28.09231
G1 X93.303 Y60.592 E28.14068
G1 X94.172 Y60.164 E28.18900
G1 X95.090 Y59.853 E28.23735
G1 X96.040 Y59.664 E28.28569
G1 X97.020 Y59.600 E28.33465
G1 X162.980 Y59.600 E31.62545
G1 X163.960 Y59.664 E31.67442
G1 X164.910 Y59.853 E31.72276
G1 X165.828 Y60.163 E31.77109
G1 X166.697 Y60.592 E31.81943
G1 X167.503 Y61.130 E31.86778
G1 X168.232 Y61.769 E31.91613
G1 X168.804 Y62.422 E31.95946
G0 F3000 E30.95946
G0 X158.477 Y77.831 F7200
G0 X158.894 Y78.838
G0 X159.286 Y80.197
G0 X159.522 Y81.589
G0 X159.601 Y83.000
G0 X159.522 Y84.412
G0 X159.285 Y85.804
G0 X158.894 Y87.162
G0 X158.353 Y88.468
G0 X157.670 Y89.704
G0 X156.852 Y90.857
G0 X155.910 Y91.910
G0 X154.857 Y92.852
G0 X153.704 Y93.670
G0 X152.468 Y94.353
G0 X151.162 Y94.894
G0 X149.804 Y95.286
G0 X148.410 Y95.522
G0 X147.000 Y95.601
G0 X146.583 Y95.578
G0 X139.107 Y106.732
G0 F3000 E31.95946
;segType:HShell
G1 X150.331 Y95.509 E32.75133 F3600
G0 X150.456 Y94.890 F7200
;segType:Perimeter
G1 X149.656 Y94.905 E32.79124 F2160
G1 X148.366 Y95.124 E32.85652
G1 X147.000 Y95.201 E32.92475
G1 X145.634 Y95.124 E32.99302
G1 X144.285 Y94.895 E33.06128
G1 X142.970 Y94.516 E33.12956
G1 X141.706 Y93.992 E33.19782
G1 X140.509 Y93.331 E33.26607
G1 X139.393 Y92.539 E33.33430
G1 X138.373 Y91.627 E33.40260
G1 X137.461 Y90.607 E33.47083
G1 X136.669 Y89.491 E33.53909
G1 X136.008 Y88.294 E33.60733
G1 X135.484 Y87.030 E33.67561
G1 X135.105 Y85.715 E33.74387
G1 X134.876 Y84.366 E33.81214
G1 X134.799 Y83.000 E33.88040
G1 X134.876 Y81.634 E33.94863
G1 X135.105 Y80.285 E34.01691
G1 X135.484 Y78.970 E34.08518
G1 X136.008 Y77.706 E34.15344
G1 X136.669 Y76.509 E34.22169
G1 X137.461 Y75.393 E34.28996
G1 X138.373 Y74.373 E34.35821
G1 X139.393 Y73.461 E34.42647
G1 X140.509 Y72.669 E34.49473
G1 X141.706 Y72.008 E34.56298
G1 X142.970 Y71.484 E34.63125
G1 X144.285 Y71.105 E34.69951
G1 X145.634 Y70.876 E34.76775
G1 X147.000 Y70.799 E34.83605
G1 X148.366 Y70.876 E34.90426
G1 X149.715 Y71.105 E34.97254
G1 X151.030 Y71.484 E35.04082
G1 X152.294 Y72.008 E35.10908
G1 X153.491 Y72.669 E35.17732
G1 X154.607 Y73.461 E35.24558
G1 X155.627 Y74.372 E35.31383
G1 X156.539 Y75.393 E35.38213
G1 X157.331 Y76.509 E35.45040
G1 X157.993 Y77.706 E35.51864
G1 X158.516 Y78.970 E35.58687
G1 X158.895 Y80.285 E35.65517
G1 X159.124 Y81.634 E35.72344
G1 X159.201 Y83.000 E35.79166
G1 X159.124 Y84.366 E35.85996
G1 X158.895 Y85.715 E35.92819
G1 X158.516 Y87.030 E35.99646
G1 X157.993 Y88.294 E36.06472
G1 X157.331 Y89.491 E36.13298
G1 X156.539 Y90.607 E36.20123
G1 X155.627 Y91.627 E36.26949
G1 X154.607 Y92.539 E36.33775
G1 X153.491 Y93.331 E36.40602
G1 X152.294 Y93.992 E36.47427
G1 X151.030 Y94.516 E36.54253
G1 X149.772 Y94.878 E36.60781
G0 X149.045 Y95.212 F7200
G0 X148.697 Y95.473
;segType:Loop
G1 X148.410 Y95.522 E36.62232 F3600
G1 X147.000 Y95.601 E36.69279
G1 X145.589 Y95.522 E36.76329
G1 X144.196 Y95.285 E36.83381
G1 X142.838 Y94.894 E36.90432
G1 X141.532 Y94.353 E36.97482
G1 X140.296 Y93.670 E37.04530
G1 X139.143 Y92.852 E37.11579
G1 X138.089 Y91.910 E37.18631
G1 X137.148 Y90.857 E37.25681
G1 X136.330 Y89.704 E37.32730
G1 X135.647 Y88.468 E37.39779
G1 X135.106 Y87.162 E37.46830
G1 X134.715 Y85.804 E37.53880
G1 X134.478 Y84.411 E37.60932
G1 X134.399 Y83.000 E37.67983
G1 X134.478 Y81.590 E37.75029
G1 X134.714 Y80.196 E37.82081
G1 X135.106 Y78.838 E37.89133
G1 X135.647 Y77.532 E37.96183
G1 X136.330 Y76.296 E38.03232
G1 X137.148 Y75.143 E38.10283
G1 X138.090 Y74.090 E38.17333
G1 X139.143 Y73.148 E38.24383
G1 X140.296 Y72.330 E38.31432
G1 X141.532 Y71.647 E38.38482
G1 X142.838 Y71.106 E38.45533
G1 X144.196 Y70.715 E38.52583
G1 X145.589 Y70.478 E38.59630
G1 X147.000 Y70.399 E38.66683
G1 X148.411 Y70.478 E38.73732
G1 X149.804 Y70.714 E38.80781
G1 X151.162 Y71.106 E38.87835
G1 X152.468 Y71.647 E38.94884
G1 X153.704 Y72.330 E39.01933
G1 X154.856 Y73.147 E39.08982
G1 X155.910 Y74.089 E39.16033
G1 X156.852 Y75.143 E39.23086
G1 X157.670 Y76.296 E39.30138
G1 X158.353 Y77.533 E39.37185
G1 X158.894 Y78.838 E39.44233
G1 X159.286 Y80.197 E39.51288
G1 X159.522 Y81.589 E39.58336
G1 X159.601 Y83.000 E39.65385
G1 X159.522 Y84.412 E39.72439
G1 X159.285 Y85.804 E39.79486
G1 X158.894 Y87.162 E39.86536
G1 X158.353 Y88.468 E39.93586
G1 X157.670 Y89.704 E40.00637
G1 X156.852 Y90.857 E40.07686
G1 X155.910 Y91.910 E40.14736
G1 X154.857 Y92.852 E40.21785
G1 X153.704 Y93.670 E40.28837
G1 X152.468 Y94.353 E40.35886
G1 X151.162 Y94.894 E40.42936
G1 X149.804 Y95.286 E40.49987
G1 X148.894 Y95.440 E40.54590
G0 X148.904 Y95.804 F7200
;segType:HShell
G1 X125.804 Y118.904 E42.17576 F3600
G0 X125.212 Y119.045 F7200
;segType:Perimeter
G1 X124.878 Y119.773 E42.21568 F2160
G1 X124.516 Y121.030 E42.28095
G1 X123.992 Y122.294 E42.34920
G1 X123.331 Y123.491 E42.41746
G1 X122.539 Y124.607 E42.48573
G1 X121.627 Y125.627 E42.55397
G1 X120.607 Y126.539 E42.62224
G1 X119.491 Y127.331 E42.69050
G1 X118.294 Y127.992 E42.75875
G1 X117.030 Y128.516 E42.82702
G1 X115.715 Y128.895 E42.89529
G1 X114.366 Y129.124 E42.96355
G1 X113.000 Y129.201 E43.03180
G1 X111.634 Y129.124 E43.10006
G1 X110.285 Y128.895 E43.16833
G1 X108.970 Y128.516 E43.23659
G1 X107.706 Y127.992 E43.30485
G1 X106.509 Y127.331 E43.37310
G1 X105.393 Y126.539 E43.44137
G1 X104.373 Y125.627 E43.50962
G1 X103.461 Y124.607 E43.57788
G1 X102.669 Y123.491 E43.64615
G1 X102.008 Y122.294 E43.71440
G1 X101.484 Y121.030 E43.78266
G1 X101.105 Y119.715 E43.85092
G1 X100.876 Y118.366 E43.91918
G1 X100.799 Y117.000 E43.98744
G1 X100.876 Y115.634 E44.05570
G1 X101.105 Y114.285 E44.12396
G1 X101.484 Y112.970 E44.19223
G1 X102.008 Y111.706 E44.26049
G1 X102.669 Y110.509 E44.32874
G1 X103.461 Y109.393 E44.39701
G1 X104.373 Y108.373 E44.46526
G1 X105.393 Y107.461 E44.53351
G1 X106.509 Y106.669 E44.60179
G1 X107.706 Y106.008 E44.67004
G1 X108.970 Y105.484 E44.73830
G1 X110.285 Y105.105 E44.80656
G1 X111.634 Y104.876 E44.87483
G1 X113.000 Y104.799 E44.94309
G1 X114.366 Y104.876 E45.01132
G1 X115.715 Y105.105 E45.07960
G1 X117.030 Y105.484 E45.14787
G1 X118.294 Y106.008 E45.21612
G1 X119.491 Y106.669 E45.28438
G1 X120.607 Y107.461 E45.35263
G1 X121.627 Y108.373 E45.42091
G1 X122.539 Y109.393 E45.48915
G1 X123.331 Y110.509 E45.55743
G1 X123.992 Y111.706 E45.62567
G1 X124.516 Y112.970 E45.69393
G1 X124.895 Y114.285 E45.76220
G1 X125.124 Y115.634 E45.83047
G1 X125.201 Y117.000 E45.89870
G1 X125.124 Y118.366 E45.96696
G1 X124.905 Y119.656 E46.03224
G0 X124.890 Y120.456 F7200
G0 X124.975 Y120.883
;segType:Loop
G1 X124.894 Y121.162 E46.04674 F3600
G1 X124.353 Y122.468 E46.11724
G1 X123.670 Y123.704 E46.18774
G1 X122.852 Y124.857 E46.25825
G1 X121.911 Y125.911 E46.32874
G1 X120.857 Y126.852 E46.39925
G1 X119.704 Y127.670 E46.46975
G1 X118.468 Y128.353 E46.54024
G1 X117.162 Y128.894 E46.61075
G1 X115.804 Y129.285 E46.68125
G1 X114.411 Y129.522 E46.75175
G1 X113.000 Y129.601 E46.82225
G1 X111.589 Y129.522 E46.89275
G1 X110.196 Y129.285 E46.96326
G1 X108.838 Y128.894 E47.03376
G1 X107.532 Y128.353 E47.10426
G1 X106.296 Y127.670 E47.17476
G1 X105.143 Y126.852 E47.24526
G1 X104.089 Y125.911 E47.31576
G1 X103.148 Y124.857 E47.38625
G1 X102.330 Y123.704 E47.45677
G1 X101.647 Y122.468 E47.52726
G1 X101.106 Y121.162 E47.59777
G1 X100.715 Y119.804 E47.66826
G1 X100.478 Y118.411 E47.73877
G1 X100.399 Y117.000 E47.80927
G1 X100.478 Y115.589 E47.87977
G1 X100.715 Y114.196 E47.95027
G1 X101.106 Y112.838 E48.02077
G1 X101.647 Y111.532 E48.09128
G1 X102.330 Y110.296 E48.16177
G1 X103.148 Y109.143 E48.23228
G1 X104.090 Y108.090 E48.30278
G1 X105.143 Y107.148 E48.37327
G1 X106.296 Y106.330 E48.44379
G1 X107.532 Y105.647 E48.51428
G1 X108.838 Y105.106 E48.58478
G1 X110.196 Y104.714 E48.65528
G1 X111.589 Y104.478 E48.72580
G1 X113.000 Y104.399 E48.79630
G1 X114.411 Y104.478 E48.86677
G1 X115.804 Y104.714 E48.93728
G1 X117.162 Y105.106 E49.00780
G1 X118.468 Y105.647 E49.07830
G1 X119.704 Y106.330 E49.14880
G1 X120.857 Y107.148 E49.21929
G1 X121.911 Y108.090 E49.28980
G1 X122.852 Y109.143 E49.36028
G1 X123.670 Y110.296 E49.43079
G1 X124.353 Y111.532 E49.50127
G1 X124.894 Y112.838 E49.57178
G1 X125.286 Y114.196 E49.64230
G1 X125.522 Y115.589 E49.71281
G1 X125.601 Y117.000 E49.78328
G1 X125.522 Y118.411 E49.85378
G1 X125.286 Y119.804 E49.92430
G1 X125.030 Y120.691 E49.97032
G0 F3000 E48.97032
G0 X125.030 Y120.691 F7200
G0 X137.710 Y140.400
G0 X137.478 Y140.039
G0 F3000 E49.97032
;segType:HShell
G1 X147.589 Y129.929 E50.68367 F3600
G0 X147.723 Y129.361 F7200
;segType:Perimeter
G1 X146.940 Y129.197 E50.72358 F2160
G1 X145.634 Y129.124 E50.78885
G1 X144.285 Y128.895 E50.85710
G1 X142.970 Y128.516 E50.92536
G1 X141.706 Y127.992 E50.99364
G1 X140.509 Y127.331 E51.06190
G1 X139.393 Y126.539 E51.13015
G1 X138.373 Y125.627 E51.19840
G1 X137.461 Y124.607 E51.26665
G1 X136.669 Y123.491 E51.33493
G1 X136.008 Y122.294 E51.40319
G1 X135.484 Y121.030 E51.47144
G1 X135.105 Y119.715 E51.53971
G1 X134.876 Y118.366 E51.60798
G1 X134.799 Y117.000 E51.67624
G1 X134.876 Y115.634 E51.74447
G1 X135.105 Y114.285 E51.81274
G1 X135.484 Y112.970 E51.88101
G1 X136.008 Y111.706 E51.94927
G1 X136.669 Y110.509 E52.01752
G1 X137.461 Y109.393 E52.08579
G1 X138.373 Y108.373 E52.15404
G1 X139.393 Y107.461 E52.22230
G1 X140.509 Y106.669 E52.29056
G1 X141.706 Y106.008 E52.35881
G1 X142.970 Y105.484 E52.42707
G1 X144.285 Y105.105 E52.49534
G1 X145.634 Y104.876 E52.56360
G1 X147.000 Y104.799 E52.63187
G1 X148.366 Y104.876 E52.70010
G1 X149.715 Y105.105 E52.76837
G1 X151.030 Y105.484 E52.83664
G1 X152.294 Y106.008 E52.90491
G1 X153.491 Y106.669 E52.97315
G1 X154.607 Y107.461 E53.04140
G1 X155.627 Y108.373 E53.10966
G1 X156.539 Y109.393 E53.17797
G1 X157.331 Y110.509 E53.24618
G1 X157.993 Y111.706 E53.31445
G1 X158.516 Y112.970 E53.38271
G1 X158.895 Y114.285 E53.45096
G1 X159.124 Y115.634 E53.51925
G1 X159.201 Y117.000 E53.58747
G1 X159.124 Y118.366 E53.65575
G1 X158.895 Y119.715 E53.72403
G1 X158.516 Y121.029 E53.79227
G1 X157.992 Y122.294 E53.86054
G1 X157.331 Y123.491 E53.92879
G1 X156.539 Y124.607 E53.99706
G1 X155.627 Y125.627 E54.06531
G1 X154.607 Y126.539 E54.13357
G1 X153.491 Y127.331 E54.20183
G1 X152.294 Y127.993 E54.27010
G1 X151.030 Y128.516 E54.33835
G1 X149.715 Y128.895 E54.40661
G1 X148.366 Y129.124 E54.47488
G1 X147.060 Y129.197 E54.54014
G0 X146.277 Y129.361 F7200
G0 X145.879 Y129.538
;segType:Loop
G1 X145.589 Y129.522 E54.55464 F3600
G1 X144.196 Y129.285 E54.62513
G1 X142.838 Y128.894 E54.69564
G1 X141.532 Y128.353 E54.76616
G1 X140.295 Y127.670 E54.83666
G1 X139.143 Y126.852 E54.90716
G1 X138.090 Y125.911 E54.97764
G1 X137.148 Y124.857 E55.04814
G1 X136.330 Y123.704 E55.11865
G1 X135.647 Y122.467 E55.18917
G1 X135.106 Y121.162 E55.25965
G1 X134.715 Y119.804 E55.33015
G1 X134.478 Y118.411 E55.40068
G1 X134.399 Y117.000 E55.47117
G1 X134.478 Y115.589 E55.54164
G1 X134.714 Y114.196 E55.61215
G1 X135.106 Y112.838 E55.68268
G1 X135.647 Y111.532 E55.75317
G1 X136.330 Y110.296 E55.82367
G1 X137.148 Y109.143 E55.89417
G1 X138.090 Y108.090 E55.96466
G1 X139.143 Y107.148 E56.03517
G1 X140.296 Y106.330 E56.10567
G1 X141.532 Y105.647 E56.17616
G1 X142.838 Y105.106 E56.24667
G1 X144.196 Y104.715 E56.31716
G1 X145.589 Y104.478 E56.38769
G1 X147.000 Y104.399 E56.45819
G1 X148.410 Y104.478 E56.52865
G1 X149.804 Y104.714 E56.59918
G1 X151.162 Y105.106 E56.66969
G1 X152.468 Y105.647 E56.74020
G1 X153.704 Y106.330 E56.81068
G1 X154.857 Y107.148 E56.88117
G1 X155.910 Y108.089 E56.95167
G1 X156.852 Y109.144 E57.02220
G1 X157.670 Y110.296 E57.09269
G1 X158.353 Y111.532 E57.16318
G1 X158.894 Y112.838 E57.23368
G1 X159.285 Y114.195 E57.30416
G1 X159.522 Y115.589 E57.37469
G1 X159.601 Y117.000 E57.44518
G1 X159.522 Y118.410 E57.51565
G1 X159.285 Y119.804 E57.58620
G1 X158.894 Y121.162 E57.65670
G1 X158.353 Y122.468 E57.72721
G1 X157.670 Y123.704 E57.79769
G1 X156.852 Y124.857 E57.86820
G1 X155.911 Y125.910 E57.93869
G1 X154.857 Y126.852 E58.00920
G1 X153.704 Y127.670 E58.07971
G1 X152.467 Y128.354 E58.15021
G1 X151.162 Y128.894 E58.22071
G1 X149.804 Y129.285 E58.29121
G1 X148.411 Y129.522 E58.36171
G1 X147.000 Y129.601 E58.43221
G1 X146.079 Y129.550 E58.47824
G0 F3000 E57.47824
G0 X146.079 Y129.550 F7200
G0 X145.589 Y129.522
G0 X144.196 Y129.285
G0 X142.838 Y128.894
G0 X142.421 Y128.722
G0 X123.197 Y124.370
G0 X122.852 Y124.857
G0 X121.911 Y125.911
G0 X120.857 Y126.852
G0 X119.704 Y127.670
G0 X118.468 Y128.353
G0 X117.162 Y128.894
G0 X115.804 Y129.285
G0 X114.411 Y129.522
G0 X113.000 Y129.601
G0 X111.589 Y129.522
G0 X110.196 Y129.285
G0 X108.838 Y128.894
G0 X107.532 Y128.353
G0 X106.296 Y127.670
G0 X105.143 Y126.852
G0 X104.089 Y125.911
G0 X103.148 Y124.857
G0 X102.330 Y123.704
G0 X101.647 Y122.468
G0 X101.106 Y121.162
G0 X100.715 Y119.804
G0 X100.622 Y119.260
G0 X89.600 Y116.765
G0 X89.961 Y116.846
G0 F3000 E58.47824
;segType:HShell
G1 X111.017 Y95.790 E59.96386 F3600
G0 X110.955 Y95.212 F7200
;segType:Perimeter
G1 X110.227 Y94.878 E60.00377 F2160
G1 X108.970 Y94.516 E60.06903
G1 X107.706 Y93.992 E60.13730
G1 X106.509 Y93.331 E60.20556
G1 X105.393 Y92.539 E60.27383
G1 X104.373 Y91.627 E60.34207
G1 X103.461 Y90.607 E60.41032
G1 X102.669 Y89.491 E60.47859
G1 X102.007 Y88.294 E60.54685
G1 X101.484 Y87.030 E60.61511
G1 X101.105 Y85.715 E60.68337
G1 X100.876 Y84.366 E60.75162
G1 X100.799 Y83.000 E60.81988
G1 X100.876 Y81.634 E60.88814
G1 X101.105 Y80.285 E60.95641
G1 X101.484 Y78.970 E61.02466
G1 X102.007 Y77.706 E61.09292
G1 X102.669 Y76.509 E61.16118
G1 X103.461 Y75.393 E61.22945
G1 X104.373 Y74.373 E61.29771
G1 X105.393 Y73.461 E61.36596
G1 X106.509 Y72.669 E61.43423
G1 X107.706 Y72.008 E61.50248
G1 X108.971 Y71.484 E61.57075
G1 X110.285 Y71.105 E61.63899
G1 X111.634 Y70.876 E61.70727
G1 X113.000 Y70.799 E61.77555
G1 X114.366 Y70.876 E61.84377
G1 X115.715 Y71.105 E61.91206
G1 X117.030 Y71.484 E61.98030
G1 X118.294 Y72.008 E62.04858
G1 X119.491 Y72.669 E62.11682
G1 X120.607 Y73.461 E62.18510
G1 X121.627 Y74.373 E62.25334
G1 X122.539 Y75.393 E62.32159
G1 X123.331 Y76.509 E62.38988
G1 X123.992 Y77.706 E62.45812
G1 X124.516 Y78.970 E62.52637
G1 X124.895 Y80.285 E62.59465
G1 X125.124 Y81.634 E62.66292
G1 X125.201 Y83.000 E62.73115
G1 X125.124 Y84.366 E62.79942
G1 X124.895 Y85.715 E62.86769
G1 X124.516 Y87.030 E62.93595
G1 X123.992 Y88.294 E63.00421
G1 X123.331 Y89.491 E63.07246
G1 X122.539 Y90.607 E63.14072
G1 X121.627 Y91.627 E63.20897
G1 X120.607 Y92.539 E63.27724
G1 X119.491 Y93.331 E63.34550
G1 X118.294 Y93.992 E63.41375
G1 X117.030 Y94.516 E63.48200
G1 X115.715 Y94.895 E63.55028
G1 X114.366 Y95.124 E63.61855
G1 X113.000 Y95.201 E63.68678
G1 X111.634 Y95.124 E63.75504
G1 X110.344 Y94.905 E63.82032
G0 X109.544 Y94.890 F7200
G0 X109.117 Y94.975
;segType:Loop
G1 X108.838 Y94.894 E63.83481 F3600
G1 X107.532 Y94.353 E63.90533
G1 X106.296 Y93.670 E63.97581
G1 X105.143 Y92.852 E64.04634
G1 X104.090 Y91.911 E64.11681
G1 X103.148 Y90.857 E64.18730
G1 X102.330 Y89.704 E64.25781
G1 X101.646 Y88.467 E64.32833
G1 X101.106 Y87.162 E64.39882
G1 X100.715 Y85.804 E64.46933
G1 X100.478 Y84.411 E64.53982
G1 X100.399 Y83.000 E64.61032
G1 X100.478 Y81.589 E64.68082
G1 X100.715 Y80.196 E64.75133
G1 X101.106 Y78.838 E64.82183
G1 X101.646 Y77.533 E64.89232
G1 X102.330 Y76.296 E64.96283
G1 X103.148 Y75.143 E65.03334
G1 X104.090 Y74.089 E65.10384
G1 X105.143 Y73.148 E65.17433
G1 X106.296 Y72.330 E65.24484
G1 X107.532 Y71.647 E65.31533
G1 X108.838 Y71.106 E65.38585
G1 X110.196 Y70.715 E65.45632
G1 X111.590 Y70.478 E65.52687
G1 X113.000 Y70.399 E65.59735
G1 X114.411 Y70.478 E65.66783
G1 X115.805 Y70.715 E65.73837
G1 X117.162 Y71.106 E65.80885
G1 X118.468 Y71.647 E65.87935
G1 X119.704 Y72.330 E65.94984
G1 X120.857 Y73.148 E66.02035
G1 X121.910 Y74.089 E66.09083
G1 X122.852 Y75.143 E66.16135
G1 X123.670 Y76.296 E66.23187
G1 X124.353 Y77.532 E66.30234
G1 X124.894 Y78.838 E66.37284
G1 X125.286 Y80.196 E66.44335
G1 X125.522 Y81.590 E66.51387
G1 X125.601 Y83.000 E66.58434
G1 X125.522 Y84.411 E66.65484
G1 X125.285 Y85.804 E66.72536
G1 X124.894 Y87.162 E66.79586
G1 X124.353 Y88.468 E66.86636
G1 X123.670 Y89.704 E66.93685
G1 X122.852 Y90.857 E67.00735
G1 X121.911 Y91.910 E67.07785
G1 X120.857 Y92.852 E67.14835
G1 X119.704 Y93.670 E67.21885
G1 X118.468 Y94.353 E67.28935
G1 X117.162 Y94.894 E67.35984
G1 X115.804 Y95.286 E67.43036
G1 X114.411 Y95.522 E67.50087
G1 X113.000 Y95.601 E67.57134
G1 X111.589 Y95.522 E67.64183
G1 X110.196 Y95.286 E67.71235
G1 X109.309 Y95.030 E67.75838
G0 X110.533 Y95.708 F7200
;segType:HShell
G1 X89.961 Y116.281 E69.20989 F3600
G0 X89.961 Y115.715 F7200
G1 X110.056 Y95.620 E70.62770 F3600
G0 X109.617 Y95.493 F7200
G1 X89.961 Y115.149 E72.01454 F3600
G0 X89.961 Y114.584 F7200
G1 X109.177 Y95.367 E73.37039 F3600
G0 X108.738 Y95.240 F7200
G1 X89.961 Y114.018 E74.69525 F3600
G0 X89.961 Y113.452 F7200
G1 X108.337 Y95.076 E75.99178 F3600
G0 X107.937 Y94.911 F7200
G1 X89.961 Y112.887 E77.26008 F3600
G0 X89.961 Y112.321 F7200
G1 X107.537 Y94.745 E78.50016 F3600
G0 X107.158 Y94.558 F7200
G1 X89.961 Y111.755 E79.71353 F3600
G0 X89.961 Y111.189 F7200
G1 X106.794 Y94.356 E80.90119 F3600
G0 X106.429 Y94.155 F7200
G1 X89.961 Y110.624 E82.06314 F3600
G0 X89.961 Y110.058 F7200
G1 X106.069 Y93.950 E83.19964 F3600
G0 X105.738 Y93.715 F7200
G1 X89.961 Y109.492 E84.31279 F3600
G0 X89.961 Y108.927 F7200
G1 X105.407 Y93.481 E85.40260 F3600
G0 X105.076 Y93.246 F7200
G1 X89.961 Y108.361 E86.46906 F3600
G0 X89.961 Y107.795 F7200
G1 X104.762 Y92.994 E87.51335 F3600
G0 X104.463 Y92.727 F7200
G1 X89.961 Y107.230 E88.53658 F3600
G0 X89.961 Y106.664 F7200
G1 X104.164 Y92.460 E89.53873 F3600
G0 X103.866 Y92.193 F7200
G1 X89.961 Y106.098 E90.51980 F3600
G0 X89.961 Y105.533 F7200
G1 X103.595 Y91.898 E91.48180 F3600
G0 X103.328 Y91.599 F7200
G1 X89.961 Y104.967 E92.42497 F3600
G0 X89.961 Y104.401 F7200
G1 X103.061 Y91.300 E93.34930 F3600
G0 X102.803 Y90.993 F7200
G1 X89.961 Y103.836 E94.25541 F3600
G0 X89.961 Y103.270 F7200
G1 X102.568 Y90.662 E95.14494 F3600
G0 X102.333 Y90.331 F7200
G1 X89.961 Y102.704 E96.01791 F3600
G0 X89.961 Y102.138 F7200
G1 X102.099 Y90.000 E96.87431 F3600
G0 X101.887 Y89.647 F7200
G1 X89.961 Y101.573 E97.71577 F3600
G0 X89.961 Y101.007 F7200
G1 X101.685 Y89.282 E98.54301 F3600
G0 X101.484 Y88.918 F7200
G1 X89.961 Y100.441 E99.35605 F3600
G0 X89.961 Y99.876 F7200
G1 X101.290 Y88.547 E100.15536 F3600
G0 X101.124 Y88.147 F7200
G1 X89.961 Y99.310 E100.94299 F3600
G0 X89.961 Y98.744 F7200
G1 X100.958 Y87.747 E101.71893 F3600
G0 X100.792 Y87.347 F7200
G1 X89.961 Y98.179 E102.48317 F3600
G0 X89.961 Y97.613 F7200
G1 X100.660 Y86.914 E103.23804 F3600
G0 X100.533 Y86.475 F7200
G1 X89.961 Y97.047 E103.98398 F3600
G0 X89.961 Y96.482 F7200
G1 X100.407 Y86.036 E104.72099 F3600
G0 X100.309 Y85.567 F7200
G1 X89.961 Y95.916 E105.45113 F3600
G0 X89.961 Y95.350 F7200
G1 X100.227 Y85.084 E106.17548 F3600
G0 X100.145 Y84.600 F7200
G1 X89.961 Y94.785 E106.89404 F3600
G0 X89.961 Y94.219 F7200
G1 X100.099 Y84.081 E107.60933 F3600
G0 X100.069 Y83.545 F7200
G1 X89.961 Y93.653 E108.32250 F3600
G0 X89.961 Y93.088 F7200
G1 X100.038 Y83.010 E109.03355 F3600
G0 X100.071 Y82.411 F7200
G1 X89.961 Y92.522 E109.74689 F3600
G0 X89.961 Y91.956 F7200
G1 X100.105 Y81.812 E110.46261 F3600
G0 X100.184 Y81.167 F7200
G1 X89.961 Y91.390 E111.18395 F3600
G0 X89.961 Y90.825 F7200
G1 X100.300 Y80.485 E111.91347 F3600
G0 X100.468 Y79.752 F7200
G1 X89.961 Y90.259 E112.65480 F3600
G0 X89.961 Y89.693 F7200
G1 X100.697 Y78.957 E113.41228 F3600
G0 X101.045 Y78.043 F7200
G1 X89.961 Y89.128 E114.19436 F3600
G0 X89.961 Y88.562 F7200
G1 X101.538 Y76.985 E115.01118 F3600
G0 X102.444 Y75.513 F7200
G1 X89.961 Y87.996 E115.89193 F3600
G0 X89.961 Y87.431 F7200
G1 X117.431 Y59.961 E117.83009 F3600
G0 X116.865 Y59.961 F7200
G1 X89.961 Y86.865 E119.72835 F3600
G0 X89.961 Y86.299 F7200
G1 X116.299 Y59.961 E121.58669 F3600
G0 X115.734 Y59.961 F7200
G1 X89.961 Y85.734 E123.40511 F3600
G0 X89.961 Y85.168 F7200
G1 X115.168 Y59.961 E125.18363 F3600
G0 X114.602 Y59.961 F7200
G1 X89.961 Y84.602 E126.92223 F3600
G0 X89.961 Y84.037 F7200
G1 X114.037 Y59.961 E128.62093 F3600
G0 X113.471 Y59.961 F7200
G1 X89.961 Y83.471 E130.27971 F3600
G0 X89.961 Y82.905 F7200
G1 X112.905 Y59.961 E131.89857 F3600
G0 X112.340 Y59.961 F7200
G1 X89.961 Y82.340 E133.47752 F3600
G0 X89.961 Y81.774 F7200
G1 X111.774 Y59.961 E135.01657 F3600
G0 X111.208 Y59.961 F7200
G1 X89.961 Y81.208 E136.51570 F3600
G0 X89.961 Y80.642 F7200
G1 X110.642 Y59.961 E137.97491 F3600
G0 X110.077 Y59.961 F7200
G1 X89.961 Y80.077 E139.39423 F3600
G0 X89.961 Y79.511 F7200
G1 X109.511 Y59.961 E140.77362 F3600
G0 X108.945 Y59.961 F7200
G1 X89.961 Y78.945 E142.11310 F3600
G0 X89.961 Y78.380 F7200
G1 X108.380 Y59.961 E143.41267 F3600
G0 X107.814 Y59.961 F7200
G1 X89.961 Y77.814 E144.67233 F3600
G0 X89.961 Y77.248 F7200
G1 X107.248 Y59.961 E145.89207 F3600
G0 X106.683 Y59.961 F7200
G1 X89.961 Y76.683 E147.07191 F3600
G0 X89.961 Y76.117 F7200
G1 X106.117 Y59.961 E148.21184 F3600
G0 X105.551 Y59.961 F7200
G1 X89.961 Y75.551 E149.31184 F3600
G0 X89.961 Y74.986 F7200
G1 X104.986 Y59.961 E150.37195 F3600
G0 X104.420 Y59.961 F7200
G1 X89.961 Y74.420 E151.39214 F3600
G0 X89.961 Y73.854 F7200
G1 X103.854 Y59.961 E152.37241 F3600
G0 X103.289 Y59.961 F7200
G1 X89.961 Y73.289 E153.31277 F3600
G0 X89.961 Y72.723 F7200
G1 X102.723 Y59.961 E154.21323 F3600
G0 X102.157 Y59.961 F7200
G1 X89.961 Y72.157 E155.07376 F3600
G0 X89.961 Y71.592 F7200
G1 X101.592 Y59.961 E155.89439 F3600
G0 X101.026 Y59.961 F7200
G1 X89.961 Y71.026 E156.67511 F3600
G0 X89.961 Y70.460 F7200
G1 X100.460 Y59.961 E157.41591 F3600
G0 X99.894 Y59.961 F7200
G1 X89.961 Y69.894 E158.11681 F3600
G0 X89.961 Y69.329 F7200
G1 X99.329 Y59.961 E158.77779 F3600
G0 X98.763 Y59.961 F7200
G1 X89.961 Y68.763 E159.39885 F3600
G0 X89.961 Y68.197 F7200
G1 X98.197 Y59.961 E159.98001 F3600
G0 X97.632 Y59.961 F7200
G1 X89.961 Y67.632 E160.52126 F3600
G0 X89.961 Y67.066 F7200
G1 X97.066 Y59.961 E161.02258 F3600
G0 X96.463 Y59.998 F7200
G1 X89.998 Y66.463 E161.47878 F3600
G0 X90.075 Y65.820 F7200
G1 X95.820 Y60.075 E161.88412 F3600
G0 X95.100 Y60.230 F7200
G1 X90.229 Y65.100 E162.22777 F3600
G0 X90.539 Y64.225 F7200
G1 X94.225 Y60.539 E162.48784 F3600
G0 X92.913 Y61.285 F7200
G1 X91.285 Y62.913 E162.60271 F3600
G0 F3000 E161.60271
G0 X90.986 Y62.713 F7200
G0 X105.834 Y72.658
G0 X105.513 Y72.444
G0 F3000 E162.60271
G1 X117.996 Y59.961 E163.48344 F3600
G0 X118.562 Y59.961 F7200
G1 X106.985 Y71.538 E164.30026 F3600
G0 X108.043 Y71.045 F7200
G1 X119.128 Y59.961 E165.08235 F3600
G0 X119.693 Y59.961 F7200
G1 X108.957 Y70.697 E165.83983 F3600
G0 X109.752 Y70.468 F7200
G1 X120.259 Y59.961 E166.58116 F3600
G0 X120.825 Y59.961 F7200
G1 X110.485 Y70.300 E167.31067 F3600
G0 X111.167 Y70.184 F7200
G1 X121.390 Y59.961 E168.03202 F3600
G0 X121.956 Y59.961 F7200
G1 X111.812 Y70.105 E168.74774 F3600
G0 X112.411 Y70.071 F7200
G1 X122.522 Y59.961 E169.46110 F3600
G0 X123.088 Y59.961 F7200
G1 X113.010 Y70.038 E170.17214 F3600
G0 X113.545 Y70.069 F7200
G1 X123.653 Y59.961 E170.88530 F3600
G0 X124.219 Y59.961 F7200
G1 X114.081 Y70.099 E171.60060 F3600
G0 X114.600 Y70.145 F7200
G1 X124.785 Y59.961 E172.31916 F3600
G0 X125.350 Y59.961 F7200
G1 X115.084 Y70.227 E173.04350 F3600
G0 X115.567 Y70.309 F7200
G1 X125.916 Y59.961 E173.77366 F3600
G0 X126.482 Y59.961 F7200
G1 X116.036 Y70.407 E174.51066 F3600
G0 X116.475 Y70.533 F7200
G1 X127.047 Y59.961 E175.25660 F3600
G0 X127.613 Y59.961 F7200
G1 X116.914 Y70.660 E176.01148 F3600
G0 X117.347 Y70.792 F7200
G1 X128.179 Y59.961 E176.77572 F3600
G0 X128.744 Y59.961 F7200
G1 X117.747 Y70.958 E177.55166 F3600
G0 X118.147 Y71.124 F7200
G1 X129.310 Y59.961 E178.33930 F3600
G0 X129.876 Y59.961 F7200
G1 X118.547 Y71.290 E179.13862 F3600
G0 X118.918 Y71.484 F7200
G1 X130.441 Y59.961 E179.95164 F3600
G0 X131.007 Y59.961 F7200
G1 X119.282 Y71.685 E180.77888 F3600
G0 X119.647 Y71.887 F7200
G1 X131.573 Y59.961 E181.62034 F3600
G0 X132.138 Y59.961 F7200
G1 X120.000 Y72.099 E182.47674 F3600
G0 X120.331 Y72.333 F7200
G1 X132.704 Y59.961 E183.34970 F3600
G0 X133.270 Y59.961 F7200
G1 X120.662 Y72.568 E184.23922 F3600
G0 X120.993 Y72.803 F7200
G1 X133.836 Y59.961 E185.14532 F3600
G0 X134.401 Y59.961 F7200
G1 X121.300 Y73.061 E186.06966 F3600
G0 X121.599 Y73.328 F7200
G1 X134.967 Y59.961 E187.01282 F3600
G0 X135.533 Y59.961 F7200
G1 X121.898 Y73.595 E187.97480 F3600
G0 X122.193 Y73.865 F7200
G1 X136.098 Y59.961 E188.95588 F3600
G0 X136.664 Y59.961 F7200
G1 X122.460 Y74.164 E189.95800 F3600
G0 X122.727 Y74.463 F7200
G1 X137.230 Y59.961 E190.98124 F3600
G0 X137.795 Y59.961 F7200
G1 X122.994 Y74.762 E192.02552 F3600
G0 X123.246 Y75.076 F7200
G1 X138.361 Y59.961 E193.09198 F3600
G0 X138.927 Y59.961 F7200
G1 X123.481 Y75.407 E194.18178 F3600
G0 X123.715 Y75.738 F7200
G1 X139.492 Y59.961 E195.29494 F3600
G0 X140.058 Y59.961 F7200
G1 X123.950 Y76.069 E196.43144 F3600
G0 X124.155 Y76.429 F7200
G1 X140.624 Y59.961 E197.59340 F3600
G0 X141.189 Y59.961 F7200
G1 X124.356 Y76.794 E198.78106 F3600
G0 X124.558 Y77.158 F7200
G1 X141.755 Y59.961 E199.99442 F3600
G0 X142.321 Y59.961 F7200
G1 X124.745 Y77.537 E201.23450 F3600
G0 X124.911 Y77.937 F7200
G1 X142.886 Y59.961 E202.50280 F3600
G0 X143.452 Y59.961 F7200
G1 X125.076 Y78.337 E203.79932 F3600
G0 X125.240 Y78.738 F7200
G1 X144.018 Y59.961 E205.12418 F3600
G0 X144.584 Y59.961 F7200
G1 X125.367 Y79.177 E206.48002 F3600
G0 X125.493 Y79.617 F7200
G1 X145.149 Y59.961 E207.86686 F3600
G0 X145.715 Y59.961 F7200
G1 X125.620 Y80.056 E209.28466 F3600
G0 X125.708 Y80.533 F7200
G1 X146.281 Y59.961 E210.73616 F3600
G0 X146.846 Y59.961 F7200
G1 X125.790 Y81.017 E212.22178 F3600
G0 X125.872 Y81.500 F7200
G1 X147.412 Y59.961 E213.74150 F3600
G0 X147.978 Y59.961 F7200
G1 X125.908 Y82.031 E215.29866 F3600
G0 X125.938 Y82.566 F7200
G1 X148.543 Y59.961 E216.89362 F3600
G0 X149.109 Y59.961 F7200
G1 X125.956 Y83.114 E218.52722 F3600
G0 X125.922 Y83.713 F7200
G1 X149.675 Y59.961 E220.20310 F3600
G0 X150.240 Y59.961 F7200
G1 X125.888 Y84.313 E221.92128 F3600
G0 X125.792 Y84.975 F7200
G1 X150.806 Y59.961 E223.68618 F3600
G0 X151.372 Y59.961 F7200
G1 X125.676 Y85.657 E225.49918 F3600
G0 X125.485 Y86.413 F7200
G1 X136.588 Y75.310 E226.28256 F3600
G0 X139.311 Y72.588 F7200
G1 X151.937 Y59.961 E227.17346 F3600
G0 X152.503 Y59.961 F7200
G1 X140.853 Y71.610 E227.99540 F3600
G0 X141.943 Y71.087 F7200
G1 X153.069 Y59.961 E228.78042 F3600
G0 X153.634 Y59.961 F7200
G1 X142.875 Y70.720 E229.53956 F3600
G0 X143.669 Y70.492 F7200
G1 X154.200 Y59.961 E230.28258 F3600
G0 X154.766 Y59.961 F7200
G1 X144.414 Y70.312 E231.01294 F3600
G0 X145.096 Y70.196 F7200
G1 X155.332 Y59.961 E231.73512 F3600
G0 X155.897 Y59.961 F7200
G1 X145.750 Y70.108 E232.45110 F3600
G0 X146.349 Y70.074 F7200
G1 X156.463 Y59.961 E233.16468 F3600
G0 X157.029 Y59.961 F7200
G1 X146.948 Y70.041 E233.87588 F3600
G0 X147.490 Y70.065 F7200
G1 X157.594 Y59.961 E234.58882 F3600
G0 X158.160 Y59.961 F7200
G1 X148.025 Y70.096 E235.30390 F3600
G0 X148.550 Y70.136 F7200
G1 X158.726 Y59.961 E236.02184 F3600
G0 X159.291 Y59.961 F7200
G1 X149.034 Y70.218 E236.74558 F3600
G0 X149.517 Y70.301 F7200
G1 X159.857 Y59.961 E237.47512 F3600
G0 X160.423 Y59.961 F7200
G1 X149.990 Y70.393 E238.21120 F3600
G0 X150.429 Y70.520 F7200
G1 X160.988 Y59.961 E238.95620 F3600
G0 X161.554 Y59.961 F7200
G1 X150.868 Y70.646 E239.71014 F3600
G0 X151.305 Y70.775 F7200
G1 X162.120 Y59.961 E240.47318 F3600
G0 X162.685 Y59.961 F7200
G1 X151.705 Y70.941 E241.24790 F3600
G0 X152.105 Y71.107 F7200
G1 X163.234 Y59.978 E242.03310 F3600
G0 X163.765 Y60.012 F7200
G1 X152.505 Y71.272 E242.82754 F3600
G0 X152.880 Y71.463 F7200
G1 X164.253 Y60.090 E243.63000 F3600
G0 X164.726 Y60.183 F7200
G1 X153.244 Y71.664 E244.44006 F3600
G0 X153.609 Y71.866 F7200
G1 X165.158 Y60.317 E245.25492 F3600
G0 X165.580 Y60.460 F7200
G1 X153.966 Y72.074 E246.07438 F3600
G0 X154.297 Y72.309 F7200
G1 X165.971 Y60.635 E246.89802 F3600
G0 X166.350 Y60.822 F7200
G1 X154.628 Y72.544 E247.72506 F3600
G0 X154.959 Y72.778 F7200
G1 X166.706 Y61.031 E248.55392 F3600
G0 X167.046 Y61.257 F7200
G1 X155.269 Y73.034 E249.38480 F3600
G0 F3000 E248.38480
G0 X154.819 Y73.121 F7200
G0 X153.704 Y72.330
G0 X152.468 Y71.647
G0 X151.162 Y71.106
G0 X149.804 Y70.714
G0 X148.411 Y70.478
G0 X147.000 Y70.399
G0 X145.589 Y70.478
G0 X144.196 Y70.715
G0 X142.838 Y71.106
G0 X141.532 Y71.647
G0 X140.296 Y72.330
G0 X139.143 Y73.148
G0 X138.090 Y74.090
G0 X137.148 Y75.143
G0 X136.330 Y76.296
G0 X136.072 Y76.763
G0 X135.611 Y76.853
G0 F3000 E249.38480
G1 X125.256 Y87.208 E250.11540 F3600
G0 X124.871 Y88.158 F7200
G1 X135.087 Y77.942 E250.83618 F3600
G0 X134.721 Y78.875 F7200
G1 X124.317 Y89.278 E251.57024 F3600
G0 F3000 E250.57024
G0 X123.462 Y89.997 F7200
G0 X122.852 Y90.857
G0 X121.911 Y91.910
G0 X120.857 Y92.852
G0 X119.704 Y93.670
G0 X118.468 Y94.353
G0 X118.100 Y94.506
G0 X117.208 Y95.256
G0 F3000 E251.57024
G1 X106.853 Y105.611 E252.30084 F3600
G0 X107.942 Y105.087 F7200
G1 X118.158 Y94.871 E253.02162 F3600
G0 X119.278 Y94.317 F7200
G1 X108.875 Y104.721 E253.75568 F3600
G0 X109.669 Y104.491 F7200
G1 X120.893 Y93.268 E254.54754 F3600
G0 X123.268 Y90.893 F7200
G1 X134.491 Y79.669 E255.33942 F3600
G0 X134.312 Y80.414 F7200
G1 X110.414 Y104.312 E257.02552 F3600
G0 X111.096 Y104.196 F7200
G1 X134.196 Y81.096 E258.65540 F3600
G0 X134.108 Y81.750 F7200
G1 X111.750 Y104.108 E260.23292 F3600
G0 X112.349 Y104.075 F7200
G1 X134.075 Y82.349 E261.76578 F3600
G0 X134.041 Y82.948 F7200
G1 X112.948 Y104.041 E263.25396 F3600
G0 X113.489 Y104.065 F7200
G1 X134.065 Y83.489 E264.70572 F3600
G0 X134.096 Y84.025 F7200
G1 X114.025 Y104.096 E266.12180 F3600
G0 X114.550 Y104.136 F7200
G1 X134.136 Y84.550 E267.50370 F3600
G0 X134.218 Y85.034 F7200
G1 X115.034 Y104.218 E268.85726 F3600
G0 X115.517 Y104.300 F7200
G1 X134.300 Y85.517 E270.18252 F3600
G0 X134.393 Y85.990 F7200
G1 X115.990 Y104.393 E271.48098 F3600
G0 X116.429 Y104.520 F7200
G1 X134.520 Y86.429 E272.75738 F3600
G0 X134.646 Y86.868 F7200
G1 X116.868 Y104.646 E274.01172 F3600
G0 X117.305 Y104.775 F7200
G1 X134.775 Y87.305 E275.24432 F3600
G0 X134.941 Y87.705 F7200
G1 X117.705 Y104.941 E276.46042 F3600
G0 X118.105 Y105.107 F7200
G1 X135.107 Y88.105 E277.65998 F3600
G0 X135.272 Y88.505 F7200
G1 X118.505 Y105.272 E278.84298 F3600
G0 X118.880 Y105.463 F7200
G1 X135.463 Y88.880 E280.01304 F3600
G0 X135.664 Y89.244 F7200
G1 X119.244 Y105.665 E281.17156 F3600
G0 X119.609 Y105.866 F7200
G1 X135.866 Y89.609 E282.31860 F3600
G0 X136.074 Y89.966 F7200
G1 X119.966 Y106.074 E283.45514 F3600
G0 X120.297 Y106.309 F7200
G1 X136.309 Y90.297 E284.58490 F3600
G0 X136.544 Y90.628 F7200
G1 X120.628 Y106.544 E285.70786 F3600
G0 X120.959 Y106.779 F7200
G1 X136.779 Y90.959 E286.82404 F3600
G0 X137.034 Y91.269 F7200
G1 X121.269 Y107.034 E287.93630 F3600
G0 X121.568 Y107.301 F7200
G1 X137.301 Y91.568 E289.04632 F3600
G0 X137.568 Y91.867 F7200
G1 X121.867 Y107.568 E290.15412 F3600
G0 X122.166 Y107.834 F7200
G1 X137.835 Y92.165 E291.25964 F3600
G0 X138.133 Y92.432 F7200
G1 X122.432 Y108.133 E292.36744 F3600
G0 X122.699 Y108.432 F7200
G1 X138.432 Y92.699 E293.47744 F3600
G0 X138.731 Y92.966 F7200
G1 X122.966 Y108.731 E294.58972 F3600
G0 X123.221 Y109.041 F7200
G1 X139.041 Y93.221 E295.70590 F3600
G0 X139.372 Y93.456 F7200
G1 X123.456 Y109.372 E296.82886 F3600
G0 X123.691 Y109.703 F7200
G1 X139.703 Y93.691 E297.95862 F3600
G0 X140.034 Y93.926 F7200
G1 X123.926 Y110.034 E299.09516 F3600
G0 X124.134 Y110.391 F7200
G1 X140.391 Y94.134 E300.24218 F3600
G0 X140.756 Y94.336 F7200
G1 X124.335 Y110.756 E301.40072 F3600
G0 X124.537 Y111.120 F7200
G1 X141.120 Y94.537 E302.57074 F3600
G0 X141.495 Y94.728 F7200
G1 X124.728 Y111.495 E303.75376 F3600
G0 X124.893 Y111.895 F7200
G1 X141.895 Y94.893 E304.95330 F3600
G0 X142.295 Y95.059 F7200
G1 X125.059 Y112.295 E306.16940 F3600
G0 X125.225 Y112.695 F7200
G1 X142.695 Y95.225 E307.40204 F3600
G0 X143.132 Y95.354 F7200
G1 X125.354 Y113.132 E308.65638 F3600
G0 X125.480 Y113.571 F7200
G1 X143.571 Y95.480 E309.93276 F3600
G0 X144.010 Y95.607 F7200
G1 X125.607 Y114.010 E311.23124 F3600
G0 X125.700 Y114.483 F7200
G1 X144.483 Y95.700 E312.55648 F3600
G0 X144.966 Y95.782 F7200
G1 X125.782 Y114.966 E313.91006 F3600
G0 X125.864 Y115.450 F7200
G1 X145.450 Y95.864 E315.29196 F3600
G0 X145.975 Y95.904 F7200
G1 X125.904 Y115.975 E316.70804 F3600
G0 X125.935 Y116.511 F7200
G1 X146.511 Y95.935 E318.15980 F3600
G0 X147.052 Y95.959 F7200
G1 X125.959 Y117.052 E319.64798 F3600
G0 X125.925 Y117.651 F7200
G1 X147.651 Y95.925 E321.18082 F3600
G0 X148.250 Y95.892 F7200
G1 X125.892 Y118.250 E322.75834 F3600
G0 X124.389 Y123.147 F7200
G1 X134.744 Y112.792 E323.48896 F3600
G0 X135.129 Y111.842 F7200
G1 X124.913 Y122.058 E324.20972 F3600
G0 X125.279 Y121.125 F7200
G1 X135.683 Y110.722 E324.94376 F3600
G0 X136.732 Y109.107 F7200
G1 X125.509 Y120.331 E325.73562 F3600
G0 X125.688 Y119.586 F7200
G1 X149.586 Y95.688 E327.42172 F3600
G0 X151.125 Y95.279 F7200
G1 X140.722 Y105.683 E328.15576 F3600
G0 X141.842 Y105.129 F7200
G1 X152.058 Y94.913 E328.87652 F3600
G0 X153.147 Y94.389 F7200
G1 X142.792 Y104.744 E329.60714 F3600
G0 X143.587 Y104.515 F7200
G1 X154.690 Y93.412 E330.39054 F3600
G0 X157.412 Y90.689 F7200
G1 X170.039 Y78.062 E331.28144 F3600
G0 X167.675 Y61.759 F7200
G1 X155.867 Y73.567 E332.11456 F3600
G0 X156.166 Y73.834 F7200
G1 X167.976 Y62.024 E332.94788 F3600
G0 X168.241 Y62.325 F7200
G1 X156.433 Y74.133 E333.78100 F3600
G0 X156.700 Y74.432 F7200
G1 X168.505 Y62.627 E334.61392 F3600
G0 X168.743 Y62.954 F7200
G1 X156.966 Y74.731 E335.44480 F3600
G0 X157.221 Y75.041 F7200
G1 X168.969 Y63.294 E336.27364 F3600
G0 X169.178 Y63.650 F7200
G1 X157.456 Y75.372 E337.10068 F3600
G0 X157.691 Y75.703 F7200
G1 X169.365 Y64.029 E337.92432 F3600
G0 X169.540 Y64.420 F7200
G1 X157.926 Y76.034 E338.74376 F3600
G0 X158.134 Y76.391 F7200
G1 X169.683 Y64.842 E339.55864 F3600
G0 X169.817 Y65.274 F7200
G1 X158.336 Y76.756 E340.36868 F3600
G0 X158.537 Y77.120 F7200
G1 X169.910 Y65.747 E341.17116 F3600
G0 X169.988 Y66.235 F7200
G1 X158.728 Y77.495 E341.96556 F3600
G0 X158.893 Y77.895 F7200
G1 X170.022 Y66.766 E342.75076 F3600
G0 X170.039 Y67.314 F7200
G1 X159.059 Y78.295 E343.52548 F3600
G0 X159.225 Y78.695 F7200
G1 X170.039 Y67.880 E344.28852 F3600
G0 X170.039 Y68.446 F7200
G1 X159.354 Y79.132 E345.04244 F3600
G0 X159.480 Y79.571 F7200
G1 X170.039 Y69.012 E345.78748 F3600
G0 X170.039 Y69.577 F7200
G1 X159.607 Y80.010 E346.52356 F3600
G0 X159.700 Y80.483 F7200
G1 X170.039 Y70.143 E347.25312 F3600
G0 X170.039 Y70.709 F7200
G1 X159.782 Y80.966 E347.97688 F3600
G0 X159.864 Y81.450 F7200
G1 X170.039 Y71.274 E348.69484 F3600
G0 X170.039 Y71.840 F7200
G1 X159.904 Y81.975 E349.40992 F3600
G0 X159.935 Y82.510 F7200
G1 X170.039 Y72.406 E350.12288 F3600
G0 X170.039 Y72.971 F7200
G1 X159.959 Y83.052 E350.83408 F3600
G0 X159.926 Y83.651 F7200
G1 X170.039 Y73.537 E351.54768 F3600
G0 X170.039 Y74.103 F7200
G1 X159.892 Y84.250 E352.26364 F3600
G0 X159.804 Y84.904 F7200
G1 X170.039 Y74.668 E352.98584 F3600
G0 X170.039 Y75.234 F7200
G1 X159.688 Y85.586 E353.71620 F3600
G0 X159.508 Y86.331 F7200
G1 X170.039 Y75.800 E354.45924 F3600
G0 X170.039 Y76.365 F7200
G1 X159.280 Y87.125 E355.21840 F3600
G0 X158.913 Y88.057 F7200
G1 X170.039 Y76.931 E356.00340 F3600
G0 X170.039 Y77.497 F7200
G1 X158.390 Y89.147 E356.82536 F3600
G0 X170.039 Y78.628 F7200
G1 X144.343 Y104.324 E358.63832 F3600
G0 X145.025 Y104.208 F7200
G1 X170.039 Y79.194 E360.40324 F3600
G0 X170.039 Y79.760 F7200
G1 X145.687 Y104.112 E362.12144 F3600
G0 X146.287 Y104.078 F7200
G1 X170.039 Y80.325 E363.79732 F3600
G0 X170.039 Y80.891 F7200
G1 X146.886 Y104.044 E365.43092 F3600
G0 X147.434 Y104.062 F7200
G1 X170.039 Y81.457 E367.02592 F3600
G0 X170.039 Y82.022 F7200
G1 X147.969 Y104.092 E368.58308 F3600
G0 X148.500 Y104.128 F7200
G1 X170.039 Y82.588 E370.10280 F3600
G0 X170.039 Y83.154 F7200
G1 X148.983 Y104.210 E371.58844 F3600
G0 X149.467 Y104.292 F7200
G1 X170.039 Y83.719 E373.03996 F3600
G0 X170.039 Y84.285 F7200
G1 X149.944 Y104.380 E374.45776 F3600
G0 X150.383 Y104.507 F7200
G1 X170.039 Y84.851 E375.84460 F3600
G0 X170.039 Y85.416 F7200
G1 X150.823 Y104.633 E377.20048 F3600
G0 X151.262 Y104.760 F7200
G1 X170.039 Y85.982 E378.52536 F3600
G0 X170.039 Y86.548 F7200
G1 X151.663 Y104.924 E379.82188 F3600
G0 X152.063 Y105.089 F7200
G1 X170.039 Y87.113 E381.09020 F3600
G0 X170.039 Y87.679 F7200
G1 X152.463 Y105.255 E382.33028 F3600
G0 X152.842 Y105.442 F7200
G1 X170.039 Y88.245 E383.54368 F3600
G0 X170.039 Y88.810 F7200
G1 X153.206 Y105.644 E384.73132 F3600
G0 X153.571 Y105.845 F7200
G1 X170.039 Y89.376 E385.89328 F3600
G0 X170.039 Y89.942 F7200
G1 X153.931 Y106.050 E387.02980 F3600
G0 X154.262 Y106.285 F7200
G1 X170.039 Y90.508 E388.14296 F3600
G0 X170.039 Y91.073 F7200
G1 X154.593 Y106.519 E389.23276 F3600
G0 X154.924 Y106.754 F7200
G1 X170.039 Y91.639 E390.29924 F3600
G0 X170.039 Y92.205 F7200
G1 X155.238 Y107.006 E391.34352 F3600
G0 X155.537 Y107.273 F7200
G1 X170.039 Y92.770 E392.36676 F3600
G0 X170.040 Y93.336 F7200
G1 X155.836 Y107.540 E393.36892 F3600
G0 X156.134 Y107.807 F7200
G1 X170.039 Y93.902 E394.35000 F3600
G0 X170.040 Y94.467 F7200
G1 X156.405 Y108.102 E395.31200 F3600
G0 X156.672 Y108.401 F7200
G1 X170.040 Y95.033 E396.25520 F3600
G0 X170.040 Y95.599 F7200
G1 X156.939 Y108.700 E397.17952 F3600
G0 X157.197 Y109.007 F7200
G1 X170.040 Y96.164 E398.08564 F3600
G0 X170.040 Y96.730 F7200
G1 X157.432 Y109.338 E398.97520 F3600
G0 X157.667 Y109.669 F7200
G1 X170.040 Y97.296 E399.84816 F3600
G0 X170.040 Y97.861 F7200
G1 X157.901 Y110.000 E400.70460 F3600
G0 X158.113 Y110.353 F7200
G1 X170.040 Y98.427 E401.54604 F3600
G0 X170.040 Y98.993 F7200
G1 X158.315 Y110.718 E402.37328 F3600
G0 X158.516 Y111.082 F7200
G1 X170.040 Y99.558 E403.18636 F3600
G0 X170.040 Y100.124 F7200
G1 X158.710 Y111.453 E403.98564 F3600
G0 X158.876 Y111.853 F7200
G1 X170.040 Y100.690 E404.77328 F3600
G0 X170.040 Y101.256 F7200
G1 X159.042 Y112.253 E405.54924 F3600
G0 X159.208 Y112.653 F7200
G1 X170.040 Y101.821 E406.31348 F3600
G0 X170.040 Y102.387 F7200
G1 X159.340 Y113.086 E407.06836 F3600
G0 X159.467 Y113.525 F7200
G1 X170.040 Y102.953 E407.81432 F3600
G0 X170.040 Y103.518 F7200
G1 X159.593 Y113.964 E408.55132 F3600
G0 X159.691 Y114.433 F7200
G1 X170.040 Y104.084 E409.28148 F3600
G0 X170.040 Y104.650 F7200
G1 X159.773 Y114.916 E410.00584 F3600
G0 X159.855 Y115.400 F7200
G1 X170.040 Y105.215 E410.72444 F3600
G0 X170.040 Y105.781 F7200
G1 X159.901 Y115.919 E411.43972 F3600
G0 X159.931 Y116.455 F7200
G1 X170.040 Y106.347 E412.15288 F3600
G0 X170.040 Y106.912 F7200
G1 X159.962 Y116.990 E412.86396 F3600
G0 X159.929 Y117.589 F7200
G1 X170.040 Y107.478 E413.57732 F3600
G0 X170.040 Y108.044 F7200
G1 X159.895 Y118.188 E414.29304 F3600
G0 X159.815 Y118.833 F7200
G1 X170.040 Y108.609 E415.01440 F3600
G0 X170.040 Y109.175 F7200
G1 X159.700 Y119.515 E415.74392 F3600
G0 X159.532 Y120.248 F7200
G1 X170.040 Y109.741 E416.48528 F3600
G0 X170.040 Y110.306 F7200
G1 X159.303 Y121.043 E417.24272 F3600
G0 X158.955 Y121.957 F7200
G1 X170.040 Y110.872 E418.02484 F3600
G0 X170.040 Y111.438 F7200
G1 X158.462 Y123.015 E418.84168 F3600
G0 X157.556 Y124.487 F7200
G1 X170.040 Y112.004 E419.72240 F3600
G0 X170.040 Y112.569 F7200
G1 X142.569 Y140.039 E421.66060 F3600
G0 X143.135 Y140.039 F7200
G1 X170.040 Y113.135 E423.55884 F3600
G0 X170.040 Y113.701 F7200
G1 X143.701 Y140.039 E425.41716 F3600
G0 X144.266 Y140.039 F7200
G1 X170.040 Y114.266 E427.23564 F3600
G0 X170.040 Y114.832 F7200
G1 X144.832 Y140.039 E429.01416 F3600
G0 X145.398 Y140.039 F7200
G1 X170.040 Y115.398 E430.75276 F3600
G0 X170.040 Y115.963 F7200
G1 X145.963 Y140.039 E432.45148 F3600
G0 X146.529 Y140.039 F7200
G1 X170.040 Y116.529 E434.11028 F3600
