; GCode generated by CraftWare

G28 X Y ; home horizontally
G28 Z ; home vertically


M104 S215 ;set head temp (no wait)
M190 S60 ;set bed temp (wait)
M109 S215 ;set head temp (wait)
; ------------------------------------
; Layer #0
; ------------------------------------
M106 S0 ;turn off fan
G21 ; mm
G90 ; abs
G92 E0 ;reset extr
G0 F600 Z0.300
;segType:Skirt
G0 F3000 E-1.00000
G0 X91.806 Y145.085 F5400
G0 F3000 E0.00000
G1 X91.150 Y144.691 E0.03818 F2400
G1 X90.888 Y144.428 E0.05670
G1 X90.559 Y144.231 E0.07581
G1 X85.572 Y139.244 E0.42771
G1 X84.784 Y137.931 E0.50407
G1 X84.653 Y137.538 E0.52478
G1 X84.522 Y137.406 E0.53404
G1 X84.522 Y137.144 E0.54713
G1 X84.390 Y137.013 E0.55639
G1 X84.390 Y136.750 E0.56949
G1 X84.259 Y136.619 E0.57875
G1 X84.259 Y136.356 E0.59185
G1 X84.128 Y136.225 E0.60111
G1 X83.997 Y135.306 E0.64741
G1 X83.997 Y134.781 E0.67360
G1 X83.865 Y133.863 E0.71990
G1 X83.865 Y66.663 E4.07252
G1 X83.865 Y65.613 E4.12491
G1 X83.997 Y65.481 E4.13417
G1 X83.997 Y64.956 E4.16036
G1 X84.128 Y64.038 E4.20666
G1 X84.128 Y63.775 E4.21976
G1 X84.259 Y63.644 E4.22902
G1 X84.259 Y63.381 E4.24212
G1 X84.390 Y63.250 E4.25138
G1 X84.390 Y62.988 E4.26447
G1 X84.784 Y62.331 E4.30265
G1 X84.915 Y61.938 E4.32336
G1 X85.506 Y60.953 E4.38065
G1 X86.031 Y60.428 E4.41769
G1 X86.228 Y60.100 E4.43676
G1 X89.903 Y56.425 E4.69606
G1 X90.231 Y56.228 E4.71516
G1 X90.756 Y55.703 E4.75221
G1 X91.413 Y55.309 E4.79039
G1 X91.675 Y55.047 E4.80891
G1 X92.069 Y54.915 E4.82962
G1 X92.397 Y54.719 E4.84869
G1 X93.578 Y54.325 E4.91081
G1 X94.038 Y54.259 E4.93397
G1 X94.431 Y54.128 E4.95468
G1 X95.481 Y54.128 E5.00707
G1 X95.613 Y53.997 E5.01633
G1 X162.813 Y53.997 E8.36895
G1 X164.650 Y53.997 E8.46062
G1 X164.781 Y54.128 E8.46988
G1 X165.569 Y54.128 E8.50917
G1 X165.700 Y54.259 E8.51843
G1 X166.225 Y54.259 E8.54462
G1 X166.356 Y54.390 E8.55388
G1 X166.619 Y54.390 E8.56698
G1 X166.750 Y54.522 E8.57624
G1 X167.013 Y54.522 E8.58934
G1 X167.144 Y54.653 E8.59860
G1 X167.406 Y54.653 E8.61169
G1 X169.047 Y55.638 E8.70716
G1 X169.572 Y56.163 E8.74421
G1 X169.900 Y56.359 E8.76328
G1 X173.575 Y60.034 E9.02257
G1 X173.772 Y60.363 E9.04168
G1 X174.297 Y60.888 E9.07872
G1 X174.691 Y61.544 E9.11690
G1 X174.953 Y61.806 E9.13542
G1 X175.085 Y62.200 E9.15613
G1 X175.281 Y62.528 E9.17520
G1 X175.544 Y63.315 E9.21662
G1 X175.610 Y63.775 E9.23978
G1 X175.741 Y63.906 E9.24904
G1 X175.872 Y64.825 E9.29534
G1 X175.872 Y65.613 E9.33463
G1 X176.003 Y65.744 E9.34389
G1 X176.003 Y132.944 E12.69652
G1 X176.003 Y134.414 E12.76984
G0 F3000 E11.76984
G0 X170.335 Y133.966 F5400
G0 X170.400 Y132.980
G0 X170.400 Y95.528
G0 X165.276 Y59.976
G0 X165.334 Y60.376
G0 F3000 E12.76984
;segType:HShell
G1 X169.624 Y64.666 E13.07253 F2400
G0 X169.182 Y63.659 F5400
G1 X166.341 Y60.818 E13.27297 F2400
G0 X167.504 Y61.131 F5400
G0 X168.016 Y61.265
;segType:Perimeter
G1 X168.554 Y61.530 E13.30290 F1440
G1 X169.188 Y62.252 E13.35082
G1 X169.754 Y63.101 E13.40172
G1 X170.206 Y64.016 E13.45263
G1 X170.533 Y64.981 E13.50349
G1 X170.732 Y65.982 E13.55440
G1 X170.800 Y67.007 E13.60563
G1 X170.800 Y132.993 E16.89771
G1 X170.732 Y134.018 E16.94895
G1 X170.534 Y135.019 E16.99984
G1 X170.206 Y135.985 E17.05074
G1 X169.754 Y136.900 E17.10164
G1 X169.188 Y137.748 E17.15253
G1 X168.515 Y138.515 E17.20344
G1 X167.748 Y139.187 E17.25432
G1 X166.900 Y139.754 E17.30523
G1 X165.985 Y140.206 E17.35613
G1 X165.019 Y140.534 E17.40702
G1 X164.018 Y140.732 E17.45792
G1 X162.993 Y140.800 E17.50915
G1 X97.007 Y140.800 E20.80124
G1 X95.982 Y140.732 E20.85247
G1 X94.981 Y140.534 E20.90337
G1 X94.015 Y140.206 E20.95426
G1 X93.100 Y139.754 E21.00516
G1 X92.252 Y139.187 E21.05606
G1 X91.485 Y138.515 E21.10696
G1 X90.813 Y137.748 E21.15786
G1 X90.246 Y136.900 E21.20875
G1 X89.794 Y135.985 E21.25965
G1 X89.467 Y135.019 E21.31054
G1 X89.268 Y134.018 E21.36144
G1 X89.200 Y132.993 E21.41267
G1 X89.200 Y67.007 E24.70476
G1 X89.268 Y65.982 E24.75599
G1 X89.467 Y64.981 E24.80689
G1 X89.794 Y64.015 E24.85778
G1 X90.246 Y63.100 E24.90869
G1 X90.813 Y62.252 E24.95959
G1 X91.485 Y61.485 E25.01047
G1 X92.252 Y60.812 E25.06138
G1 X93.100 Y60.246 E25.11227
G1 X94.015 Y59.794 E25.16317
G1 X94.981 Y59.466 E25.21407
G1 X95.982 Y59.268 E25.26496
G1 X97.007 Y59.200 E25.31620
G1 X162.993 Y59.200 E28.60828
G1 X164.018 Y59.268 E28.65952
G1 X165.019 Y59.467 E28.71043
G1 X165.984 Y59.794 E28.76130
G1 X166.899 Y60.246 E28.81219
G1 X167.748 Y60.812 E28.86309
G1 X168.470 Y61.445 E28.91100
G0 X168.735 Y61.984 F5400
G0 X168.869 Y62.496
G0 X168.925 Y62.580
;segType:Loop
G1 X169.407 Y63.301 E28.95429 F2400
G1 X169.835 Y64.169 E29.00259
G1 X170.146 Y65.085 E29.05084
G1 X170.335 Y66.034 E29.09913
G1 X170.400 Y67.020 E29.14841
G1 X170.400 Y132.980 E32.43917
G1 X170.335 Y133.966 E32.48845
G1 X170.146 Y134.915 E32.53673
G1 X169.835 Y135.831 E32.58500
G1 X169.407 Y136.699 E32.63330
G1 X168.870 Y137.504 E32.68157
G1 X168.232 Y138.232 E32.72986
G1 X167.504 Y138.869 E32.77813
G1 X166.699 Y139.407 E32.82641
G1 X165.831 Y139.835 E32.87471
G1 X164.915 Y140.146 E32.92297
G1 X163.966 Y140.335 E32.97126
G1 X162.980 Y140.400 E33.02054
G1 X97.020 Y140.400 E36.31131
G1 X96.034 Y140.335 E36.36059
G1 X95.085 Y140.146 E36.40887
G1 X94.169 Y139.835 E36.45714
G1 X93.301 Y139.407 E36.50543
G1 X92.496 Y138.869 E36.55371
G1 X91.769 Y138.232 E36.60199
G1 X91.131 Y137.504 E36.65027
G1 X90.593 Y136.699 E36.69856
G1 X90.165 Y135.831 E36.74684
G1 X89.854 Y134.915 E36.79511
G1 X89.665 Y133.966 E36.84340
G1 X89.600 Y132.980 E36.89267
G1 X89.600 Y67.020 E40.18345
G1 X89.665 Y66.034 E40.23272
G1 X89.854 Y65.085 E40.28101
G1 X90.165 Y64.169 E40.32928
G1 X90.593 Y63.301 E40.37757
G1 X91.131 Y62.496 E40.42585
G1 X91.768 Y61.768 E40.47413
G1 X92.496 Y61.131 E40.52242
G1 X93.301 Y60.593 E40.57069
G1 X94.169 Y60.165 E40.61898
G1 X95.085 Y59.854 E40.66726
G1 X96.034 Y59.665 E40.71554
G1 X97.020 Y59.600 E40.76481
G1 X162.980 Y59.600 E44.05558
G1 X163.966 Y59.665 E44.10486
G1 X164.915 Y59.854 E44.15314
G1 X165.831 Y60.165 E44.20139
G1 X166.699 Y60.593 E44.24969
G1 X167.504 Y61.131 E44.29799
G1 X168.231 Y61.768 E44.34625
G1 X168.804 Y62.421 E44.38956
G0 F3000 E43.38956
G0 X90.536 Y136.584 F5400
G0 X90.810 Y136.324
G0 F3000 E44.38956
;segType:HShell
G1 X93.676 Y139.190 E44.59179 F2400
G0 X94.679 Y139.628 F5400
G1 X90.372 Y135.321 E44.89570 F2400
G0 X90.144 Y134.527 F5400
G1 X95.473 Y139.856 E45.27170 F2400
G0 X96.165 Y139.983 F5400
G1 X90.017 Y133.835 E45.70545 F2400
G0 X89.978 Y133.230 F5400
G1 X96.770 Y140.022 E46.18471 F2400
G0 X97.353 Y140.039 F5400
G1 X89.961 Y132.647 E46.70630 F2400
G0 X89.961 Y132.081 F5400
G1 X97.919 Y140.039 E47.26780 F2400
G0 X98.485 Y140.039 F5400
G1 X89.961 Y131.515 E47.86922 F2400
G0 X89.961 Y130.950 F5400
G1 X99.050 Y140.039 E48.51054 F2400
G0 X99.616 Y140.039 F5400
G1 X89.961 Y130.384 E49.19178 F2400
G0 X89.961 Y129.818 F5400
G1 X100.182 Y140.039 E49.91293 F2400
G0 X100.747 Y140.039 F5400
G1 X89.961 Y129.253 E50.67399 F2400
G0 X89.961 Y128.687 F5400
G1 X101.313 Y140.039 E51.47497 F2400
G0 X101.879 Y140.039 F5400
G1 X89.961 Y128.121 E52.31585 F2400
G0 X89.961 Y127.556 F5400
G1 X102.444 Y140.039 E53.19665 F2400
G0 X103.010 Y140.039 F5400
G1 X89.961 Y126.990 E54.11736 F2400
G0 X89.961 Y126.424 F5400
G1 X103.576 Y140.039 E55.07799 F2400
G0 X104.141 Y140.039 F5400
G1 X89.961 Y125.859 E56.07852 F2400
G0 X89.961 Y125.293 F5400
G1 X104.707 Y140.039 E57.11897 F2400
G0 X105.273 Y140.039 F5400
G1 X89.961 Y124.727 E58.19933 F2400
G0 X89.961 Y124.162 F5400
G1 X105.838 Y140.039 E59.31960 F2400
G0 X106.404 Y140.039 F5400
G1 X89.961 Y123.596 E60.47978 F2400
G0 X89.961 Y123.030 F5400
G1 X106.970 Y140.039 E61.67988 F2400
G0 X107.536 Y140.039 F5400
G1 X89.961 Y122.464 E62.91989 F2400
G0 X89.961 Y121.899 F5400
G1 X108.101 Y140.039 E64.19981 F2400
G0 X108.667 Y140.039 F5400
G1 X89.961 Y121.333 E65.51964 F2400
G0 X89.961 Y120.767 F5400
G1 X109.233 Y140.039 E66.87938 F2400
G0 X109.798 Y140.039 F5400
G1 X89.961 Y120.202 E68.27904 F2400
G0 X89.961 Y119.636 F5400
G1 X110.364 Y140.039 E69.71861 F2400
G0 X110.930 Y140.039 F5400
G1 X89.961 Y119.070 E71.19809 F2400
G0 X89.961 Y118.505 F5400
G1 X111.495 Y140.039 E72.71749 F2400
G0 X112.061 Y140.039 F5400
G1 X89.961 Y117.939 E74.27679 F2400
G0 X89.961 Y117.373 F5400
G1 X112.627 Y140.039 E75.87601 F2400
G0 X113.192 Y140.039 F5400
G1 X89.961 Y116.808 E77.51514 F2400
G0 X89.961 Y116.242 F5400
G1 X113.758 Y140.039 E79.19419 F2400
G0 X114.324 Y140.039 F5400
G1 X89.961 Y115.676 E80.91314 F2400
G0 X89.961 Y115.111 F5400
G1 X114.889 Y140.039 E82.67201 F2400
G0 X115.455 Y140.039 F5400
G1 X89.961 Y114.545 E84.47079 F2400
G0 X89.961 Y113.979 F5400
G1 X116.021 Y140.039 E86.30948 F2400
G0 X116.586 Y140.039 F5400
G1 X89.961 Y113.414 E88.18808 F2400
G0 X89.961 Y112.848 F5400
G1 X117.152 Y140.039 E90.10660 F2400
G0 X117.718 Y140.039 F5400
G1 X89.961 Y112.282 E92.06503 F2400
G0 X89.961 Y111.716 F5400
G1 X118.284 Y140.039 E94.06337 F2400
G0 X118.849 Y140.039 F5400
G1 X89.961 Y111.151 E96.10162 F2400
G0 X89.961 Y110.585 F5400
G1 X119.415 Y140.039 E98.17979 F2400
G0 X119.981 Y140.039 F5400
G1 X89.961 Y110.019 E100.29787 F2400
G0 X89.961 Y109.454 F5400
G1 X120.546 Y140.039 E102.45586 F2400
G0 X121.112 Y140.039 F5400
G1 X89.961 Y108.888 E104.65376 F2400
G0 X89.961 Y108.322 F5400
G1 X121.678 Y140.039 E106.89157 F2400
G0 X122.243 Y140.039 F5400
G1 X89.961 Y107.757 E109.16930 F2400
G0 X89.961 Y107.191 F5400
G1 X122.809 Y140.039 E111.48694 F2400
G0 X123.375 Y140.039 F5400
G1 X89.961 Y106.625 E113.84449 F2400
G0 X89.961 Y106.060 F5400
G1 X123.940 Y140.039 E116.24195 F2400
G0 X124.506 Y140.039 F5400
G1 X89.961 Y105.494 E118.67933 F2400
G0 X89.961 Y104.928 F5400
G1 X125.072 Y140.039 E121.15662 F2400
G0 X125.637 Y140.039 F5400
G1 X89.961 Y104.363 E123.67381 F2400
G0 X89.961 Y103.797 F5400
G1 X126.203 Y140.039 E126.23093 F2400
G0 X126.769 Y140.039 F5400
G1 X89.961 Y103.231 E128.82796 F2400
G0 X89.961 Y102.666 F5400
G1 X127.335 Y140.039 E131.46489 F2400
G0 X127.900 Y140.039 F5400
G1 X89.961 Y102.100 E134.14174 F2400
G0 X89.961 Y101.534 F5400
G1 X128.466 Y140.039 E136.85851 F2400
G0 X129.032 Y140.039 F5400
G1 X89.961 Y100.968 E139.61517 F2400
G0 X89.961 Y100.403 F5400
G1 X129.597 Y140.039 E142.41176 F2400
G0 X130.163 Y140.039 F5400
G1 X89.961 Y99.837 E145.24826 F2400
G0 X89.961 Y99.271 F5400
G1 X130.729 Y140.039 E148.12466 F2400
G0 X131.294 Y140.039 F5400
G1 X89.961 Y98.706 E151.04099 F2400
G0 X89.961 Y98.140 F5400
G1 X131.860 Y140.039 E153.99722 F2400
G0 X132.426 Y140.039 F5400
G1 X89.961 Y97.574 E156.99336 F2400
G0 X89.961 Y97.009 F5400
G1 X132.991 Y140.039 E160.02942 F2400
G0 X133.557 Y140.039 F5400
G1 X89.961 Y96.443 E163.10539 F2400
G0 X89.961 Y95.877 F5400
G1 X134.123 Y140.039 E166.22127 F2400
G0 X134.688 Y140.039 F5400
G1 X89.961 Y95.312 E169.37706 F2400
G0 X89.961 Y94.746 F5400
G1 X135.254 Y140.039 E172.57276 F2400
G0 X135.820 Y140.039 F5400
G1 X89.961 Y94.180 E175.80840 F2400
G0 X89.961 Y93.615 F5400
G1 X136.385 Y140.039 E179.08392 F2400
G0 X136.951 Y140.039 F5400
G1 X89.961 Y93.049 E182.39936 F2400
G0 X89.961 Y92.483 F5400
G1 X137.517 Y140.039 E185.75474 F2400
G0 X138.083 Y140.039 F5400
G1 X89.961 Y91.917 E189.15000 F2400
G0 X89.961 Y91.352 F5400
G1 X138.648 Y140.039 E192.58518 F2400
G0 X139.214 Y140.039 F5400
G1 X89.961 Y90.786 E196.06028 F2400
G0 X89.961 Y90.220 F5400
G1 X139.780 Y140.039 E199.57528 F2400
G0 X140.345 Y140.039 F5400
G1 X89.961 Y89.655 E203.13018 F2400
G0 X89.961 Y89.089 F5400
G1 X140.911 Y140.039 E206.72502 F2400
G0 X141.477 Y140.039 F5400
G1 X89.961 Y88.523 E210.35976 F2400
G0 X89.961 Y87.958 F5400
G1 X142.042 Y140.039 E214.03440 F2400
G0 X142.608 Y140.039 F5400
G1 X89.961 Y87.392 E217.74898 F2400
G0 X89.961 Y86.826 F5400
G1 X143.174 Y140.039 E221.50344 F2400
G0 X143.739 Y140.039 F5400
G1 X89.961 Y86.261 E225.29784 F2400
G0 X89.961 Y85.695 F5400
G1 X144.305 Y140.039 E229.13214 F2400
G0 X144.871 Y140.039 F5400
G1 X89.961 Y85.129 E233.00634 F2400
G0 X89.961 Y84.564 F5400
G1 X145.436 Y140.039 E236.92048 F2400
G0 X146.002 Y140.039 F5400
G1 X89.961 Y83.998 E240.87452 F2400
G0 X89.961 Y83.432 F5400
G1 X146.568 Y140.039 E244.86846 F2400
G0 X147.133 Y140.039 F5400
G1 X89.961 Y82.867 E248.90232 F2400
G0 X89.961 Y82.301 F5400
G1 X147.699 Y140.039 E252.97608 F2400
G0 X148.265 Y140.039 F5400
G1 X89.961 Y81.735 E257.08978 F2400
G0 X89.961 Y81.169 F5400
G1 X148.831 Y140.039 E261.24338 F2400
G0 X149.396 Y140.039 F5400
G1 X89.961 Y80.604 E265.43688 F2400
G0 X89.961 Y80.038 F5400
G1 X149.962 Y140.039 E269.67032 F2400
G0 X150.528 Y140.039 F5400
G1 X89.961 Y79.472 E273.94366 F2400
G0 X89.961 Y78.907 F5400
G1 X151.093 Y140.039 E278.25690 F2400
G0 X151.659 Y140.039 F5400
G1 X89.961 Y78.341 E282.61004 F2400
G0 X89.961 Y77.775 F5400
G1 X152.225 Y140.039 E287.00312 F2400
G0 X152.790 Y140.039 F5400
G1 X89.961 Y77.210 E291.43610 F2400
G0 X89.961 Y76.644 F5400
G1 X153.356 Y140.039 E295.90900 F2400
G0 X153.922 Y140.039 F5400
G1 X89.961 Y76.078 E300.42182 F2400
G0 X89.961 Y75.513 F5400
G1 X154.487 Y140.039 E304.97452 F2400
G0 X155.053 Y140.039 F5400
G1 X89.961 Y74.947 E309.56714 F2400
G0 X89.961 Y74.381 F5400
G1 X155.619 Y140.039 E314.19968 F2400
G0 X156.184 Y140.039 F5400
G1 X89.961 Y73.816 E318.87214 F2400
G0 X89.961 Y73.250 F5400
G1 X156.750 Y140.039 E323.58450 F2400
G0 X157.316 Y140.039 F5400
G1 X89.961 Y72.684 E328.33680 F2400
G0 X89.961 Y72.119 F5400
G1 X157.882 Y140.039 E333.12896 F2400
G0 X158.447 Y140.039 F5400
G1 X89.961 Y71.553 E337.96104 F2400
G0 X89.961 Y70.987 F5400
G1 X159.013 Y140.039 E342.83308 F2400
G0 X159.579 Y140.039 F5400
G1 X89.961 Y70.421 E347.74500 F2400
G0 X89.961 Y69.856 F5400
G1 X160.144 Y140.039 E352.69684 F2400
G0 X160.710 Y140.039 F5400
G1 X89.961 Y69.290 E357.68860 F2400
G0 X89.961 Y68.724 F5400
G1 X161.276 Y140.039 E362.72024 F2400
G0 X161.841 Y140.039 F5400
G1 X89.961 Y68.159 E367.79180 F2400
G0 X89.961 Y67.593 F5400
G1 X162.407 Y140.039 E372.90328 F2400
G0 X162.972 Y140.039 F5400
G1 X89.961 Y67.028 E378.05464 F2400
G0 X89.996 Y66.497 F5400
G1 X163.503 Y140.004 E383.24104 F2400
G0 X164.021 Y139.957 F5400
G1 X90.043 Y65.979 E388.46056 F2400
G0 X90.137 Y65.507 F5400
G1 X164.493 Y139.863 E393.70680 F2400
G0 X164.950 Y139.754 F5400
G1 X90.246 Y65.050 E398.97756 F2400
G0 X90.389 Y64.628 F5400
G1 X165.372 Y139.611 E404.26804 F2400
G0 X165.784 Y139.457 F5400
G1 X90.543 Y64.216 E409.57668 F2400
G0 X90.730 Y63.837 F5400
G1 X166.163 Y139.270 E414.89888 F2400
G0 X166.539 Y139.081 F5400
G1 X90.919 Y63.461 E420.23432 F2400
G0 X91.146 Y63.122 F5400
G1 X166.878 Y138.854 E425.57768 F2400
G0 X167.218 Y138.627 F5400
G1 X91.373 Y62.782 E430.92896 F2400
G0 X91.629 Y62.474 F5400
G1 X167.526 Y138.371 E436.28392 F2400
G0 X167.828 Y138.106 F5400
G1 X91.894 Y62.172 E441.64148 F2400
G0 X92.177 Y61.890 F5400
G1 X168.110 Y137.823 E446.99904 F2400
G0 X168.375 Y137.522 F5400
G1 X92.478 Y61.625 E452.35396 F2400
G0 X92.788 Y61.369 F5400
G1 X168.631 Y137.212 E457.70512 F2400
G0 X168.858 Y136.873 F5400
G1 X93.127 Y61.142 E463.04832 F2400
G0 X93.466 Y60.916 F5400
G1 X169.084 Y136.534 E468.38364 F2400
G0 X169.273 Y136.157 F5400
G1 X93.843 Y60.727 E473.70564 F2400
G0 X94.222 Y60.540 F5400
G1 X169.460 Y135.778 E479.01408 F2400
G0 X169.613 Y135.366 F5400
G1 X94.634 Y60.387 E484.30428 F2400
G0 X95.056 Y60.244 F5400
G1 X169.756 Y134.944 E489.57472 F2400
G0 X169.864 Y134.486 F5400
G1 X95.514 Y60.136 E494.82056 F2400
G0 X95.986 Y60.042 F5400
G1 X169.958 Y134.014 E500.03972 F2400
G0 X170.005 Y133.495 F5400
G1 X96.505 Y59.995 E505.22552 F2400
G0 X97.036 Y59.961 F5400
G1 X170.039 Y132.964 E510.37632 F2400
G0 X170.039 Y132.398 F5400
G1 X97.602 Y59.961 E515.48720 F2400
G0 X98.167 Y59.961 F5400
G1 X170.039 Y131.833 E520.55816 F2400
G0 X170.039 Y131.267 F5400
G1 X98.733 Y59.961 E525.58924 F2400
G0 X99.299 Y59.961 F5400
G1 X170.039 Y130.701 E530.58040 F2400
G0 X170.039 Y130.136 F5400
G1 X99.864 Y59.961 E535.53160 F2400
G0 X100.430 Y59.961 F5400
G1 X170.039 Y129.570 E540.44292 F2400
G0 X170.039 Y129.004 F5400
G1 X100.996 Y59.961 E545.31432 F2400
G0 X101.561 Y59.961 F5400
G1 X170.039 Y128.439 E550.14580 F2400
G0 X170.039 Y127.873 F5400
G1 X102.127 Y59.961 E554.93736 F2400
G0 X102.693 Y59.961 F5400
G1 X170.039 Y127.307 E559.68904 F2400
G0 X170.039 Y126.742 F5400
G1 X103.258 Y59.961 E564.40080 F2400
G0 X103.824 Y59.961 F5400
G1 X170.039 Y126.176 E569.07268 F2400
G0 X170.039 Y125.610 F5400
G1 X104.390 Y59.961 E573.70464 F2400
G0 X104.955 Y59.961 F5400
G1 X170.039 Y125.045 E578.29668 F2400
G0 X170.039 Y124.479 F5400
G1 X105.521 Y59.961 E582.84880 F2400
G0 X106.087 Y59.961 F5400
G1 X170.039 Y123.913 E587.36104 F2400
G0 X170.039 Y123.347 F5400
G1 X106.653 Y59.961 E591.83332 F2400
G0 X107.218 Y59.961 F5400
G1 X170.039 Y122.782 E596.26568 F2400
G0 X170.039 Y122.216 F5400
G1 X107.784 Y59.961 E600.65816 F2400
G0 X108.350 Y59.961 F5400
G1 X170.039 Y121.650 E605.01068 F2400
G0 X170.039 Y121.085 F5400
G1 X108.915 Y59.961 E609.32332 F2400
G0 X109.481 Y59.961 F5400
G1 X170.039 Y120.519 E613.59600 F2400
G0 X170.039 Y119.953 F5400
G1 X110.047 Y59.961 E617.82884 F2400
G0 X110.612 Y59.961 F5400
G1 X170.039 Y119.388 E622.02180 F2400
G0 X170.039 Y118.822 F5400
G1 X111.178 Y59.961 E626.17480 F2400
G0 X111.744 Y59.961 F5400
G1 X170.039 Y118.256 E630.28792 F2400
G0 X170.039 Y117.691 F5400
G1 X112.309 Y59.961 E634.36108 F2400
G0 X112.875 Y59.961 F5400
G1 X170.039 Y117.125 E638.39436 F2400
G0 X170.039 Y116.559 F5400
G1 X113.441 Y59.961 E642.38768 F2400
G0 X114.006 Y59.961 F5400
G1 X170.039 Y115.994 E646.34112 F2400
G0 X170.039 Y115.428 F5400
G1 X114.572 Y59.961 E650.25464 F2400
G0 X115.138 Y59.961 F5400
G1 X170.039 Y114.862 E654.12824 F2400
G0 X170.039 Y114.297 F5400
G1 X115.703 Y59.961 E657.96192 F2400
G0 X116.269 Y59.961 F5400
G1 X170.039 Y113.731 E661.75568 F2400
G0 X170.039 Y113.165 F5400
G1 X116.835 Y59.961 E665.50952 F2400
G0 X117.401 Y59.961 F5400
G1 X170.039 Y112.599 E669.22352 F2400
G0 X170.039 Y112.034 F5400
G1 X117.966 Y59.961 E672.89760 F2400
G0 X118.532 Y59.961 F5400
G1 X170.039 Y111.468 E676.53176 F2400
G0 X170.039 Y110.902 F5400
G1 X119.098 Y59.961 E680.12600 F2400
G0 X119.663 Y59.961 F5400
G1 X170.039 Y110.337 E683.68032 F2400
G0 X170.039 Y109.771 F5400
G1 X120.229 Y59.961 E687.19472 F2400
G0 X120.795 Y59.960 F5400
G1 X170.040 Y109.205 E690.66920 F2400
G0 X170.040 Y108.640 F5400
G1 X121.360 Y59.960 E694.10376 F2400
G0 X121.926 Y59.960 F5400
G1 X170.040 Y108.074 E697.49840 F2400
G0 X170.040 Y107.508 F5400
G1 X122.492 Y59.960 E700.85312 F2400
G0 X123.057 Y59.961 F5400
G1 X170.039 Y106.943 E704.16800 F2400
G0 X170.040 Y106.377 F5400
G1 X123.623 Y59.960 E707.44288 F2400
G0 X124.189 Y59.960 F5400
G1 X170.040 Y105.811 E710.67792 F2400
G0 X170.040 Y105.246 F5400
G1 X124.754 Y59.960 E713.87304 F2400
G0 X125.320 Y59.960 F5400
G1 X170.040 Y104.680 E717.02824 F2400
G0 X170.039 Y104.114 F5400
G1 X125.886 Y59.961 E720.14352 F2400
G0 X126.451 Y59.960 F5400
G1 X170.040 Y103.549 E723.21896 F2400
G0 X170.040 Y102.983 F5400
G1 X127.017 Y59.960 E726.25440 F2400
G0 X127.583 Y59.960 F5400
G1 X170.040 Y102.417 E729.24992 F2400
G0 X170.040 Y101.851 F5400
G1 X128.149 Y59.960 E732.20560 F2400
G0 X128.714 Y59.961 F5400
G1 X170.039 Y101.286 E735.12128 F2400
G0 X170.040 Y100.720 F5400
G1 X129.280 Y59.960 E737.99704 F2400
G0 X129.846 Y59.960 F5400
G1 X170.040 Y100.154 E740.83296 F2400
G0 X170.039 Y99.589 F5400
G1 X130.411 Y59.961 E743.62888 F2400
G0 X130.977 Y59.961 F5400
G1 X170.039 Y99.023 E746.38496 F2400
G0 X170.039 Y98.457 F5400
G1 X131.543 Y59.961 E749.10112 F2400
G0 X132.108 Y59.960 F5400
G1 X170.040 Y97.892 E751.77744 F2400
G0 X170.040 Y97.326 F5400
G1 X132.674 Y59.960 E754.41376 F2400
G0 X133.240 Y59.961 F5400
G1 X170.039 Y96.760 E757.01016 F2400
G0 X170.039 Y96.195 F5400
G1 X133.805 Y59.961 E759.56672 F2400
G0 X134.371 Y59.961 F5400
G1 X170.039 Y95.629 E762.08328 F2400
G0 X170.039 Y95.063 F5400
G1 X134.937 Y59.961 E764.56000 F2400
G0 X135.502 Y59.961 F5400
G1 X170.039 Y94.498 E766.99680 F2400
G0 X170.039 Y93.932 F5400
G1 X136.068 Y59.961 E769.39360 F2400
G0 X136.634 Y59.961 F5400
G1 X170.039 Y93.366 E771.75056 F2400
G0 X170.039 Y92.800 F5400
G1 X137.200 Y59.961 E774.06760 F2400
G0 X137.765 Y59.961 F5400
G1 X170.039 Y92.235 E776.34464 F2400
G0 X170.039 Y91.669 F5400
G1 X138.331 Y59.961 E778.58184 F2400
G0 X138.897 Y59.961 F5400
G1 X170.039 Y91.103 E780.77920 F2400
G0 X170.039 Y90.538 F5400
G1 X139.462 Y59.961 E782.93656 F2400
G0 X140.028 Y59.961 F5400
G1 X170.039 Y89.972 E785.05408 F2400
G0 X170.039 Y89.406 F5400
G1 X140.594 Y59.961 E787.13168 F2400
G0 X141.159 Y59.961 F5400
G1 X170.039 Y88.841 E789.16928 F2400
G0 X170.039 Y88.275 F5400
G1 X141.725 Y59.961 E791.16704 F2400
G0 X142.291 Y59.961 F5400
G1 X170.039 Y87.709 E793.12488 F2400
G0 X170.039 Y87.144 F5400
G1 X142.856 Y59.961 E795.04280 F2400
G0 X143.422 Y59.961 F5400
G1 X170.039 Y86.578 E796.92080 F2400
G0 X170.039 Y86.012 F5400
G1 X143.988 Y59.961 E798.75888 F2400
G0 X144.553 Y59.961 F5400
G1 X170.039 Y85.447 E800.55704 F2400
G0 X170.039 Y84.881 F5400
G1 X145.119 Y59.961 E802.31528 F2400
G0 X145.685 Y59.961 F5400
G1 X170.039 Y84.315 E804.03360 F2400
G0 X170.039 Y83.750 F5400
G1 X146.250 Y59.961 E805.71208 F2400
G0 X146.816 Y59.961 F5400
G1 X170.039 Y83.184 E807.35064 F2400
G0 X170.039 Y82.618 F5400
G1 X147.382 Y59.961 E808.94928 F2400
G0 X147.948 Y59.961 F5400
G1 X170.039 Y82.052 E810.50800 F2400
G0 X170.039 Y81.487 F5400
G1 X148.513 Y59.961 E812.02680 F2400
G0 X149.079 Y59.961 F5400
G1 X170.039 Y80.921 E813.50568 F2400
G0 X170.039 Y80.355 F5400
G1 X149.645 Y59.961 E814.94464 F2400
G0 X150.210 Y59.961 F5400
G1 X170.039 Y79.790 E816.34368 F2400
G0 X170.039 Y79.224 F5400
G1 X150.776 Y59.961 E817.70280 F2400
G0 X151.342 Y59.961 F5400
G1 X170.039 Y78.658 E819.02200 F2400
G0 X170.039 Y78.093 F5400
G1 X151.907 Y59.961 E820.30136 F2400
G0 X152.473 Y59.961 F5400
G1 X170.039 Y77.527 E821.54072 F2400
G0 X170.039 Y76.961 F5400
G1 X153.039 Y59.961 E822.74024 F2400
G0 X153.604 Y59.961 F5400
G1 X170.039 Y76.396 E823.89984 F2400
G0 X170.039 Y75.830 F5400
G1 X154.170 Y59.961 E825.01952 F2400
G0 X154.736 Y59.961 F5400
G1 X170.039 Y75.264 E826.09928 F2400
G0 X170.039 Y74.699 F5400
G1 X155.301 Y59.961 E827.13920 F2400
G0 X155.867 Y59.961 F5400
G1 X170.039 Y74.133 E828.13912 F2400
G0 X170.039 Y73.567 F5400
G1 X156.433 Y59.961 E829.09912 F2400
G0 X156.999 Y59.961 F5400
G1 X170.039 Y73.001 E830.01920 F2400
G0 X170.039 Y72.436 F5400
G1 X157.564 Y59.961 E830.89944 F2400
G0 X158.130 Y59.961 F5400
G1 X170.039 Y71.870 E831.73968 F2400
G0 X170.039 Y71.304 F5400
G1 X158.696 Y59.961 E832.54000 F2400
G0 X159.261 Y59.961 F5400
G1 X170.039 Y70.739 E833.30048 F2400
G0 X170.039 Y70.173 F5400
G1 X159.827 Y59.961 E834.02096 F2400
G0 X160.393 Y59.961 F5400
G1 X170.039 Y69.607 E834.70168 F2400
G0 X170.039 Y69.042 F5400
G1 X160.958 Y59.961 E835.34240 F2400
G0 X161.524 Y59.961 F5400
G1 X170.039 Y68.476 E835.94320 F2400
G0 X170.039 Y67.910 F5400
G1 X162.090 Y59.961 E836.50416 F2400
G0 X162.655 Y59.961 F5400
G1 X170.039 Y67.345 E837.02512 F2400
G0 X170.022 Y66.761 F5400
G1 X163.239 Y59.978 E837.50376 F2400
G0 X163.844 Y60.018 F5400
G1 X169.982 Y66.156 E837.93680 F2400
G0 X169.854 Y65.462 F5400
G1 X164.538 Y60.146 E838.31184 F2400
; ------------------------------------
; Layer #1
; ------------------------------------
G92 E0 ;reset extr
G0 F3000 E-1.00000
G0 F600 Z0.600
G0 X164.828 Y59.836 F7200
G0 X91.512 Y137.939
G0 X91.759 Y137.675
G0 F3000 E0.00000
;segType:HShell
G1 X167.675 Y61.759 E5.35624 F3600
G0 X168.016 Y61.265 F7200
;segType:Perimeter
G1 X168.554 Y61.530 E5.38618 F2160
G1 X169.188 Y62.252 E5.43409
G1 X169.754 Y63.101 E5.48499
G1 X170.206 Y64.016 E5.53591
G1 X170.533 Y64.981 E5.58676
G1 X170.732 Y65.982 E5.63767
G1 X170.800 Y67.007 E5.68890
G1 X170.800 Y132.993 E8.98099
G1 X170.732 Y134.018 E9.03223
G1 X170.534 Y135.019 E9.08311
G1 X170.206 Y135.985 E9.13401
G1 X169.754 Y136.900 E9.18491
G1 X169.188 Y137.748 E9.23580
G1 X168.515 Y138.515 E9.28671
G1 X167.748 Y139.187 E9.33760
G1 X166.900 Y139.754 E9.38850
G1 X165.985 Y140.206 E9.43940
G1 X165.019 Y140.534 E9.49029
G1 X164.018 Y140.732 E9.54119
G1 X162.993 Y140.800 E9.59242
G1 X97.007 Y140.800 E12.88451
G1 X95.982 Y140.732 E12.93574
G1 X94.981 Y140.534 E12.98664
G1 X94.015 Y140.206 E13.03753
G1 X93.100 Y139.754 E13.08843
G1 X92.252 Y139.187 E13.13933
G1 X91.485 Y138.515 E13.19023
G1 X90.813 Y137.748 E13.24113
G1 X90.246 Y136.900 E13.29203
G1 X89.794 Y135.985 E13.34292
G1 X89.467 Y135.019 E13.39381
G1 X89.268 Y134.018 E13.44471
G1 X89.200 Y132.993 E13.49594
G1 X89.200 Y67.007 E16.78803
G1 X89.268 Y65.982 E16.83927
G1 X89.467 Y64.981 E16.89017
G1 X89.794 Y64.015 E16.94106
G1 X90.246 Y63.100 E16.99196
G1 X90.813 Y62.252 E17.04286
G1 X91.485 Y61.485 E17.09375
G1 X92.252 Y60.812 E17.14466
G1 X93.100 Y60.246 E17.19555
G1 X94.015 Y59.794 E17.24645
G1 X94.981 Y59.466 E17.29735
G1 X95.982 Y59.268 E17.34823
G1 X97.007 Y59.200 E17.39947
G1 X162.993 Y59.200 E20.69156
G1 X164.018 Y59.268 E20.74279
G1 X165.019 Y59.467 E20.79370
G1 X165.984 Y59.794 E20.84457
G1 X166.899 Y60.246 E20.89547
G1 X167.748 Y60.812 E20.94637
G1 X168.470 Y61.445 E20.99428
G0 X168.735 Y61.984 F7200
G0 X168.869 Y62.496
G0 X168.925 Y62.580
;segType:Loop
G1 X169.407 Y63.301 E21.03757 F3600
G1 X169.835 Y64.169 E21.08586
G1 X170.146 Y65.085 E21.13412
G1 X170.335 Y66.034 E21.18240
G1 X170.400 Y67.020 E21.23168
G1 X170.400 Y132.980 E24.52245
G1 X170.335 Y133.966 E24.57173
G1 X170.146 Y134.915 E24.62000
G1 X169.835 Y135.831 E24.66828
G1 X169.407 Y136.699 E24.71658
G1 X168.870 Y137.504 E24.76484
G1 X168.232 Y138.232 E24.81313
G1 X167.504 Y138.869 E24.86141
G1 X166.699 Y139.407 E24.90969
G1 X165.831 Y139.835 E24.95798
G1 X164.915 Y140.146 E25.00625
G1 X163.966 Y140.335 E25.05454
G1 X162.980 Y140.400 E25.10381
G1 X97.020 Y140.400 E28.39459
G1 X96.034 Y140.335 E28.44386
G1 X95.085 Y140.146 E28.49215
G1 X94.169 Y139.835 E28.54042
G1 X93.301 Y139.407 E28.58870
G1 X92.496 Y138.869 E28.63699
G1 X91.769 Y138.232 E28.68527
G1 X91.131 Y137.504 E28.73355
G1 X90.593 Y136.699 E28.78183
G1 X90.165 Y135.831 E28.83012
G1 X89.854 Y134.915 E28.87839
G1 X89.665 Y133.966 E28.92667
G1 X89.600 Y132.980 E28.97594
G1 X89.600 Y67.020 E32.26672
G1 X89.665 Y66.034 E32.31600
G1 X89.854 Y65.085 E32.36428
G1 X90.165 Y64.169 E32.41255
G1 X90.593 Y63.301 E32.46084
G1 X91.131 Y62.496 E32.50913
G1 X91.768 Y61.768 E32.55740
G1 X92.496 Y61.131 E32.60569
G1 X93.301 Y60.593 E32.65396
G1 X94.169 Y60.165 E32.70225
G1 X95.085 Y59.854 E32.75053
G1 X96.034 Y59.665 E32.79881
G1 X97.020 Y59.600 E32.84808
G1 X162.980 Y59.600 E36.13885
G1 X163.966 Y59.665 E36.18813
G1 X164.915 Y59.854 E36.23641
G1 X165.831 Y60.165 E36.28466
G1 X166.699 Y60.593 E36.33296
G1 X167.504 Y61.131 E36.38126
G1 X168.231 Y61.768 E36.42952
G1 X168.804 Y62.421 E36.47283
G0 X167.373 Y61.495 F7200
;segType:HShell
G1 X91.495 Y137.373 E41.82645 F3600
G0 X91.257 Y137.045 F7200
G1 X167.045 Y61.258 E47.17370 F3600
G0 X166.706 Y61.031 F7200
G1 X91.031 Y136.706 E52.51301 F3600
G0 X90.822 Y136.350 F7200
G1 X166.350 Y60.822 E57.84189 F3600
G0 X165.971 Y60.635 F7200
G1 X90.635 Y135.971 E63.15723 F3600
G0 X90.460 Y135.580 F7200
G1 X165.580 Y60.460 E68.45738 F3600
G0 X165.158 Y60.317 F7200
G1 X90.317 Y135.158 E73.73785 F3600
G0 X90.183 Y134.726 F7200
G1 X164.726 Y60.183 E78.99722 F3600
G0 X164.254 Y60.089 F7200
G1 X90.089 Y134.254 E84.22990 F3600
G0 X90.013 Y133.765 F7200
G1 X163.765 Y60.013 E89.43350 F3600
G0 X163.234 Y59.978 F7200
G1 X89.978 Y133.234 E94.60210 F3600
G0 X89.961 Y132.686 F7200
G1 X162.685 Y59.961 E99.73323 F3600
G0 X162.120 Y59.961 F7200
G1 X89.961 Y132.120 E104.82445 F3600
G0 X89.961 Y131.554 F7200
G1 X161.554 Y59.961 E109.87576 F3600
G0 X160.988 Y59.961 F7200
G1 X89.961 Y130.988 E114.88715 F3600
G0 X89.961 Y130.423 F7200
G1 X160.423 Y59.961 E119.85863 F3600
G0 X159.857 Y59.961 F7200
G1 X89.961 Y129.857 E124.79020 F3600
G0 X89.961 Y129.291 F7200
G1 X159.291 Y59.961 E129.68185 F3600
G0 X158.726 Y59.961 F7200
G1 X89.961 Y128.726 E134.53360 F3600
G0 X89.961 Y128.160 F7200
G1 X158.160 Y59.961 E139.34543 F3600
G0 X157.594 Y59.961 F7200
G1 X89.961 Y127.594 E144.11736 F3600
G0 X89.961 Y127.029 F7200
G1 X157.029 Y59.961 E148.84937 F3600
G0 X156.463 Y59.961 F7200
G1 X89.961 Y126.463 E153.54146 F3600
G0 X89.961 Y125.897 F7200
G1 X155.897 Y59.961 E158.19365 F3600
G0 X155.332 Y59.961 F7200
G1 X89.961 Y125.332 E162.80592 F3600
G0 X89.961 Y124.766 F7200
G1 X154.766 Y59.961 E167.37828 F3600
G0 X154.200 Y59.961 F7200
G1 X89.961 Y124.200 E171.91074 F3600
G0 X89.961 Y123.635 F7200
G1 X153.634 Y59.961 E176.40328 F3600
G0 X153.069 Y59.961 F7200
G1 X89.961 Y123.069 E180.85590 F3600
G0 X89.961 Y122.503 F7200
G1 X152.503 Y59.961 E185.26862 F3600
G0 X151.937 Y59.961 F7200
G1 X89.961 Y121.937 E189.64142 F3600
G0 X89.961 Y121.372 F7200
G1 X151.372 Y59.961 E193.97430 F3600
G0 X150.806 Y59.961 F7200
G1 X89.961 Y120.806 E198.26728 F3600
G0 X89.961 Y120.240 F7200
G1 X150.240 Y59.961 E202.52034 F3600
G0 X149.675 Y59.961 F7200
G1 X89.961 Y119.675 E206.73348 F3600
G0 X89.961 Y119.109 F7200
G1 X149.109 Y59.961 E210.90672 F3600
G0 X148.543 Y59.961 F7200
G1 X89.961 Y118.543 E215.04006 F3600
G0 X89.961 Y117.978 F7200
G1 X147.978 Y59.961 E219.13346 F3600
G0 X147.412 Y59.961 F7200
G1 X89.961 Y117.412 E223.18696 F3600
G0 X89.961 Y116.846 F7200
G1 X146.846 Y59.961 E227.20056 F3600
G0 X146.281 Y59.961 F7200
G1 X89.961 Y116.281 E231.17424 F3600
G0 X89.961 Y115.715 F7200
G1 X145.715 Y59.961 E235.10800 F3600
G0 X145.149 Y59.961 F7200
G1 X89.961 Y115.149 E239.00186 F3600
G0 X89.961 Y114.584 F7200
G1 X144.584 Y59.961 E242.85580 F3600
G0 X144.018 Y59.961 F7200
G1 X89.961 Y114.018 E246.66984 F3600
G0 X89.961 Y113.452 F7200
G1 X143.452 Y59.961 E250.44396 F3600
G0 X142.886 Y59.961 F7200
G1 X89.961 Y112.887 E254.17816 F3600
G0 X89.961 Y112.321 F7200
G1 X142.321 Y59.961 E257.87246 F3600
G0 X141.755 Y59.961 F7200
G1 X89.961 Y111.755 E261.52686 F3600
G0 X89.961 Y111.189 F7200
G1 X141.189 Y59.961 E265.14132 F3600
G0 X140.624 Y59.961 F7200
G1 X89.961 Y110.624 E268.71588 F3600
G0 X89.961 Y110.058 F7200
G1 X140.058 Y59.961 E272.25052 F3600
G0 X139.492 Y59.961 F7200
G1 X89.961 Y109.492 E275.74524 F3600
G0 X89.961 Y108.927 F7200
G1 X138.927 Y59.961 E279.20008 F3600
G0 X138.361 Y59.961 F7200
G1 X89.961 Y108.361 E282.61500 F3600
G0 X89.961 Y107.795 F7200
G1 X137.795 Y59.961 E285.99000 F3600
G0 X137.230 Y59.961 F7200
G1 X89.961 Y107.230 E289.32508 F3600
G0 X89.961 Y106.664 F7200
G1 X136.664 Y59.961 E292.62024 F3600
G0 X136.098 Y59.961 F7200
G1 X89.961 Y106.098 E295.87548 F3600
G0 X89.961 Y105.533 F7200
G1 X135.533 Y59.961 E299.09086 F3600
G0 X134.967 Y59.961 F7200
G1 X89.961 Y104.967 E302.26630 F3600
G0 X89.961 Y104.401 F7200
G1 X134.401 Y59.961 E305.40182 F3600
G0 X133.836 Y59.961 F7200
G1 X89.961 Y103.836 E308.49744 F3600
G0 X89.961 Y103.270 F7200
G1 X133.270 Y59.961 E311.55314 F3600
G0 X132.704 Y59.961 F7200
G1 X89.961 Y102.704 E314.56890 F3600
G0 X89.961 Y102.138 F7200
G1 X132.138 Y59.961 E317.54480 F3600
G0 X131.573 Y59.961 F7200
G1 X89.961 Y101.573 E320.48078 F3600
G0 X89.961 Y101.007 F7200
G1 X131.007 Y59.961 E323.37684 F3600
G0 X130.441 Y59.961 F7200
G1 X89.961 Y100.441 E326.23298 F3600
G0 X89.961 Y99.876 F7200
G1 X129.876 Y59.961 E329.04920 F3600
G0 X129.310 Y59.961 F7200
G1 X89.961 Y99.310 E331.82550 F3600
G0 X89.961 Y98.744 F7200
G1 X128.744 Y59.961 E334.56188 F3600
G0 X128.179 Y59.961 F7200
G1 X89.961 Y98.179 E337.25840 F3600
G0 X89.961 Y97.613 F7200
G1 X127.613 Y59.961 E339.91496 F3600
G0 X127.047 Y59.961 F7200
G1 X89.961 Y97.047 E342.53164 F3600
G0 X89.961 Y96.482 F7200
G1 X126.482 Y59.961 E345.10840 F3600
G0 X125.916 Y59.961 F7200
G1 X89.961 Y95.916 E347.64524 F3600
G0 X89.961 Y95.350 F7200
G1 X125.350 Y59.961 E350.14216 F3600
G0 X124.785 Y59.961 F7200
G1 X89.961 Y94.785 E352.59920 F3600
G0 X89.961 Y94.219 F7200
G1 X124.219 Y59.961 E355.01628 F3600
G0 X123.653 Y59.961 F7200
G1 X89.961 Y93.653 E357.39348 F3600
G0 X89.961 Y93.088 F7200
G1 X123.088 Y59.961 E359.73076 F3600
G0 X122.522 Y59.961 F7200
G1 X89.961 Y92.522 E362.02812 F3600
G0 X89.961 Y91.956 F7200
G1 X121.956 Y59.961 E364.28560 F3600
G0 X121.390 Y59.961 F7200
G1 X89.961 Y91.390 E366.50316 F3600
G0 X89.961 Y90.825 F7200
G1 X120.825 Y59.961 E368.68080 F3600
G0 X120.259 Y59.961 F7200
G1 X89.961 Y90.259 E370.81852 F3600
G0 X89.961 Y89.693 F7200
G1 X119.693 Y59.961 E372.91632 F3600
G0 X119.128 Y59.961 F7200
G1 X89.961 Y89.128 E374.97420 F3600
G0 X89.961 Y88.562 F7200
G1 X118.562 Y59.961 E376.99220 F3600
G0 X117.996 Y59.961 F7200
G1 X89.961 Y87.996 E378.97028 F3600
G0 X89.961 Y87.431 F7200
G1 X117.431 Y59.961 E380.90844 F3600
G0 X116.865 Y59.961 F7200
G1 X89.961 Y86.865 E382.80672 F3600
G0 X89.961 Y86.299 F7200
G1 X116.299 Y59.961 E384.66504 F3600
G0 X115.734 Y59.961 F7200
G1 X89.961 Y85.734 E386.48344 F3600
G0 X89.961 Y85.168 F7200
G1 X115.168 Y59.961 E388.26196 F3600
G0 X114.602 Y59.961 F7200
G1 X89.961 Y84.602 E390.00056 F3600
G0 X89.961 Y84.037 F7200
G1 X114.037 Y59.961 E391.69928 F3600
G0 X113.471 Y59.961 F7200
G1 X89.961 Y83.471 E393.35808 F3600
G0 X89.961 Y82.905 F7200
G1 X112.905 Y59.961 E394.97692 F3600
G0 X112.340 Y59.961 F7200
G1 X89.961 Y82.340 E396.55588 F3600
G0 X89.961 Y81.774 F7200
G1 X111.774 Y59.961 E398.09492 F3600
G0 X111.208 Y59.961 F7200
G1 X89.961 Y81.208 E399.59404 F3600
G0 X89.961 Y80.642 F7200
G1 X110.642 Y59.961 E401.05328 F3600
G0 X110.077 Y59.961 F7200
G1 X89.961 Y80.077 E402.47260 F3600
G0 X89.961 Y79.511 F7200
G1 X109.511 Y59.961 E403.85200 F3600
G0 X108.945 Y59.961 F7200
G1 X89.961 Y78.945 E405.19148 F3600
G0 X89.961 Y78.380 F7200
G1 X108.380 Y59.961 E406.49104 F3600
G0 X107.814 Y59.961 F7200
G1 X89.961 Y77.814 E407.75072 F3600
G0 X89.961 Y77.248 F7200
G1 X107.248 Y59.961 E408.97044 F3600
G0 X106.683 Y59.961 F7200
G1 X89.961 Y76.683 E410.15028 F3600
G0 X89.961 Y76.117 F7200
G1 X106.117 Y59.961 E411.29024 F3600
G0 X105.551 Y59.961 F7200
G1 X89.961 Y75.551 E412.39024 F3600
G0 X89.961 Y74.986 F7200
G1 X104.986 Y59.961 E413.45032 F3600
G0 X104.420 Y59.961 F7200
G1 X89.961 Y74.420 E414.47048 F3600
G0 X89.961 Y73.854 F7200
G1 X103.854 Y59.961 E415.45076 F3600
G0 X103.289 Y59.961 F7200
G1 X89.961 Y73.289 E416.39116 F3600
G0 X89.961 Y72.723 F7200
G1 X102.723 Y59.961 E417.29160 F3600
G0 X102.157 Y59.961 F7200
G1 X89.961 Y72.157 E418.15212 F3600
G0 X89.961 Y71.592 F7200
G1 X101.592 Y59.961 E418.97276 F3600
G0 X101.026 Y59.961 F7200
G1 X89.961 Y71.026 E419.75344 F3600
G0 X89.961 Y70.460 F7200
G1 X100.460 Y59.961 E420.49428 F3600
G0 X99.894 Y59.961 F7200
G1 X89.961 Y69.894 E421.19516 F3600
G0 X89.961 Y69.329 F7200
G1 X99.329 Y59.961 E421.85616 F3600
G0 X98.763 Y59.961 F7200
G1 X89.961 Y68.763 E422.47720 F3600
G0 X89.961 Y68.197 F7200
G1 X98.197 Y59.961 E423.05836 F3600
G0 X97.632 Y59.961 F7200
G1 X89.961 Y67.632 E423.59956 F3600
G0 X89.961 Y67.066 F7200
G1 X97.066 Y59.961 E424.10092 F3600
G0 X96.463 Y59.998 F7200
G1 X89.998 Y66.463 E424.55708 F3600
G0 X90.075 Y65.821 F7200
G1 X95.821 Y60.075 E424.96248 F3600
G0 X95.101 Y60.229 F7200
G1 X90.229 Y65.101 E425.30620 F3600
G0 X90.538 Y64.225 F7200
G1 X94.225 Y60.538 E425.56636 F3600
G0 X92.913 Y61.285 F7200
G1 X91.285 Y62.913 E425.68116 F3600
G0 X92.024 Y137.976 F7200
G1 X167.976 Y62.024 E431.04000 F3600
G0 X168.241 Y62.325 F7200
G1 X92.325 Y138.241 E436.39624 F3600
G0 X92.627 Y138.505 F7200
G1 X168.505 Y62.627 E441.74984 F3600
G0 X168.743 Y62.955 F7200
G1 X92.955 Y138.743 E447.09712 F3600
G0 X93.294 Y138.969 F7200
G1 X168.969 Y63.294 E452.43644 F3600
G0 X169.178 Y63.650 F7200
G1 X93.650 Y139.178 E457.76532 F3600
G0 X94.029 Y139.365 F7200
G1 X169.365 Y64.029 E463.08064 F3600
G0 X169.540 Y64.420 F7200
G1 X94.420 Y139.540 E468.38080 F3600
G0 X94.842 Y139.683 F7200
G1 X169.683 Y64.842 E473.66124 F3600
G0 X169.817 Y65.274 F7200
G1 X95.274 Y139.817 E478.92064 F3600
G0 X95.746 Y139.911 F7200
G1 X169.911 Y65.746 E484.15332 F3600
G0 X169.987 Y66.235 F7200
G1 X96.235 Y139.987 E489.35692 F3600
G0 X96.766 Y140.022 F7200
G1 X170.022 Y66.766 E494.52556 F3600
G0 X170.039 Y67.314 F7200
G1 X97.314 Y140.039 E499.65668 F3600
G0 X97.880 Y140.039 F7200
G1 X170.039 Y67.880 E504.74788 F3600
G0 X170.039 Y68.446 F7200
G1 X98.446 Y140.039 E509.79924 F3600
G0 X99.012 Y140.039 F7200
G1 X170.039 Y69.012 E514.81060 F3600
G0 X170.039 Y69.577 F7200
G1 X99.577 Y140.039 E519.78212 F3600
G0 X100.143 Y140.039 F7200
G1 X170.039 Y70.143 E524.71368 F3600
G0 X170.039 Y70.709 F7200
G1 X100.709 Y140.039 E529.60536 F3600
G0 X101.274 Y140.039 F7200
G1 X170.039 Y71.274 E534.45708 F3600
G0 X170.039 Y71.840 F7200
G1 X101.840 Y140.039 E539.26892 F3600
G0 X102.406 Y140.039 F7200
G1 X170.039 Y72.406 E544.04084 F3600
G0 X170.039 Y72.971 F7200
G1 X102.971 Y140.039 E548.77284 F3600
G0 X103.537 Y140.039 F7200
G1 X170.039 Y73.537 E553.46492 F3600
G0 X170.039 Y74.103 F7200
G1 X104.103 Y140.039 E558.11712 F3600
G0 X104.668 Y140.039 F7200
G1 X170.039 Y74.668 E562.72944 F3600
G0 X170.039 Y75.234 F7200
G1 X105.234 Y140.039 E567.30180 F3600
G0 X105.800 Y140.039 F7200
G1 X170.039 Y75.800 E571.83428 F3600
G0 X170.039 Y76.365 F7200
G1 X106.365 Y140.039 E576.32684 F3600
G0 X106.931 Y140.039 F7200
G1 X170.039 Y76.931 E580.77948 F3600
G0 X170.039 Y77.497 F7200
G1 X107.497 Y140.039 E585.19220 F3600
G0 X108.062 Y140.039 F7200
G1 X170.039 Y78.062 E589.56500 F3600
G0 X170.039 Y78.628 F7200
G1 X108.628 Y140.039 E593.89788 F3600
G0 X109.194 Y140.039 F7200
G1 X170.039 Y79.194 E598.19084 F3600
G0 X170.039 Y79.760 F7200
G1 X109.760 Y140.039 E602.44392 F3600
G0 X110.325 Y140.039 F7200
G1 X170.039 Y80.325 E606.65704 F3600
G0 X170.039 Y80.891 F7200
G1 X110.891 Y140.039 E610.83032 F3600
G0 X111.457 Y140.039 F7200
G1 X170.039 Y81.457 E614.96368 F3600
G0 X170.039 Y82.022 F7200
G1 X112.022 Y140.039 E619.05712 F3600
G0 X112.588 Y140.039 F7200
G1 X170.039 Y82.588 E623.11064 F3600
G0 X170.039 Y83.154 F7200
G1 X113.154 Y140.039 E627.12428 F3600
G0 X113.719 Y140.039 F7200
G1 X170.039 Y83.719 E631.09796 F3600
G0 X170.039 Y84.285 F7200
G1 X114.285 Y140.039 E635.03172 F3600
G0 X114.851 Y140.039 F7200
G1 X170.039 Y84.851 E638.92560 F3600
G0 X170.039 Y85.416 F7200
G1 X115.416 Y140.039 E642.77956 F3600
G0 X115.982 Y140.039 F7200
G1 X170.039 Y85.982 E646.59356 F3600
G0 X170.039 Y86.548 F7200
G1 X116.548 Y140.039 E650.36768 F3600
G0 X117.113 Y140.039 F7200
G1 X170.039 Y87.113 E654.10188 F3600
G0 X170.039 Y87.679 F7200
G1 X117.679 Y140.039 E657.79620 F3600
G0 X118.245 Y140.039 F7200
G1 X170.039 Y88.245 E661.45064 F3600
G0 X170.039 Y88.810 F7200
G1 X118.811 Y140.039 E665.06512 F3600
G0 X119.376 Y140.039 F7200
G1 X170.039 Y89.376 E668.63972 F3600
G0 X170.039 Y89.942 F7200
G1 X119.942 Y140.039 E672.17440 F3600
G0 X120.508 Y140.039 F7200
G1 X170.039 Y90.508 E675.66912 F3600
G0 X170.039 Y91.073 F7200
G1 X121.073 Y140.039 E679.12400 F3600
G0 X121.639 Y140.039 F7200
G1 X170.039 Y91.639 E682.53888 F3600
G0 X170.039 Y92.205 F7200
G1 X122.205 Y140.039 E685.91384 F3600
G0 X122.770 Y140.039 F7200
G1 X170.039 Y92.770 E689.24896 F3600
G0 X170.040 Y93.336 F7200
G1 X123.336 Y140.039 E692.54416 F3600
G0 X123.902 Y140.039 F7200
G1 X170.039 Y93.902 E695.79936 F3600
G0 X170.040 Y94.467 F7200
G1 X124.467 Y140.039 E699.01472 F3600
G0 X125.033 Y140.039 F7200
G1 X170.040 Y95.033 E702.19016 F3600
G0 X170.040 Y95.599 F7200
G1 X125.599 Y140.039 E705.32576 F3600
G0 X126.164 Y140.039 F7200
G1 X170.040 Y96.164 E708.42136 F3600
G0 X170.040 Y96.730 F7200
G1 X126.730 Y140.039 E711.47712 F3600
G0 X127.296 Y140.039 F7200
G1 X170.040 Y97.296 E714.49288 F3600
G0 X170.040 Y97.861 F7200
G1 X127.861 Y140.039 E717.46880 F3600
G0 X128.427 Y140.039 F7200
G1 X170.040 Y98.427 E720.40480 F3600
G0 X170.040 Y98.993 F7200
G1 X128.993 Y140.039 E723.30088 F3600
G0 X129.559 Y140.039 F7200
G1 X170.040 Y99.558 E726.15696 F3600
G0 X170.040 Y100.124 F7200
G1 X130.124 Y140.039 E728.97320 F3600
G0 X130.690 Y140.039 F7200
G1 X170.040 Y100.690 E731.74952 F3600
G0 X170.040 Y101.256 F7200
G1 X131.256 Y140.039 E734.48592 F3600
G0 X131.821 Y140.039 F7200
G1 X170.040 Y101.821 E737.18240 F3600
G0 X170.040 Y102.387 F7200
G1 X132.387 Y140.039 E739.83896 F3600
G0 X132.953 Y140.039 F7200
G1 X170.040 Y102.953 E742.45568 F3600
G0 X170.040 Y103.518 F7200
G1 X133.518 Y140.039 E745.03248 F3600
G0 X134.084 Y140.039 F7200
G1 X170.040 Y104.084 E747.56936 F3600
G0 X170.040 Y104.650 F7200
G1 X134.650 Y140.039 E750.06632 F3600
G0 X135.215 Y140.039 F7200
G1 X170.040 Y105.215 E752.52328 F3600
G0 X170.040 Y105.781 F7200
G1 X135.781 Y140.039 E754.94040 F3600
G0 X136.347 Y140.039 F7200
G1 X170.040 Y106.347 E757.31760 F3600
G0 X170.040 Y106.912 F7200
G1 X136.912 Y140.039 E759.65488 F3600
G0 X137.478 Y140.039 F7200
G1 X170.040 Y107.478 E761.95224 F3600
G0 X170.040 Y108.044 F7200
G1 X138.044 Y140.039 E764.20968 F3600
G0 X138.610 Y140.039 F7200
G1 X170.040 Y108.609 E766.42728 F3600
G0 X170.040 Y109.175 F7200
G1 X139.175 Y140.039 E768.60488 F3600
G0 X139.741 Y140.039 F7200
G1 X170.040 Y109.741 E770.74264 F3600
G0 X170.040 Y110.306 F7200
G1 X140.307 Y140.039 E772.84048 F3600
G0 X140.872 Y140.039 F7200
G1 X170.040 Y110.872 E774.89840 F3600
G0 X170.040 Y111.438 F7200
G1 X141.438 Y140.039 E776.91648 F3600
G0 X142.004 Y140.039 F7200
G1 X170.040 Y112.004 E778.89456 F3600
G0 X170.040 Y112.569 F7200
G1 X142.569 Y140.039 E780.83272 F3600
G0 X143.135 Y140.039 F7200
G1 X170.040 Y113.135 E782.73096 F3600
G0 X170.040 Y113.701 F7200
G1 X143.701 Y140.039 E784.58928 F3600
G0 X144.266 Y140.039 F7200
G1 X170.040 Y114.266 E786.40768 F3600
G0 X170.040 Y114.832 F7200
G1 X144.832 Y140.039 E788.18624 F3600
G0 X145.398 Y140.039 F7200
G1 X170.040 Y115.398 E789.92480 F3600
G0 X170.040 Y115.963 F7200
G1 X145.963 Y140.039 E791.62352 F3600
G0 X146.529 Y140.039 F7200
G1 X170.040 Y116.529 E793.28232 F3600
G0 X170.040 Y117.095 F7200
G1 X147.095 Y140.039 E794.90128 F3600
G0 X147.660 Y140.039 F7200
G1 X170.040 Y117.660 E796.48024 F3600
G0 X170.040 Y118.226 F7200
G1 X148.226 Y140.039 E798.01928 F3600
G0 X148.792 Y140.039 F7200
G1 X170.040 Y118.792 E799.51840 F3600
G0 X170.040 Y119.357 F7200
G1 X149.358 Y140.039 E800.97768 F3600
G0 X149.923 Y140.039 F7200
G1 X170.040 Y119.923 E802.39696 F3600
G0 X170.040 Y120.489 F7200
G1 X150.489 Y140.039 E803.77640 F3600
G0 X151.055 Y140.039 F7200
G1 X170.040 Y121.054 E805.11584 F3600
G0 X170.040 Y121.620 F7200
G1 X151.620 Y140.039 E806.41544 F3600
G0 X152.186 Y140.039 F7200
G1 X170.040 Y122.186 E807.67504 F3600
G0 X170.040 Y122.752 F7200
G1 X152.752 Y140.039 E808.89480 F3600
G0 X153.317 Y140.039 F7200
G1 X170.040 Y123.317 E810.07472 F3600
G0 X170.040 Y123.883 F7200
G1 X153.883 Y140.039 E811.21464 F3600
G0 X154.449 Y140.039 F7200
G1 X170.040 Y124.449 E812.31472 F3600
G0 X170.040 Y125.014 F7200
G1 X155.014 Y140.039 E813.37480 F3600
G0 X155.580 Y140.039 F7200
G1 X170.040 Y125.580 E814.39504 F3600
G0 X170.040 Y126.146 F7200
G1 X156.146 Y140.039 E815.37528 F3600
G0 X156.711 Y140.039 F7200
G1 X170.040 Y126.711 E816.31568 F3600
G0 X170.040 Y127.277 F7200
G1 X157.277 Y140.039 E817.21616 F3600
G0 X157.843 Y140.039 F7200
G1 X170.040 Y127.843 E818.07664 F3600
G0 X170.040 Y128.408 F7200
G1 X158.408 Y140.039 E818.89728 F3600
G0 X158.974 Y140.039 F7200
G1 X170.040 Y128.974 E819.67800 F3600
G0 X170.040 Y129.540 F7200
G1 X159.540 Y140.039 E820.41880 F3600
G0 X160.106 Y140.039 F7200
G1 X170.040 Y130.105 E821.11976 F3600
G0 X170.040 Y130.671 F7200
G1 X160.671 Y140.039 E821.78080 F3600
G0 X161.237 Y140.039 F7200
G1 X170.040 Y131.237 E822.40184 F3600
G0 X170.040 Y131.802 F7200
G1 X161.803 Y140.039 E822.98304 F3600
G0 X162.368 Y140.039 F7200
G1 X170.040 Y132.368 E823.52432 F3600
G0 X170.040 Y132.934 F7200
G1 X162.934 Y140.039 E824.02560 F3600
G0 X163.537 Y140.002 F7200
G1 X170.002 Y133.537 E824.48184 F3600
G0 X169.925 Y134.179 F7200
G1 X164.179 Y139.925 E824.88720 F3600
G0 X164.899 Y139.771 F7200
G1 X169.771 Y134.899 E825.23096 F3600
G0 X169.462 Y135.775 F7200
G1 X165.775 Y139.462 E825.49112 F3600
G0 X167.087 Y138.715 F7200
G1 X168.715 Y137.087 E825.60592 F3600
; ------------------------------------
; Layer #2
; ------------------------------------
G92 E0 ;reset extr
G0 F3000 E-1.00000
G0 F600 Z0.900
G0 X165.334 Y60.376 F7200
G0 F3000 E0.00000
;segType:HShell
G1 X169.624 Y64.666 E0.30268 F3600
G0 X169.182 Y63.659 F7200
G1 X166.341 Y60.818 E0.50312 F3600
G0 X167.504 Y61.131 F7200
G0 X168.016 Y61.265
;segType:Perimeter
G1 X168.554 Y61.530 E0.53306 F2160
G1 X169.188 Y62.252 E0.58097
G1 X169.754 Y63.101 E0.63188
G1 X170.206 Y64.016 E0.68279
G1 X170.533 Y64.981 E0.73365
G1 X170.732 Y65.982 E0.78455
G1 X170.800 Y67.007 E0.83579
G1 X170.800 Y132.993 E4.12787
G1 X170.732 Y134.018 E4.17911
G1 X170.534 Y135.019 E4.23000
G1 X170.206 Y135.985 E4.28090
G1 X169.754 Y136.900 E4.33180
G1 X169.188 Y137.748 E4.38269
G1 X168.515 Y138.515 E4.43360
G1 X167.748 Y139.187 E4.48448
G1 X166.900 Y139.754 E4.53539
G1 X165.985 Y140.206 E4.58629
G1 X165.019 Y140.534 E4.63717
G1 X164.018 Y140.732 E4.68808
G1 X162.993 Y140.800 E4.73931
G1 X97.007 Y140.800 E8.03140
G1 X95.982 Y140.732 E8.08263
G1 X94.981 Y140.534 E8.13353
G1 X94.015 Y140.206 E8.18442
G1 X93.100 Y139.754 E8.23532
G1 X92.252 Y139.187 E8.28621
G1 X91.485 Y138.515 E8.33711
G1 X90.813 Y137.748 E8.38801
G1 X90.246 Y136.900 E8.43891
G1 X89.794 Y135.985 E8.48981
G1 X89.467 Y135.019 E8.54070
G1 X89.268 Y134.018 E8.59160
G1 X89.200 Y132.993 E8.64283
G1 X89.200 Y67.007 E11.93492
G1 X89.268 Y65.982 E11.98615
G1 X89.467 Y64.981 E12.03705
G1 X89.794 Y64.015 E12.08794
G1 X90.246 Y63.100 E12.13884
G1 X90.813 Y62.252 E12.18974
G1 X91.485 Y61.485 E12.24063
G1 X92.252 Y60.812 E12.29154
G1 X93.100 Y60.246 E12.34243
G1 X94.015 Y59.794 E12.39333
G1 X94.981 Y59.466 E12.44423
G1 X95.982 Y59.268 E12.49511
G1 X97.007 Y59.200 E12.54635
G1 X162.993 Y59.200 E15.83844
G1 X164.018 Y59.268 E15.88967
G1 X165.019 Y59.467 E15.94058
G1 X165.984 Y59.794 E15.99145
G1 X166.899 Y60.246 E16.04234
G1 X167.748 Y60.812 E16.09325
G1 X168.470 Y61.445 E16.14116
G0 X168.735 Y61.984 F7200
G0 X168.869 Y62.496
G0 X168.925 Y62.580
;segType:Loop
G1 X169.407 Y63.301 E16.18444 F3600
G1 X169.835 Y64.169 E16.23274
G1 X170.146 Y65.085 E16.28100
G1 X170.335 Y66.034 E16.32928
G1 X170.400 Y67.020 E16.37856
G1 X170.400 Y132.980 E19.66932
G1 X170.335 Y133.966 E19.71860
G1 X170.146 Y134.915 E19.76688
G1 X169.835 Y135.831 E19.81516
G1 X169.407 Y136.699 E19.86345
G1 X168.870 Y137.504 E19.91172
G1 X168.232 Y138.232 E19.96001
G1 X167.504 Y138.869 E20.00829
G1 X166.699 Y139.407 E20.05657
G1 X165.831 Y139.835 E20.10486
G1 X164.915 Y140.146 E20.15313
G1 X163.966 Y140.335 E20.20141
G1 X162.980 Y140.400 E20.25069
G1 X97.020 Y140.400 E23.54147
G1 X96.034 Y140.335 E23.59074
G1 X95.085 Y140.146 E23.63902
G1 X94.169 Y139.835 E23.68730
G1 X93.301 Y139.407 E23.73558
G1 X92.496 Y138.869 E23.78386
G1 X91.769 Y138.232 E23.83214
G1 X91.131 Y137.504 E23.88043
G1 X90.593 Y136.699 E23.92871
G1 X90.165 Y135.831 E23.97699
G1 X89.854 Y134.915 E24.02526
G1 X89.665 Y133.966 E24.07355
G1 X89.600 Y132.980 E24.12282
G1 X89.600 Y67.020 E27.41360
G1 X89.665 Y66.034 E27.46287
G1 X89.854 Y65.085 E27.51116
G1 X90.165 Y64.169 E27.55942
G1 X90.593 Y63.301 E27.60772
G1 X91.131 Y62.496 E27.65600
G1 X91.768 Y61.768 E27.70427
G1 X92.496 Y61.131 E27.75256
G1 X93.301 Y60.593 E27.80083
G1 X94.169 Y60.165 E27.84913
G1 X95.085 Y59.854 E27.89741
G1 X96.034 Y59.665 E27.94568
G1 X97.020 Y59.600 E27.99496
G1 X162.980 Y59.600 E31.28572
G1 X163.966 Y59.665 E31.33500
G1 X164.915 Y59.854 E31.38329
G1 X165.831 Y60.165 E31.43154
G1 X166.699 Y60.593 E31.47983
G1 X167.504 Y61.131 E31.52813
G1 X168.231 Y61.768 E31.57640
G1 X168.804 Y62.421 E31.61971
G0 F3000 E30.61971
G0 X169.854 Y65.462 F7200
G0 F3000 E31.61971
;segType:HShell
G1 X164.538 Y60.146 E31.99480 F3600
G0 X163.844 Y60.018 F7200
G1 X169.982 Y66.156 E32.42785 F3600
G0 X170.022 Y66.761 F7200
G1 X163.239 Y59.978 E32.90642 F3600
G0 X162.655 Y59.961 F7200
G1 X170.039 Y67.345 E33.42741 F3600
G0 X170.039 Y67.910 F7200
G1 X162.090 Y59.961 E33.98831 F3600
G0 X161.524 Y59.961 F7200
G1 X170.039 Y68.476 E34.58911 F3600
G0 X170.039 Y69.042 F7200
G1 X160.958 Y59.961 E35.22983 F3600
G0 X160.393 Y59.961 F7200
G1 X170.039 Y69.607 E35.91047 F3600
G0 X170.039 Y70.173 F7200
G1 X159.827 Y59.961 E36.63101 F3600
G0 X159.261 Y59.961 F7200
G1 X170.039 Y70.739 E37.39147 F3600
G0 X170.039 Y71.304 F7200
G1 X158.696 Y59.961 E38.19184 F3600
G0 X158.130 Y59.961 F7200
G1 X170.039 Y71.870 E39.03212 F3600
G0 X170.039 Y72.436 F7200
G1 X157.564 Y59.961 E39.91232 F3600
G0 X156.999 Y59.961 F7200
G1 X170.039 Y73.001 E40.83242 F3600
G0 X170.039 Y73.567 F7200
G1 X156.433 Y59.961 E41.79244 F3600
G0 X155.867 Y59.961 F7200
G1 X170.039 Y74.133 E42.79237 F3600
G0 X170.039 Y74.698 F7200
G1 X155.302 Y59.961 E43.83221 F3600
G0 X154.736 Y59.961 F7200
G1 X170.039 Y75.264 E44.91197 F3600
G0 X170.039 Y75.830 F7200
G1 X154.170 Y59.961 E46.03163 F3600
G0 X153.604 Y59.961 F7200
G1 X170.039 Y76.396 E47.19121 F3600
G0 X170.039 Y76.961 F7200
G1 X153.039 Y59.961 E48.39070 F3600
G0 X152.473 Y59.961 F7200
G1 X170.039 Y77.527 E49.63011 F3600
G0 X170.039 Y78.093 F7200
G1 X151.907 Y59.961 E50.90942 F3600
G0 X151.342 Y59.961 F7200
G1 X170.039 Y78.658 E52.22865 F3600
G0 X170.039 Y79.224 F7200
G1 X150.776 Y59.961 E53.58779 F3600
G0 X150.210 Y59.961 F7200
G1 X170.039 Y79.790 E54.98684 F3600
G0 X170.039 Y80.355 F7200
G1 X149.645 Y59.961 E56.42581 F3600
G0 X149.079 Y59.961 F7200
G1 X170.039 Y80.921 E57.90468 F3600
G0 X170.039 Y81.487 F7200
G1 X148.513 Y59.961 E59.42347 F3600
G0 X147.948 Y59.961 F7200
G1 X170.039 Y82.052 E60.98217 F3600
G0 X170.039 Y82.618 F7200
G1 X147.382 Y59.961 E62.58079 F3600
G0 X146.816 Y59.961 F7200
G1 X170.039 Y83.184 E64.21931 F3600
G0 X170.039 Y83.749 F7200
G1 X146.251 Y59.961 E65.89775 F3600
G0 X145.685 Y59.961 F7200
G1 X170.039 Y84.315 E67.61610 F3600
G0 X170.039 Y84.881 F7200
G1 X145.119 Y59.961 E69.37436 F3600
G0 X144.553 Y59.961 F7200
G1 X170.039 Y85.447 E71.17253 F3600
G0 X170.039 Y86.012 F7200
G1 X143.988 Y59.961 E73.01062 F3600
G0 X143.422 Y59.961 F7200
G1 X170.039 Y86.578 E74.88862 F3600
G0 X170.039 Y87.144 F7200
G1 X142.856 Y59.961 E76.80653 F3600
G0 X142.291 Y59.961 F7200
G1 X170.039 Y87.709 E78.76435 F3600
G0 X170.039 Y88.275 F7200
G1 X141.725 Y59.961 E80.76209 F3600
G0 X141.159 Y59.961 F7200
G1 X170.039 Y88.841 E82.79973 F3600
G0 X170.039 Y89.406 F7200
G1 X140.594 Y59.961 E84.87729 F3600
G0 X140.028 Y59.961 F7200
G1 X170.039 Y89.972 E86.99476 F3600
G0 X170.039 Y90.538 F7200
G1 X139.462 Y59.961 E89.15215 F3600
G0 X138.897 Y59.961 F7200
G1 X170.039 Y91.103 E91.34944 F3600
G0 X170.039 Y91.669 F7200
G1 X138.331 Y59.961 E93.58665 F3600
G0 X137.765 Y59.961 F7200
G1 X170.039 Y92.235 E95.86377 F3600
G0 X170.039 Y92.800 F7200
G1 X137.200 Y59.961 E98.18080 F3600
G0 X136.634 Y59.961 F7200
G1 X170.039 Y93.366 E100.53775 F3600
G0 X170.039 Y93.932 F7200
G1 X136.068 Y59.961 E102.93461 F3600
G0 X135.503 Y59.961 F7200
G1 X170.039 Y94.497 E105.37138 F3600
G0 X170.039 Y95.063 F7200
G1 X134.937 Y59.961 E107.84806 F3600
G0 X134.371 Y59.961 F7200
G1 X170.039 Y95.629 E110.36465 F3600
G0 X170.039 Y96.195 F7200
G1 X133.805 Y59.961 E112.92116 F3600
G0 X133.240 Y59.961 F7200
G1 X170.039 Y96.760 E115.51758 F3600
G0 X170.039 Y97.326 F7200
G1 X132.674 Y59.961 E118.15391 F3600
G0 X132.108 Y59.961 F7200
G1 X170.039 Y97.892 E120.83015 F3600
G0 X170.039 Y98.457 F7200
G1 X131.543 Y59.961 E123.54630 F3600
G0 X130.977 Y59.961 F7200
G1 X170.039 Y99.023 E126.30237 F3600
G0 X170.039 Y99.589 F7200
G1 X130.411 Y59.961 E129.09834 F3600
G0 X129.846 Y59.961 F7200
G1 X170.039 Y100.154 E131.93423 F3600
G0 X170.039 Y100.720 F7200
G1 X129.280 Y59.961 E134.81004 F3600
G0 X128.714 Y59.961 F7200
G1 X170.039 Y101.286 E137.72575 F3600
G0 X170.039 Y101.851 F7200
G1 X128.149 Y59.961 E140.68138 F3600
G0 X127.583 Y59.961 F7200
G1 X170.039 Y102.417 E143.67693 F3600
G0 X170.039 Y102.983 F7200
G1 X127.017 Y59.961 E146.71237 F3600
G0 X126.452 Y59.961 F7200
G1 X170.039 Y103.548 E149.78773 F3600
G0 X170.039 Y104.114 F7200
G1 X125.886 Y59.961 E152.90302 F3600
G0 X125.320 Y59.961 F7200
G1 X170.039 Y104.680 E156.05820 F3600
G0 X170.039 Y105.246 F7200
G1 X124.754 Y59.961 E159.25330 F3600
G0 X124.189 Y59.961 F7200
G1 X170.039 Y105.811 E162.48831 F3600
G0 X170.039 Y106.377 F7200
G1 X123.623 Y59.961 E165.76324 F3600
G0 X123.057 Y59.961 F7200
G1 X170.039 Y106.943 E169.07808 F3600
G0 X170.039 Y107.508 F7200
G1 X122.492 Y59.961 E172.43284 F3600
G0 X121.926 Y59.961 F7200
G1 X170.039 Y108.074 E175.82750 F3600
G0 X170.039 Y108.640 F7200
G1 X121.360 Y59.961 E179.26206 F3600
G0 X120.795 Y59.961 F7200
G1 X170.039 Y109.205 E182.73656 F3600
G0 X170.039 Y109.771 F7200
G1 X120.229 Y59.961 E186.25096 F3600
G0 X119.663 Y59.961 F7200
G1 X170.039 Y110.337 E189.80526 F3600
G0 X170.039 Y110.902 F7200
G1 X119.098 Y59.961 E193.39950 F3600
G0 X118.532 Y59.961 F7200
G1 X170.039 Y111.468 E197.03364 F3600
G0 X170.039 Y112.034 F7200
G1 X117.966 Y59.961 E200.70768 F3600
G0 X117.401 Y59.961 F7200
G1 X170.039 Y112.599 E204.42164 F3600
G0 X170.039 Y113.165 F7200
G1 X116.835 Y59.961 E208.17550 F3600
G0 X116.269 Y59.961 F7200
G1 X170.039 Y113.731 E211.96928 F3600
G0 X170.039 Y114.296 F7200
G1 X115.704 Y59.961 E215.80298 F3600
G0 X115.138 Y59.961 F7200
G1 X170.039 Y114.862 E219.67658 F3600
G0 X170.039 Y115.428 F7200
G1 X114.572 Y59.961 E223.59010 F3600
G0 X114.006 Y59.961 F7200
G1 X170.039 Y115.994 E227.54354 F3600
G0 X170.039 Y116.559 F7200
G1 X113.441 Y59.961 E231.53688 F3600
G0 X112.875 Y59.961 F7200
G1 X170.039 Y117.125 E235.57012 F3600
G0 X170.039 Y117.691 F7200
G1 X112.309 Y59.961 E239.64330 F3600
G0 X111.744 Y59.961 F7200
G1 X170.039 Y118.256 E243.75638 F3600
G0 X170.039 Y118.822 F7200
G1 X111.178 Y59.961 E247.90936 F3600
G0 X110.612 Y59.961 F7200
G1 X170.039 Y119.388 E252.10226 F3600
G0 X170.039 Y119.953 F7200
G1 X110.047 Y59.961 E256.33508 F3600
G0 X109.481 Y59.961 F7200
G1 X170.039 Y120.519 E260.60782 F3600
G0 X170.039 Y121.085 F7200
G1 X108.915 Y59.961 E264.92048 F3600
G0 X108.350 Y59.961 F7200
G1 X170.039 Y121.650 E269.27302 F3600
G0 X170.039 Y122.216 F7200
G1 X107.784 Y59.961 E273.66546 F3600
G0 X107.218 Y59.961 F7200
G1 X170.039 Y122.782 E278.09784 F3600
G0 X170.039 Y123.347 F7200
G1 X106.653 Y59.961 E282.57012 F3600
G0 X106.087 Y59.961 F7200
G1 X170.039 Y123.913 E287.08234 F3600
G0 X170.039 Y124.479 F7200
G1 X105.521 Y59.961 E291.63446 F3600
G0 X104.956 Y59.961 F7200
G1 X170.039 Y125.044 E296.22648 F3600
G0 X170.039 Y125.610 F7200
G1 X104.390 Y59.961 E300.85840 F3600
G0 X103.824 Y59.961 F7200
G1 X170.039 Y126.176 E305.53024 F3600
G0 X170.039 Y126.742 F7200
G1 X103.258 Y59.961 E310.24200 F3600
G0 X102.693 Y59.961 F7200
G1 X170.039 Y127.307 E314.99368 F3600
G0 X170.039 Y127.873 F7200
G1 X102.127 Y59.961 E319.78528 F3600
G0 X101.561 Y59.961 F7200
G1 X170.039 Y128.439 E324.61676 F3600
G0 X170.039 Y129.004 F7200
G1 X100.996 Y59.961 E329.48816 F3600
G0 X100.430 Y59.961 F7200
G1 X170.039 Y129.570 E334.39948 F3600
G0 X170.039 Y130.136 F7200
G1 X99.864 Y59.961 E339.35072 F3600
G0 X99.299 Y59.961 F7200
G1 X170.039 Y130.701 E344.34184 F3600
G0 X170.039 Y131.267 F7200
G1 X98.733 Y59.961 E349.37292 F3600
G0 X98.167 Y59.961 F7200
G1 X170.039 Y131.833 E354.44388 F3600
G0 X170.039 Y132.398 F7200
G1 X97.602 Y59.961 E359.55476 F3600
G0 X97.036 Y59.961 F7200
G1 X170.039 Y132.964 E364.70552 F3600
G0 X170.005 Y133.495 F7200
G1 X96.505 Y59.995 E369.89136 F3600
G0 X95.986 Y60.042 F7200
G1 X169.958 Y134.014 E375.11052 F3600
G0 X169.864 Y134.486 F7200
G1 X95.514 Y60.136 E380.35632 F3600
G0 X95.056 Y60.244 F7200
G1 X169.756 Y134.944 E385.62680 F3600
G0 X169.613 Y135.366 F7200
G1 X94.634 Y60.387 E390.91696 F3600
G0 X94.222 Y60.540 F7200
G1 X169.460 Y135.778 E396.22544 F3600
G0 X169.273 Y136.157 F7200
G1 X93.843 Y60.727 E401.54744 F3600
G0 X93.466 Y60.916 F7200
G1 X169.084 Y136.534 E406.88272 F3600
G0 X168.858 Y136.873 F7200
G1 X93.127 Y61.142 E412.22596 F3600
G0 X92.788 Y61.369 F7200
G1 X168.631 Y137.212 E417.57712 F3600
G0 X168.375 Y137.522 F7200
G1 X92.478 Y61.625 E422.93204 F3600
G0 X92.177 Y61.890 F7200
G1 X168.110 Y137.823 E428.28960 F3600
G0 X167.828 Y138.106 F7200
G1 X91.894 Y62.172 E433.64716 F3600
G0 X91.629 Y62.474 F7200
G1 X167.526 Y138.371 E439.00212 F3600
G0 X167.218 Y138.627 F7200
G1 X91.373 Y62.782 E444.35340 F3600
G0 X91.146 Y63.122 F7200
G1 X166.878 Y138.854 E449.69676 F3600
G0 X166.539 Y139.081 F7200
G1 X90.919 Y63.461 E455.03216 F3600
G0 X90.730 Y63.837 F7200
G1 X166.163 Y139.270 E460.35436 F3600
G0 X165.784 Y139.457 F7200
G1 X90.543 Y64.216 E465.66304 F3600
G0 X90.389 Y64.628 F7200
G1 X165.372 Y139.611 E470.95348 F3600
G0 X164.950 Y139.754 F7200
G1 X90.246 Y65.050 E476.22428 F3600
G0 X90.137 Y65.507 F7200
G1 X164.493 Y139.863 E481.47052 F3600
G0 X164.021 Y139.957 F7200
G1 X90.043 Y65.979 E486.69008 F3600
G0 X89.996 Y66.497 F7200
G1 X163.503 Y140.004 E491.87644 F3600
G0 X162.972 Y140.039 F7200
G1 X89.961 Y67.028 E497.02780 F3600
G0 X89.961 Y67.593 F7200
G1 X162.407 Y140.039 E502.13928 F3600
G0 X161.841 Y140.039 F7200
G1 X89.961 Y68.159 E507.21084 F3600
G0 X89.961 Y68.724 F7200
G1 X161.276 Y140.039 E512.24248 F3600
G0 X160.710 Y140.039 F7200
G1 X89.961 Y69.290 E517.23424 F3600
G0 X89.961 Y69.856 F7200
G1 X160.144 Y140.039 E522.18608 F3600
G0 X159.579 Y140.039 F7200
G1 X89.961 Y70.421 E527.09804 F3600
G0 X89.961 Y70.987 F7200
G1 X159.013 Y140.039 E531.97004 F3600
G0 X158.447 Y140.039 F7200
G1 X89.961 Y71.553 E536.80212 F3600
G0 X89.961 Y72.118 F7200
G1 X157.882 Y140.039 E541.59428 F3600
G0 X157.316 Y140.039 F7200
G1 X89.961 Y72.684 E546.34656 F3600
G0 X89.961 Y73.250 F7200
G1 X156.750 Y140.039 E551.05888 F3600
G0 X156.184 Y140.039 F7200
G1 X89.961 Y73.816 E555.73140 F3600
G0 X89.961 Y74.381 F7200
G1 X155.619 Y140.039 E560.36396 F3600
G0 X155.053 Y140.039 F7200
G1 X89.961 Y74.947 E564.95660 F3600
G0 X89.961 Y75.513 F7200
G1 X154.487 Y140.039 E569.50932 F3600
G0 X153.922 Y140.039 F7200
G1 X89.961 Y76.078 E574.02216 F3600
G0 X89.961 Y76.644 F7200
G1 X153.356 Y140.039 E578.49504 F3600
G0 X152.790 Y140.039 F7200
G1 X89.961 Y77.210 E582.92804 F3600
G0 X89.961 Y77.775 F7200
G1 X152.225 Y140.039 E587.32112 F3600
G0 X151.659 Y140.039 F7200
G1 X89.961 Y78.341 E591.67424 F3600
G0 X89.961 Y78.907 F7200
G1 X151.093 Y140.039 E595.98748 F3600
G0 X150.528 Y140.039 F7200
G1 X89.961 Y79.472 E600.26080 F3600
G0 X89.961 Y80.038 F7200
G1 X149.962 Y140.039 E604.49420 F3600
G0 X149.396 Y140.039 F7200
G1 X89.961 Y80.604 E608.68776 F3600
G0 X89.961 Y81.169 F7200
G1 X148.831 Y140.039 E612.84136 F3600
G0 X148.265 Y140.039 F7200
G1 X89.961 Y81.735 E616.95508 F3600
G0 X89.961 Y82.301 F7200
G1 X147.699 Y140.039 E621.02888 F3600
G0 X147.134 Y140.039 F7200
G1 X89.961 Y82.866 E625.06276 F3600
G0 X89.961 Y83.432 F7200
G1 X146.568 Y140.039 E629.05672 F3600
G0 X146.002 Y140.039 F7200
G1 X89.961 Y83.998 E633.01076 F3600
G0 X89.961 Y84.564 F7200
G1 X145.436 Y140.039 E636.92488 F3600
G0 X144.871 Y140.039 F7200
G1 X89.961 Y85.129 E640.79908 F3600
G0 X89.961 Y85.695 F7200
G1 X144.305 Y140.039 E644.63336 F3600
G0 X143.739 Y140.039 F7200
G1 X89.961 Y86.261 E648.42772 F3600
G0 X89.961 Y86.826 F7200
G1 X143.174 Y140.040 E652.18220 F3600
G0 X142.608 Y140.040 F7200
G1 X89.961 Y87.392 E655.89672 F3600
G0 X89.961 Y87.958 F7200
G1 X142.042 Y140.040 E659.57140 F3600
G0 X141.477 Y140.040 F7200
G1 X89.961 Y88.523 E663.20616 F3600
G0 X89.961 Y89.089 F7200
G1 X140.911 Y140.040 E666.80104 F3600
G0 X140.345 Y140.040 F7200
G1 X89.961 Y89.655 E670.35596 F3600
G0 X89.961 Y90.220 F7200
G1 X139.780 Y140.040 E673.87096 F3600
G0 X139.214 Y140.040 F7200
G1 X89.961 Y90.786 E677.34608 F3600
G0 X89.960 Y91.352 F7200
G1 X138.648 Y140.040 E680.78128 F3600
G0 X138.083 Y140.040 F7200
G1 X89.960 Y91.917 E684.17648 F3600
G0 X89.960 Y92.483 F7200
G1 X137.517 Y140.040 E687.53184 F3600
G0 X136.951 Y140.040 F7200
G1 X89.960 Y93.049 E690.84728 F3600
G0 X89.960 Y93.614 F7200
G1 X136.386 Y140.040 E694.12280 F3600
G0 X135.820 Y140.040 F7200
G1 X89.960 Y94.180 E697.35840 F3600
G0 X89.960 Y94.746 F7200
G1 X135.254 Y140.040 E700.55416 F3600
G0 X134.688 Y140.040 F7200
G1 X89.960 Y95.312 E703.71000 F3600
G0 X89.960 Y95.877 F7200
G1 X134.123 Y140.040 E706.82584 F3600
G0 X133.557 Y140.040 F7200
G1 X89.960 Y96.443 E709.90184 F3600
G0 X89.961 Y97.009 F7200
G1 X132.991 Y140.040 E712.93792 F3600
G0 X132.426 Y140.040 F7200
G1 X89.960 Y97.574 E715.93408 F3600
G0 X89.960 Y98.140 F7200
G1 X131.860 Y140.040 E718.89032 F3600
G0 X131.294 Y140.040 F7200
G1 X89.961 Y98.706 E721.80664 F3600
G0 X89.961 Y99.271 F7200
G1 X130.729 Y140.040 E724.68304 F3600
G0 X130.163 Y140.040 F7200
G1 X89.961 Y99.837 E727.51952 F3600
G0 X89.961 Y100.403 F7200
G1 X129.597 Y140.040 E730.31608 F3600
G0 X129.032 Y140.040 F7200
G1 X89.961 Y100.968 E733.07272 F3600
G0 X89.961 Y101.534 F7200
G1 X128.466 Y140.040 E735.78952 F3600
G0 X127.900 Y140.040 F7200
G1 X89.961 Y102.100 E738.46640 F3600
G0 X89.961 Y102.665 F7200
G1 X127.335 Y140.040 E741.10336 F3600
G0 X126.769 Y140.040 F7200
G1 X89.961 Y103.231 E743.70040 F3600
G0 X89.961 Y103.797 F7200
G1 X126.203 Y140.040 E746.25752 F3600
G0 X125.637 Y140.040 F7200
G1 X89.961 Y104.363 E748.77472 F3600
G0 X89.961 Y104.928 F7200
G1 X125.072 Y140.040 E751.25200 F3600
G0 X124.506 Y140.040 F7200
G1 X89.961 Y105.494 E753.68936 F3600
G0 X89.961 Y106.060 F7200
G1 X123.940 Y140.040 E756.08688 F3600
G0 X123.375 Y140.040 F7200
G1 X89.961 Y106.625 E758.44440 F3600
G0 X89.961 Y107.191 F7200
G1 X122.809 Y140.040 E760.76200 F3600
G0 X122.243 Y140.040 F7200
G1 X89.961 Y107.757 E763.03976 F3600
G0 X89.961 Y108.322 F7200
G1 X121.678 Y140.040 E765.27752 F3600
G0 X121.112 Y140.040 F7200
G1 X89.961 Y108.888 E767.47544 F3600
G0 X89.961 Y109.454 F7200
G1 X120.546 Y140.040 E769.63344 F3600
G0 X119.981 Y140.040 F7200
G1 X89.961 Y110.019 E771.75152 F3600
G0 X89.961 Y110.585 F7200
G1 X119.415 Y140.040 E773.82968 F3600
G0 X118.849 Y140.040 F7200
G1 X89.961 Y111.151 E775.86800 F3600
G0 X89.961 Y111.716 F7200
G1 X118.284 Y140.040 E777.86632 F3600
G0 X117.718 Y140.040 F7200
G1 X89.961 Y112.282 E779.82480 F3600
G0 X89.961 Y112.848 F7200
G1 X117.152 Y140.040 E781.74328 F3600
G0 X116.587 Y140.040 F7200
G1 X89.961 Y113.414 E783.62192 F3600
G0 X89.961 Y113.979 F7200
G1 X116.021 Y140.040 E785.46056 F3600
G0 X115.455 Y140.040 F7200
G1 X89.961 Y114.545 E787.25936 F3600
G0 X89.961 Y115.111 F7200
G1 X114.889 Y140.040 E789.01816 F3600
G0 X114.324 Y140.040 F7200
G1 X89.961 Y115.676 E790.73712 F3600
G0 X89.961 Y116.242 F7200
G1 X113.758 Y140.040 E792.41616 F3600
G0 X113.192 Y140.039 F7200
G1 X89.961 Y116.808 E794.05536 F3600
G0 X89.961 Y117.373 F7200
G1 X112.627 Y140.040 E795.65464 F3600
G0 X112.061 Y140.039 F7200
G1 X89.961 Y117.939 E797.21392 F3600
G0 X89.961 Y118.505 F7200
G1 X111.495 Y140.040 E798.73336 F3600
G0 X110.930 Y140.040 F7200
G1 X89.961 Y119.070 E800.21280 F3600
G0 X89.961 Y119.636 F7200
G1 X110.364 Y140.039 E801.65240 F3600
G0 X109.798 Y140.039 F7200
G1 X89.961 Y120.202 E803.05208 F3600
G0 X89.961 Y120.767 F7200
G1 X109.233 Y140.039 E804.41184 F3600
G0 X108.667 Y140.039 F7200
G1 X89.961 Y121.333 E805.73160 F3600
G0 X89.961 Y121.899 F7200
G1 X108.101 Y140.039 E807.01152 F3600
G0 X107.536 Y140.039 F7200
G1 X89.961 Y122.464 E808.25152 F3600
G0 X89.961 Y123.030 F7200
G1 X106.970 Y140.039 E809.45160 F3600
G0 X106.404 Y140.039 F7200
G1 X89.961 Y123.596 E810.61184 F3600
G0 X89.961 Y124.162 F7200
G1 X105.838 Y140.039 E811.73208 F3600
G0 X105.273 Y140.039 F7200
G1 X89.961 Y124.727 E812.81248 F3600
G0 X89.961 Y125.293 F7200
G1 X104.707 Y140.039 E813.85296 F3600
G0 X104.141 Y140.039 F7200
G1 X89.961 Y125.859 E814.85352 F3600
G0 X89.961 Y126.424 F7200
G1 X103.576 Y140.039 E815.81416 F3600
G0 X103.010 Y140.039 F7200
G1 X89.961 Y126.990 E816.73488 F3600
G0 X89.961 Y127.556 F7200
G1 X102.444 Y140.039 E817.61568 F3600
G0 X101.879 Y140.039 F7200
G1 X89.961 Y128.121 E818.45656 F3600
G0 X89.961 Y128.687 F7200
G1 X101.313 Y140.039 E819.25752 F3600
G0 X100.747 Y140.039 F7200
G1 X89.961 Y129.253 E820.01856 F3600
G0 X89.961 Y129.818 F7200
G1 X100.182 Y140.039 E820.73968 F3600
G0 X99.616 Y140.039 F7200
G1 X89.961 Y130.384 E821.42088 F3600
G0 X89.961 Y130.950 F7200
G1 X99.050 Y140.039 E822.06224 F3600
G0 X98.485 Y140.039 F7200
G1 X89.961 Y131.515 E822.66368 F3600
G0 X89.961 Y132.081 F7200
G1 X97.919 Y140.039 E823.22520 F3600
G0 X97.353 Y140.039 F7200
G1 X89.961 Y132.647 E823.74680 F3600
G0 X89.978 Y133.230 F7200
G1 X96.770 Y140.022 E824.22608 F3600
G0 X96.165 Y139.983 F7200
G1 X90.017 Y133.835 E824.65984 F3600
G0 X90.144 Y134.527 F7200
G1 X95.473 Y139.856 E825.03584 F3600
G0 X94.679 Y139.628 F7200
G1 X90.372 Y135.321 E825.33976 F3600
G0 X90.810 Y136.324 F7200
G1 X93.676 Y139.190 E825.54192 F3600
; ------------------------------------
; Layer #3
; ------------------------------------
M106 S255 ;set fan speed
G92 E0 ;reset extr
G0 F3000 E-1.00000
G0 F600 Z1.200
G0 X91.759 Y137.675 F7200
G0 F3000 E0.00000
;segType:HShell
G1 X167.675 Y61.759 E5.35624 F3600
G0 X168.016 Y61.265 F7200
;segType:Perimeter
G1 X168.554 Y61.530 E5.38618 F2160
G1 X169.188 Y62.252 E5.43409
G1 X169.754 Y63.101 E5.48499
G1 X170.206 Y64.016 E5.53591
G1 X170.533 Y64.981 E5.58676
G1 X170.732 Y65.982 E5.63767
G1 X170.800 Y67.007 E5.68891
G1 X170.800 Y132.993 E8.98099
G1 X170.732 Y134.018 E9.03223
G1 X170.534 Y135.019 E9.08311
G1 X170.206 Y135.985 E9.13401
G1 X169.754 Y136.900 E9.18492
G1 X169.188 Y137.748 E9.23580
G1 X168.515 Y138.515 E9.28671
G1 X167.748 Y139.187 E9.33760
G1 X166.900 Y139.754 E9.38850
G1 X165.985 Y140.206 E9.43940
G1 X165.019 Y140.534 E9.49029
G1 X164.018 Y140.732 E9.54119
G1 X162.993 Y140.800 E9.59243
G1 X97.007 Y140.800 E12.88451
G1 X95.982 Y140.732 E12.93574
G1 X94.981 Y140.534 E12.98664
G1 X94.015 Y140.206 E13.03753
G1 X93.100 Y139.754 E13.08843
G1 X92.252 Y139.187 E13.13933
G1 X91.485 Y138.515 E13.19023
G1 X90.813 Y137.748 E13.24113
G1 X90.246 Y136.900 E13.29203
G1 X89.794 Y135.985 E13.34292
G1 X89.467 Y135.019 E13.39381
G1 X89.268 Y134.018 E13.44471
G1 X89.200 Y132.993 E13.49595
G1 X89.200 Y67.007 E16.78803
G1 X89.268 Y65.982 E16.83927
G1 X89.467 Y64.981 E16.89017
G1 X89.794 Y64.015 E16.94106
G1 X90.246 Y63.100 E16.99196
G1 X90.813 Y62.252 E17.04286
G1 X91.485 Y61.485 E17.09375
G1 X92.252 Y60.812 E17.14466
G1 X93.100 Y60.246 E17.19555
G1 X94.015 Y59.794 E17.24645
G1 X94.981 Y59.466 E17.29735
G1 X95.982 Y59.268 E17.34823
G1 X97.007 Y59.200 E17.39947
G1 X162.993 Y59.200 E20.69156
G1 X164.018 Y59.268 E20.74279
G1 X165.019 Y59.467 E20.79370
G1 X165.984 Y59.794 E20.84457
G1 X166.899 Y60.246 E20.89547
G1 X167.748 Y60.812 E20.94637
G1 X168.470 Y61.445 E20.99428
G0 X168.735 Y61.984 F7200
G0 X168.869 Y62.496
G0 X168.925 Y62.580
;segType:Loop
G1 X169.407 Y63.301 E21.03757 F3600
G1 X169.835 Y64.169 E21.08586
G1 X170.146 Y65.085 E21.13412
G1 X170.335 Y66.034 E21.18240
G1 X170.400 Y67.020 E21.23168
G1 X170.400 Y132.980 E24.52245
G1 X170.335 Y133.966 E24.57173
G1 X170.146 Y134.915 E24.62000
G1 X169.835 Y135.831 E24.66828
G1 X169.407 Y136.699 E24.71658
G1 X168.870 Y137.504 E24.76484
G1 X168.232 Y138.232 E24.81313
G1 X167.504 Y138.869 E24.86141
G1 X166.699 Y139.407 E24.90969
G1 X165.831 Y139.835 E24.95798
G1 X164.915 Y140.146 E25.00625
G1 X163.966 Y140.335 E25.05454
G1 X162.980 Y140.400 E25.10381
G1 X97.020 Y140.400 E28.39459
G1 X96.034 Y140.335 E28.44386
G1 X95.085 Y140.146 E28.49215
G1 X94.169 Y139.835 E28.54042
G1 X93.301 Y139.407 E28.58870
G1 X92.496 Y138.869 E28.63699
G1 X91.769 Y138.232 E28.68527
G1 X91.131 Y137.504 E28.73355
G1 X90.593 Y136.699 E28.78183
G1 X90.165 Y135.831 E28.83012
G1 X89.854 Y134.915 E28.87839
G1 X89.665 Y133.966 E28.92667
G1 X89.600 Y132.980 E28.97594
G1 X89.600 Y67.020 E32.26672
G1 X89.665 Y66.034 E32.31600
G1 X89.854 Y65.085 E32.36428
G1 X90.165 Y64.169 E32.41255
G1 X90.593 Y63.301 E32.46084
G1 X91.131 Y62.496 E32.50913
G1 X91.768 Y61.768 E32.55740
G1 X92.496 Y61.131 E32.60569
G1 X93.301 Y60.593 E32.65396
G1 X94.169 Y60.165 E32.70225
G1 X95.085 Y59.854 E32.75053
G1 X96.034 Y59.665 E32.79881
G1 X97.020 Y59.600 E32.84808
G1 X162.980 Y59.600 E36.13885
G1 X163.966 Y59.665 E36.18813
G1 X164.915 Y59.854 E36.23641
G1 X165.831 Y60.165 E36.28466
G1 X166.699 Y60.593 E36.33296
G1 X167.504 Y61.131 E36.38126
G1 X168.231 Y61.768 E36.42952
G1 X168.804 Y62.421 E36.47283
G0 F3000 E35.47283
G0 X158.839 Y62.111 F7200
G0 F3000 E36.47283
;segType:Infill
G1 X158.210 Y62.739 E36.52607 F4500
G0 X154.313 Y62.111 F7200
G1 X153.684 Y62.739 E36.57932 F4500
G0 X149.788 Y62.111 F7200
G1 X149.159 Y62.739 E36.63256 F4500
G0 X145.262 Y62.111 F7200
G1 X144.633 Y62.739 E36.68580 F4500
G0 X113.584 Y62.111 F7200
G1 X112.955 Y62.739 E36.73904 F4500
G0 X109.058 Y62.111 F7200
G1 X108.429 Y62.739 E36.79228 F4500
G0 X104.533 Y62.111 F7200
G1 X103.904 Y62.739 E36.84553 F4500
G0 X100.030 Y62.088 F7200
G1 X99.888 Y62.230 E36.85752 F4500
G0 X92.739 Y82.955 F7200
G1 X92.111 Y83.584 E36.91076 F4500
G0 X92.739 Y87.480 F7200
G1 X92.111 Y88.109 E36.96401 F4500
G0 X92.739 Y92.006 F7200
G1 X92.111 Y92.635 E37.01725 F4500
G0 X92.739 Y96.531 F7200
G1 X92.111 Y97.160 E37.07049 F4500
G0 X92.739 Y101.057 F7200
G1 X92.111 Y101.686 E37.12373 F4500
G0 X92.739 Y105.582 F7200
G1 X92.111 Y106.211 E37.17697 F4500
G0 X92.739 Y110.108 F7200
G1 X92.111 Y110.737 E37.23021 F4500
G0 X92.739 Y114.633 F7200
G1 X92.111 Y115.262 E37.28346 F4500
G0 X101.790 Y137.261 F7200
G1 X101.162 Y137.889 E37.33670 F4500
G0 X105.687 Y137.889 F7200
G1 X106.316 Y137.261 E37.38994 F4500
G0 X110.212 Y137.889 F7200
G1 X110.841 Y137.261 E37.44318 F4500
G0 X114.738 Y137.889 F7200
G1 X115.367 Y137.261 E37.49642 F4500
G0 X146.416 Y137.889 F7200
G1 X147.045 Y137.261 E37.54966 F4500
G0 X150.942 Y137.889 F7200
G1 X151.571 Y137.261 E37.60291 F4500
G0 X155.467 Y137.889 F7200
G1 X156.096 Y137.261 E37.65615 F4500
G0 X159.970 Y137.912 F7200
G1 X160.112 Y137.770 E37.66815 F4500
G0 X167.261 Y117.045 F7200
G1 X167.889 Y116.416 E37.72139 F4500
G0 X167.261 Y112.520 F7200
G1 X167.889 Y111.891 E37.77463 F4500
G0 X167.261 Y107.994 F7200
G1 X167.889 Y107.365 E37.82787 F4500
G0 X167.261 Y103.469 F7200
G1 X167.889 Y102.840 E37.88112 F4500
G0 X167.261 Y98.943 F7200
G1 X167.889 Y98.314 E37.93436 F4500
G0 X167.261 Y94.418 F7200
G1 X167.889 Y93.789 E37.98760 F4500
G0 X167.261 Y89.892 F7200
G1 X167.890 Y89.263 E38.04084 F4500
G0 X167.261 Y85.367 F7200
G1 X167.890 Y84.738 E38.09408 F4500
G0 F3000 E37.09408
G0 X167.373 Y61.495 F7200
G0 F3000 E38.09408
;segType:HShell
G1 X91.495 Y137.373 E43.44770 F3600
G0 X91.257 Y137.045 F7200
G1 X167.045 Y61.257 E48.79495 F3600
G0 X166.706 Y61.031 F7200
G1 X91.031 Y136.706 E54.13426 F3600
G0 X90.822 Y136.350 F7200
G1 X166.350 Y60.822 E59.46314 F3600
G0 X165.971 Y60.635 F7200
G1 X90.635 Y135.971 E64.77848 F3600
G0 X90.460 Y135.580 F7200
G1 X165.580 Y60.460 E70.07863 F3600
G0 X165.158 Y60.316 F7200
G1 X90.317 Y135.158 E75.35910 F3600
G0 X90.183 Y134.726 F7200
G1 X164.726 Y60.183 E80.61846 F3600
G0 X164.254 Y60.089 F7200
G1 X90.089 Y134.254 E85.85115 F3600
G0 X90.013 Y133.765 F7200
G1 X163.765 Y60.013 E91.05475 F3600
G0 X163.234 Y59.978 F7200
G1 X89.978 Y133.234 E96.22335 F3600
G0 X89.961 Y132.686 F7200
G1 X162.686 Y59.961 E101.35449 F3600
G0 X162.120 Y59.961 F7200
G1 X160.409 Y61.672 E101.47523 F3600
G0 X159.404 Y62.111 F7200
G1 X161.554 Y59.961 E101.62693 F3600
G0 X160.988 Y59.961 F7200
G1 X158.839 Y62.111 E101.77863 F3600
G0 X158.273 Y62.111 F7200
G1 X160.423 Y59.961 E101.93032 F3600
G0 X159.857 Y59.961 F7200
G1 X157.707 Y62.111 E102.08202 F3600
G0 X157.141 Y62.111 F7200
G1 X159.291 Y59.961 E102.23371 F3600
G0 X158.726 Y59.961 F7200
G1 X156.576 Y62.111 E102.38541 F3600
G0 X156.010 Y62.111 F7200
G1 X158.160 Y59.961 E102.53710 F3600
G0 X157.594 Y59.961 F7200
G1 X155.444 Y62.111 E102.68880 F3600
G0 X154.879 Y62.111 F7200
G1 X157.029 Y59.961 E102.84049 F3600
G0 X156.463 Y59.961 F7200
G1 X154.313 Y62.111 E102.99219 F3600
G0 X153.747 Y62.111 F7200
G1 X155.897 Y59.961 E103.14388 F3600
G0 X155.332 Y59.961 F7200
G1 X153.182 Y62.111 E103.29558 F3600
G0 X152.616 Y62.111 F7200
G1 X154.766 Y59.961 E103.44727 F3600
G0 X154.200 Y59.961 F7200
G1 X152.050 Y62.111 E103.59897 F3600
G0 X151.485 Y62.111 F7200
G1 X153.635 Y59.961 E103.75066 F3600
G0 X153.069 Y59.961 F7200
G1 X150.919 Y62.111 E103.90236 F3600
G0 X150.353 Y62.111 F7200
G1 X152.503 Y59.961 E104.05405 F3600
G0 X151.938 Y59.961 F7200
G1 X149.788 Y62.111 E104.20575 F3600
G0 X149.222 Y62.110 F7200
G1 X151.372 Y59.961 E104.35744 F3600
G0 X150.806 Y59.961 F7200
G1 X148.656 Y62.111 E104.50914 F3600
G0 X148.090 Y62.110 F7200
G1 X150.240 Y59.961 E104.66084 F3600
G0 X149.675 Y59.961 F7200
G1 X147.525 Y62.110 E104.81253 F3600
G0 X146.959 Y62.110 F7200
G1 X149.109 Y59.961 E104.96423 F3600
G0 X148.543 Y59.961 F7200
G1 X146.393 Y62.110 E105.11592 F3600
G0 X145.828 Y62.110 F7200
G1 X147.978 Y59.961 E105.26762 F3600
G0 X147.412 Y59.961 F7200
G1 X145.262 Y62.110 E105.41931 F3600
G0 X144.696 Y62.110 F7200
G1 X146.846 Y59.961 E105.57101 F3600
G0 X146.281 Y59.961 F7200
G1 X144.131 Y62.110 E105.72270 F3600
G0 X143.565 Y62.110 F7200
G1 X145.715 Y59.961 E105.87440 F3600
G0 X145.149 Y59.961 F7200
G1 X143.026 Y62.084 E106.02422 F3600
G0 X142.743 Y61.801 F7200
G1 X144.584 Y59.961 E106.15410 F3600
G0 X144.018 Y59.961 F7200
G1 X92.739 Y111.239 E109.77208 F3600
G0 X92.739 Y110.673 F7200
G1 X143.452 Y59.961 E113.35015 F3600
G0 X142.887 Y59.960 F7200
G1 X92.739 Y110.108 E116.88831 F3600
G0 X92.739 Y109.542 F7200
G1 X142.321 Y59.961 E120.38655 F3600
G0 X141.755 Y59.961 F7200
G1 X92.739 Y108.976 E123.84489 F3600
G0 X92.739 Y108.411 F7200
G1 X141.190 Y59.960 E127.26331 F3600
G0 X140.624 Y59.960 F7200
G1 X92.739 Y107.845 E130.64182 F3600
G0 X92.739 Y107.279 F7200
G1 X140.058 Y59.960 E133.98041 F3600
G0 X139.492 Y59.960 F7200
G1 X92.739 Y106.714 E137.27910 F3600
G0 X92.739 Y106.148 F7200
G1 X138.927 Y59.960 E140.53787 F3600
G0 X138.361 Y59.960 F7200
G1 X92.739 Y105.582 E143.75673 F3600
G0 X92.739 Y105.017 F7200
G1 X137.795 Y59.960 E146.93568 F3600
G0 X137.230 Y59.960 F7200
G1 X92.739 Y104.451 E150.07472 F3600
G0 X92.739 Y103.885 F7200
G1 X136.664 Y59.960 E153.17384 F3600
G0 X136.098 Y59.960 F7200
G1 X92.739 Y103.320 E156.23306 F3600
G0 X92.739 Y102.754 F7200
G1 X135.533 Y59.960 E159.25237 F3600
G0 X134.967 Y59.960 F7200
G1 X92.739 Y102.188 E162.23175 F3600
G0 X92.739 Y101.622 F7200
G1 X134.401 Y59.960 E165.17122 F3600
G0 X133.836 Y59.960 F7200
G1 X92.739 Y101.057 E168.07078 F3600
G0 X92.739 Y100.491 F7200
G1 X133.270 Y59.960 E170.93044 F3600
G0 X132.704 Y59.960 F7200
G1 X92.739 Y99.925 E173.75016 F3600
G0 X92.739 Y99.360 F7200
G1 X132.139 Y59.960 E176.53000 F3600
G0 X131.573 Y59.960 F7200
G1 X92.739 Y98.794 E179.26992 F3600
G0 X92.739 Y98.228 F7200
G1 X131.007 Y59.960 E181.96990 F3600
G0 X130.442 Y59.960 F7200
G1 X92.739 Y97.663 E184.63000 F3600
G0 X92.739 Y97.097 F7200
G1 X129.876 Y59.960 E187.25018 F3600
G0 X129.310 Y59.960 F7200
G1 X92.739 Y96.531 E189.83044 F3600
G0 X92.739 Y95.966 F7200
G1 X128.744 Y59.960 E192.37080 F3600
G0 X128.179 Y59.960 F7200
G1 X92.739 Y95.400 E194.87124 F3600
G0 X92.739 Y94.834 F7200
G1 X127.613 Y59.960 E197.33178 F3600
G0 X127.047 Y59.960 F7200
G1 X92.739 Y94.269 E199.75240 F3600
G0 X92.739 Y93.703 F7200
G1 X126.482 Y59.960 E202.13310 F3600
G0 X125.916 Y59.960 F7200
G1 X92.739 Y93.137 E204.47390 F3600
G0 X92.739 Y92.571 F7200
G1 X125.350 Y59.960 E206.77478 F3600
G0 X124.785 Y59.960 F7200
G1 X92.739 Y92.006 E209.03576 F3600
G0 X92.739 Y91.440 F7200
G1 X124.219 Y59.960 E211.25680 F3600
G0 X123.653 Y59.960 F7200
G1 X92.739 Y90.874 E213.43796 F3600
G0 X92.739 Y90.309 F7200
G1 X123.088 Y59.960 E215.57920 F3600
G0 X122.522 Y59.960 F7200
G1 X92.739 Y89.743 E217.68052 F3600
G0 X92.739 Y89.177 F7200
G1 X121.956 Y59.960 E219.74192 F3600
G0 X121.391 Y59.960 F7200
G1 X92.739 Y88.612 E221.76342 F3600
G0 X92.739 Y88.046 F7200
G1 X120.825 Y59.960 E223.74502 F3600
G0 X120.259 Y59.960 F7200
G1 X92.739 Y87.480 E225.68670 F3600
G0 X92.739 Y86.915 F7200
G1 X119.694 Y59.960 E227.58846 F3600
G0 X119.128 Y59.960 F7200
G1 X117.413 Y61.675 E227.70946 F3600
G0 X116.412 Y62.111 F7200
G1 X118.562 Y59.960 E227.86116 F3600
G0 X117.996 Y59.960 F7200
G1 X115.846 Y62.111 E228.01286 F3600
G0 X115.281 Y62.111 F7200
G1 X117.431 Y59.960 E228.16456 F3600
G0 X116.865 Y59.960 F7200
G1 X114.715 Y62.111 E228.31626 F3600
G0 X114.149 Y62.111 F7200
G1 X116.299 Y59.960 E228.46798 F3600
G0 X115.734 Y59.960 F7200
G1 X113.584 Y62.111 E228.61968 F3600
G0 X113.018 Y62.111 F7200
G1 X115.168 Y59.960 E228.77138 F3600
G0 X114.602 Y59.960 F7200
G1 X112.452 Y62.111 E228.92308 F3600
G0 X111.887 Y62.111 F7200
G1 X114.037 Y59.960 E229.07478 F3600
G0 X113.471 Y59.960 F7200
G1 X111.321 Y62.111 E229.22648 F3600
G0 X110.755 Y62.111 F7200
G1 X112.905 Y59.960 E229.37818 F3600
G0 X112.340 Y59.960 F7200
G1 X110.190 Y62.111 E229.52990 F3600
G0 X109.624 Y62.111 F7200
G1 X111.774 Y59.960 E229.68160 F3600
G0 X111.208 Y59.960 F7200
G1 X109.058 Y62.111 E229.83330 F3600
G0 X108.493 Y62.111 F7200
G1 X110.643 Y59.960 E229.98500 F3600
G0 X110.077 Y59.960 F7200
G1 X107.927 Y62.111 E230.13670 F3600
G0 X107.361 Y62.111 F7200
G1 X109.511 Y59.960 E230.28840 F3600
G0 X108.946 Y59.960 F7200
G1 X106.795 Y62.111 E230.44010 F3600
G0 X106.230 Y62.111 F7200
G1 X108.380 Y59.960 E230.59182 F3600
G0 X107.814 Y59.960 F7200
G1 X105.664 Y62.111 E230.74352 F3600
G0 X105.098 Y62.111 F7200
G1 X107.248 Y59.960 E230.89522 F3600
G0 X106.683 Y59.960 F7200
G1 X104.533 Y62.111 E231.04692 F3600
G0 X103.967 Y62.111 F7200
G1 X106.117 Y59.960 E231.19862 F3600
G0 X105.551 Y59.960 F7200
G1 X103.401 Y62.110 E231.35032 F3600
G0 X102.836 Y62.111 F7200
G1 X104.986 Y59.960 E231.50202 F3600
G0 X104.420 Y59.960 F7200
G1 X102.270 Y62.110 E231.65374 F3600
G0 X101.704 Y62.110 F7200
G1 X103.854 Y59.960 E231.80544 F3600
G0 X103.289 Y59.960 F7200
G1 X101.139 Y62.110 E231.95714 F3600
G0 X100.573 Y62.110 F7200
G1 X102.723 Y59.960 E232.10884 F3600
G0 X102.157 Y59.960 F7200
G1 X100.030 Y62.088 E232.25896 F3600
G0 X99.747 Y61.805 F7200
G1 X101.592 Y59.960 E232.38912 F3600
G0 X101.026 Y59.960 F7200
G1 X89.961 Y71.026 E233.16984 F3600
G0 X89.961 Y70.460 F7200
G1 X100.460 Y59.960 E233.91066 F3600
G0 X99.895 Y59.960 F7200
G1 X89.961 Y69.894 E234.61156 F3600
G0 X89.961 Y69.329 F7200
G1 X99.329 Y59.960 E235.27256 F3600
G0 X98.763 Y59.960 F7200
G1 X89.961 Y68.763 E235.89364 F3600
G0 X89.960 Y68.197 F7200
G1 X98.198 Y59.960 E236.47480 F3600
G0 X97.632 Y59.960 F7200
G1 X89.960 Y67.632 E237.01606 F3600
G0 X89.960 Y67.066 F7200
G1 X97.066 Y59.960 E237.51740 F3600
G0 X96.463 Y59.998 F7200
G1 X89.998 Y66.463 E237.97356 F3600
G0 X90.075 Y65.821 F7200
G1 X95.820 Y60.075 E238.37896 F3600
G0 X95.101 Y60.229 F7200
G1 X90.229 Y65.101 E238.72270 F3600
G0 X90.538 Y64.225 F7200
G1 X94.225 Y60.538 E238.98284 F3600
G0 X99.605 Y61.947 F7200
G1 X89.961 Y71.592 E239.66334 F3600
G0 X89.961 Y72.157 F7200
G1 X99.888 Y62.230 E240.36376 F3600
G0 X100.171 Y62.513 F7200
G1 X89.961 Y72.723 E241.08416 F3600
G0 X89.961 Y73.289 F7200
G1 X100.510 Y62.739 E241.82848 F3600
G0 X101.075 Y62.739 F7200
G1 X89.961 Y73.854 E242.61270 F3600
G0 X89.961 Y74.420 F7200
G1 X101.641 Y62.739 E243.43682 F3600
G0 X102.207 Y62.739 F7200
G1 X89.961 Y74.986 E244.30088 F3600
G0 X89.961 Y75.551 F7200
G1 X102.773 Y62.739 E245.20484 F3600
G0 X103.338 Y62.739 F7200
G1 X89.961 Y76.117 E246.14870 F3600
G0 X89.961 Y76.683 F7200
G1 X103.904 Y62.739 E247.13248 F3600
G0 X104.470 Y62.739 F7200
G1 X89.961 Y77.248 E248.15618 F3600
G0 X89.961 Y77.814 F7200
G1 X105.035 Y62.739 E249.21978 F3600
G0 X105.601 Y62.739 F7200
G1 X89.961 Y78.380 E250.32328 F3600
G0 X89.961 Y78.945 F7200
G1 X106.167 Y62.739 E251.46672 F3600
G0 X106.732 Y62.739 F7200
G1 X89.961 Y79.511 E252.65006 F3600
G0 X89.961 Y80.077 F7200
G1 X107.298 Y62.739 E253.87330 F3600
G0 X107.864 Y62.739 F7200
G1 X89.961 Y80.642 E255.13648 F3600
G0 X89.961 Y81.208 F7200
G1 X108.429 Y62.739 E256.43954 F3600
G0 X108.995 Y62.739 F7200
G1 X89.961 Y81.774 E257.78254 F3600
G0 X89.961 Y82.340 F7200
G1 X109.561 Y62.739 E259.16544 F3600
G0 X110.126 Y62.739 F7200
G1 X89.961 Y82.905 E260.58826 F3600
G0 X89.961 Y83.471 F7200
G1 X91.745 Y81.686 E260.71418 F3600
G0 X92.028 Y81.969 F7200
G1 X89.961 Y84.037 E260.86002 F3600
G0 X89.961 Y84.602 F7200
G1 X92.111 Y82.452 E261.01172 F3600
G0 X92.111 Y83.018 F7200
G1 X89.961 Y85.168 E261.16342 F3600
G0 X89.961 Y85.734 F7200
G1 X92.111 Y83.584 E261.31512 F3600
G0 X92.111 Y84.149 F7200
G1 X89.961 Y86.299 E261.46682 F3600
G0 X89.961 Y86.865 F7200
G1 X92.111 Y84.715 E261.61854 F3600
G0 X92.111 Y85.281 F7200
G1 X89.961 Y87.431 E261.77024 F3600
G0 X89.961 Y87.996 F7200
G1 X92.111 Y85.846 E261.92194 F3600
G0 X92.111 Y86.412 F7200
G1 X89.961 Y88.562 E262.07364 F3600
G0 X89.961 Y89.128 F7200
G1 X92.111 Y86.978 E262.22534 F3600
G0 X92.111 Y87.543 F7200
G1 X89.961 Y89.693 E262.37704 F3600
G0 X89.961 Y90.259 F7200
G1 X92.111 Y88.109 E262.52874 F3600
G0 X92.111 Y88.675 F7200
G1 X89.961 Y90.825 E262.68046 F3600
G0 X89.961 Y91.390 F7200
G1 X92.111 Y89.241 E262.83216 F3600
G0 X92.111 Y89.806 F7200
G1 X89.961 Y91.956 E262.98386 F3600
G0 X89.961 Y92.522 F7200
G1 X92.111 Y90.372 E263.13556 F3600
G0 X92.111 Y90.938 F7200
G1 X89.961 Y93.088 E263.28726 F3600
G0 X89.961 Y93.653 F7200
G1 X92.111 Y91.503 E263.43896 F3600
G0 X92.111 Y92.069 F7200
G1 X89.961 Y94.219 E263.59066 F3600
G0 X89.961 Y94.785 F7200
G1 X92.111 Y92.635 E263.74238 F3600
G0 X92.111 Y93.200 F7200
G1 X89.961 Y95.350 E263.89408 F3600
G0 X89.961 Y95.916 F7200
G1 X92.111 Y93.766 E264.04578 F3600
G0 X92.111 Y94.332 F7200
G1 X89.961 Y96.482 E264.19748 F3600
G0 X89.961 Y97.047 F7200
G1 X92.111 Y94.897 E264.34918 F3600
G0 X92.111 Y95.463 F7200
G1 X89.961 Y97.613 E264.50088 F3600
G0 X89.961 Y98.179 F7200
G1 X92.111 Y96.029 E264.65258 F3600
G0 X92.111 Y96.594 F7200
G1 X89.961 Y98.744 E264.80430 F3600
G0 X89.961 Y99.310 F7200
G1 X92.111 Y97.160 E264.95600 F3600
G0 X92.111 Y97.726 F7200
G1 X89.961 Y99.876 E265.10770 F3600
G0 X89.961 Y100.441 F7200
G1 X92.111 Y98.291 E265.25940 F3600
G0 X92.111 Y98.857 F7200
G1 X89.961 Y101.007 E265.41110 F3600
G0 X89.961 Y101.573 F7200
G1 X92.111 Y99.423 E265.56280 F3600
G0 X92.111 Y99.989 F7200
G1 X89.961 Y102.139 E265.71450 F3600
G0 X89.961 Y102.704 F7200
G1 X92.111 Y100.554 E265.86622 F3600
G0 X92.111 Y101.120 F7200
G1 X89.961 Y103.270 E266.01792 F3600
G0 X89.961 Y103.836 F7200
G1 X92.111 Y101.686 E266.16962 F3600
G0 X92.111 Y102.251 F7200
G1 X89.961 Y104.401 E266.32132 F3600
G0 X89.961 Y104.967 F7200
G1 X92.111 Y102.817 E266.47302 F3600
G0 X92.111 Y103.383 F7200
G1 X89.961 Y105.533 E266.62472 F3600
G0 X89.961 Y106.098 F7200
G1 X92.111 Y103.948 E266.77642 F3600
G0 X92.111 Y104.514 F7200
G1 X89.961 Y106.664 E266.92814 F3600
G0 X89.961 Y107.230 F7200
G1 X92.111 Y105.080 E267.07984 F3600
G0 X92.111 Y105.645 F7200
G1 X89.961 Y107.795 E267.23154 F3600
G0 X89.961 Y108.361 F7200
G1 X92.111 Y106.211 E267.38324 F3600
G0 X92.111 Y106.777 F7200
G1 X89.961 Y108.927 E267.53494 F3600
G0 X89.961 Y109.492 F7200
G1 X92.111 Y107.342 E267.68664 F3600
G0 X92.111 Y107.908 F7200
G1 X89.961 Y110.058 E267.83834 F3600
G0 X89.961 Y110.624 F7200
G1 X92.111 Y108.474 E267.99006 F3600
G0 X92.111 Y109.040 F7200
G1 X89.961 Y111.189 E268.14176 F3600
G0 X89.961 Y111.755 F7200
G1 X92.111 Y109.605 E268.29346 F3600
G0 X92.111 Y110.171 F7200
G1 X89.961 Y112.321 E268.44516 F3600
G0 X89.961 Y112.887 F7200
G1 X92.111 Y110.737 E268.59686 F3600
G0 X92.111 Y111.302 F7200
G1 X89.961 Y113.452 E268.74856 F3600
G0 X89.961 Y114.018 F7200
G1 X92.111 Y111.868 E268.90026 F3600
G0 X92.111 Y112.434 F7200
G1 X89.961 Y114.584 E269.05198 F3600
G0 X89.961 Y115.149 F7200
G1 X92.111 Y112.999 E269.20368 F3600
G0 X92.111 Y113.565 F7200
G1 X89.961 Y115.715 E269.35538 F3600
G0 X89.961 Y116.281 F7200
G1 X92.111 Y114.131 E269.50708 F3600
G0 X92.111 Y114.696 F7200
G1 X89.961 Y116.846 E269.65878 F3600
G0 X89.961 Y117.412 F7200
G1 X92.111 Y115.262 E269.81048 F3600
G0 X92.111 Y115.828 F7200
G1 X89.961 Y117.978 E269.96218 F3600
G0 X89.961 Y118.543 F7200
G1 X92.111 Y116.393 E270.11390 F3600
G0 X92.111 Y116.959 F7200
G1 X89.961 Y119.109 E270.26560 F3600
G0 X89.961 Y119.675 F7200
G1 X92.111 Y117.525 E270.41730 F3600
G0 X91.745 Y118.456 F7200
G1 X89.961 Y120.240 E270.54322 F3600
G0 X92.739 Y111.805 F7200
G1 X142.601 Y61.943 E274.06124 F3600
G0 X142.884 Y62.226 F7200
G1 X92.739 Y112.370 E277.59924 F3600
G0 X92.739 Y112.936 F7200
G1 X143.167 Y62.509 E281.15720 F3600
G0 X143.502 Y62.739 F7200
G1 X92.739 Y113.502 E284.73876 F3600
G0 X92.739 Y114.068 F7200
G1 X144.068 Y62.739 E288.36026 F3600
G0 X144.633 Y62.739 F7200
G1 X92.739 Y114.633 E292.02166 F3600
G0 X92.739 Y115.199 F7200
G1 X145.199 Y62.739 E295.72296 F3600
G0 X145.765 Y62.739 F7200
G1 X92.739 Y115.765 E299.46418 F3600
G0 X92.739 Y116.330 F7200
G1 X146.330 Y62.739 E303.24530 F3600
G0 X146.896 Y62.739 F7200
G1 X92.739 Y116.896 E307.06634 F3600
G0 X92.739 Y117.462 F7200
G1 X147.462 Y62.739 E310.92730 F3600
G0 X148.027 Y62.739 F7200
G1 X89.961 Y120.806 E315.02424 F3600
G0 X89.961 Y121.372 F7200
G1 X148.593 Y62.739 E319.16108 F3600
G0 X149.159 Y62.739 F7200
G1 X89.961 Y121.938 E323.33782 F3600
G0 X89.961 Y122.503 F7200
G1 X149.724 Y62.739 E327.55450 F3600
G0 X150.290 Y62.739 F7200
G1 X89.961 Y123.069 E331.81106 F3600
G0 X89.961 Y123.635 F7200
G1 X150.856 Y62.739 E336.10756 F3600
G0 X151.421 Y62.739 F7200
G1 X89.961 Y124.200 E340.44392 F3600
G0 X89.961 Y124.766 F7200
G1 X151.987 Y62.739 E344.82024 F3600
G0 X152.553 Y62.739 F7200
G1 X89.961 Y125.332 E349.23648 F3600
G0 X89.961 Y125.897 F7200
G1 X153.119 Y62.739 E353.69264 F3600
G0 X153.684 Y62.739 F7200
G1 X89.961 Y126.463 E358.18864 F3600
G0 X89.961 Y127.029 F7200
G1 X154.250 Y62.739 E362.72460 F3600
G0 X154.816 Y62.739 F7200
G1 X89.961 Y127.594 E367.30048 F3600
G0 X89.961 Y128.160 F7200
G1 X155.381 Y62.739 E371.91624 F3600
G0 X155.947 Y62.739 F7200
G1 X89.961 Y128.726 E376.57196 F3600
G0 X89.961 Y129.291 F7200
G1 X156.513 Y62.739 E381.26756 F3600
G0 X157.078 Y62.739 F7200
G1 X89.961 Y129.857 E386.00312 F3600
G0 X89.961 Y130.423 F7200
G1 X157.644 Y62.739 E390.77852 F3600
G0 X158.210 Y62.739 F7200
G1 X89.961 Y130.988 E395.59388 F3600
G0 X89.961 Y131.554 F7200
G1 X158.775 Y62.739 E400.44912 F3600
G0 X159.341 Y62.739 F7200
G1 X89.961 Y132.120 E405.34428 F3600
G0 X92.024 Y137.976 F7200
G1 X167.976 Y62.024 E410.70316 F3600
G0 X168.241 Y62.325 F7200
G1 X92.325 Y138.241 E416.05940 F3600
G0 X92.627 Y138.505 F7200
G1 X168.505 Y62.627 E421.41300 F3600
G0 X168.743 Y62.955 F7200
G1 X92.955 Y138.743 E426.76024 F3600
G0 X93.294 Y138.969 F7200
G1 X168.969 Y63.294 E432.09956 F3600
G0 X169.178 Y63.650 F7200
G1 X93.650 Y139.178 E437.42848 F3600
G0 X94.029 Y139.365 F7200
G1 X169.365 Y64.029 E442.74380 F3600
G0 X169.540 Y64.420 F7200
G1 X94.420 Y139.540 E448.04396 F3600
G0 X94.842 Y139.683 F7200
G1 X169.683 Y64.842 E453.32440 F3600
G0 X169.817 Y65.274 F7200
G1 X95.274 Y139.817 E458.58376 F3600
G0 X95.746 Y139.911 F7200
G1 X169.911 Y65.746 E463.81648 F3600
G0 X169.987 Y66.235 F7200
G1 X96.235 Y139.987 E469.02008 F3600
G0 X96.766 Y140.022 F7200
G1 X170.022 Y66.766 E474.18868 F3600
G0 X170.039 Y67.315 F7200
G1 X97.315 Y140.039 E479.31984 F3600
G0 X97.880 Y140.039 F7200
G1 X99.589 Y138.331 E479.44036 F3600
G0 X100.596 Y137.889 F7200
G1 X98.446 Y140.039 E479.59208 F3600
G0 X99.012 Y140.039 F7200
G1 X101.161 Y137.889 E479.74376 F3600
G0 X101.727 Y137.889 F7200
G1 X99.577 Y140.039 E479.89548 F3600
G0 X100.143 Y140.039 F7200
G1 X102.293 Y137.889 E480.04720 F3600
G0 X102.859 Y137.889 F7200
G1 X100.709 Y140.039 E480.19888 F3600
G0 X101.274 Y140.039 F7200
G1 X103.424 Y137.889 E480.35060 F3600
G0 X103.990 Y137.889 F7200
G1 X101.840 Y140.039 E480.50228 F3600
G0 X102.406 Y140.039 F7200
G1 X104.556 Y137.889 E480.65400 F3600
G0 X105.121 Y137.889 F7200
G1 X102.971 Y140.039 E480.80568 F3600
G0 X103.537 Y140.039 F7200
G1 X105.687 Y137.889 E480.95740 F3600
G0 X106.253 Y137.889 F7200
G1 X104.103 Y140.039 E481.10912 F3600
G0 X104.668 Y140.039 F7200
G1 X106.818 Y137.889 E481.26080 F3600
G0 X107.384 Y137.889 F7200
G1 X105.234 Y140.039 E481.41252 F3600
G0 X105.800 Y140.039 F7200
G1 X107.950 Y137.889 E481.56420 F3600
G0 X108.515 Y137.889 F7200
G1 X106.365 Y140.039 E481.71592 F3600
G0 X106.931 Y140.039 F7200
G1 X109.081 Y137.889 E481.86760 F3600
G0 X109.647 Y137.889 F7200
G1 X107.497 Y140.039 E482.01932 F3600
G0 X108.063 Y140.039 F7200
G1 X110.212 Y137.889 E482.17104 F3600
G0 X110.778 Y137.889 F7200
G1 X108.628 Y140.039 E482.32272 F3600
G0 X109.194 Y140.039 F7200
G1 X111.344 Y137.889 E482.47444 F3600
G0 X111.910 Y137.889 F7200
G1 X109.760 Y140.039 E482.62612 F3600
G0 X110.325 Y140.039 F7200
G1 X112.475 Y137.889 E482.77784 F3600
G0 X113.041 Y137.889 F7200
G1 X110.891 Y140.039 E482.92952 F3600
G0 X111.457 Y140.039 F7200
G1 X113.607 Y137.889 E483.08124 F3600
G0 X114.172 Y137.889 F7200
G1 X112.022 Y140.039 E483.23296 F3600
G0 X112.588 Y140.039 F7200
G1 X114.738 Y137.889 E483.38464 F3600
G0 X115.304 Y137.889 F7200
G1 X113.154 Y140.039 E483.53636 F3600
G0 X113.719 Y140.039 F7200
G1 X115.869 Y137.889 E483.68804 F3600
G0 X116.435 Y137.889 F7200
G1 X114.285 Y140.039 E483.83976 F3600
G0 X114.851 Y140.039 F7200
G1 X116.974 Y137.916 E483.98956 F3600
G0 X117.257 Y138.199 F7200
G1 X115.416 Y140.039 E484.11944 F3600
G0 X115.982 Y140.039 F7200
G1 X167.261 Y88.761 E487.73744 F3600
G0 X167.261 Y89.327 F7200
G1 X116.548 Y140.039 E491.31548 F3600
G0 X117.113 Y140.039 F7200
G1 X167.261 Y89.892 E494.85364 F3600
G0 X167.261 Y90.458 F7200
G1 X117.679 Y140.039 E498.35188 F3600
G0 X118.245 Y140.039 F7200
G1 X167.261 Y91.024 E501.81020 F3600
G0 X167.261 Y91.589 F7200
G1 X118.811 Y140.039 E505.22860 F3600
G0 X119.376 Y140.039 F7200
G1 X167.261 Y92.155 E508.60712 F3600
G0 X167.261 Y92.721 F7200
G1 X119.942 Y140.039 E511.94572 F3600
G0 X120.508 Y140.039 F7200
G1 X167.261 Y93.286 E515.24440 F3600
G0 X167.261 Y93.852 F7200
G1 X121.073 Y140.039 E518.50316 F3600
G0 X121.639 Y140.039 F7200
G1 X167.261 Y94.418 E521.72204 F3600
G0 X167.261 Y94.983 F7200
G1 X122.205 Y140.039 E524.90100 F3600
G0 X122.770 Y140.039 F7200
G1 X167.261 Y95.549 E528.04004 F3600
G0 X167.261 Y96.115 F7200
G1 X123.336 Y140.039 E531.13916 F3600
G0 X123.902 Y140.039 F7200
G1 X167.261 Y96.681 E534.19836 F3600
G0 X167.261 Y97.246 F7200
G1 X124.467 Y140.039 E537.21764 F3600
G0 X125.033 Y140.039 F7200
G1 X167.261 Y97.812 E540.19704 F3600
G0 X167.261 Y98.378 F7200
G1 X125.599 Y140.039 E543.13648 F3600
G0 X126.164 Y140.039 F7200
G1 X167.261 Y98.943 E546.03600 F3600
G0 X167.261 Y99.509 F7200
G1 X126.730 Y140.039 E548.89564 F3600
G0 X127.296 Y140.039 F7200
G1 X167.261 Y100.075 E551.71532 F3600
G0 X167.261 Y100.640 F7200
G1 X127.862 Y140.039 E554.49516 F3600
G0 X128.427 Y140.039 F7200
G1 X167.261 Y101.206 E557.23512 F3600
G0 X167.261 Y101.772 F7200
G1 X128.993 Y140.039 E559.93512 F3600
G0 X129.559 Y140.039 F7200
G1 X167.261 Y102.337 E562.59520 F3600
G0 X167.261 Y102.903 F7200
G1 X130.124 Y140.039 E565.21540 F3600
G0 X130.690 Y140.039 F7200
G1 X167.261 Y103.469 E567.79564 F3600
G0 X167.261 Y104.034 F7200
G1 X131.256 Y140.039 E570.33600 F3600
G0 X131.821 Y140.039 F7200
G1 X167.261 Y104.600 E572.83644 F3600
G0 X167.261 Y105.166 F7200
G1 X132.387 Y140.039 E575.29692 F3600
G0 X132.953 Y140.039 F7200
G1 X167.261 Y105.731 E577.71752 F3600
G0 X167.261 Y106.297 F7200
G1 X133.518 Y140.039 E580.09820 F3600
G0 X134.084 Y140.039 F7200
G1 X167.261 Y106.863 E582.43896 F3600
G0 X167.261 Y107.429 F7200
G1 X134.650 Y140.039 E584.73988 F3600
G0 X135.215 Y140.039 F7200
G1 X167.261 Y107.994 E587.00084 F3600
G0 X167.261 Y108.560 F7200
G1 X135.781 Y140.039 E589.22192 F3600
G0 X136.347 Y140.039 F7200
G1 X167.261 Y109.126 E591.40308 F3600
G0 X167.261 Y109.691 F7200
G1 X136.912 Y140.039 E593.54432 F3600
G0 X137.478 Y140.039 F7200
G1 X167.261 Y110.257 E595.64564 F3600
G0 X167.261 Y110.823 F7200
G1 X138.044 Y140.039 E597.70704 F3600
G0 X138.610 Y140.039 F7200
G1 X167.261 Y111.388 E599.72852 F3600
G0 X167.261 Y111.954 F7200
G1 X139.175 Y140.039 E601.71008 F3600
G0 X139.741 Y140.039 F7200
G1 X167.261 Y112.520 E603.65172 F3600
G0 X167.261 Y113.085 F7200
G1 X140.307 Y140.039 E605.55348 F3600
G0 X140.872 Y140.039 F7200
G1 X142.583 Y138.328 E605.67420 F3600
G0 X143.588 Y137.889 F7200
G1 X141.438 Y140.039 E605.82588 F3600
G0 X142.004 Y140.039 F7200
G1 X144.154 Y137.889 E605.97752 F3600
G0 X144.719 Y137.889 F7200
G1 X142.569 Y140.039 E606.12920 F3600
G0 X143.135 Y140.039 F7200
G1 X145.285 Y137.889 E606.28088 F3600
G0 X145.851 Y137.889 F7200
G1 X143.701 Y140.039 E606.43256 F3600
G0 X144.266 Y140.039 F7200
G1 X146.416 Y137.889 E606.58424 F3600
G0 X146.982 Y137.889 F7200
G1 X144.832 Y140.039 E606.73592 F3600
G0 X145.398 Y140.039 F7200
G1 X147.548 Y137.889 E606.88756 F3600
G0 X148.113 Y137.889 F7200
G1 X145.963 Y140.039 E607.03924 F3600
G0 X146.529 Y140.039 F7200
G1 X148.679 Y137.889 E607.19092 F3600
G0 X149.245 Y137.889 F7200
G1 X147.095 Y140.039 E607.34260 F3600
G0 X147.660 Y140.039 F7200
G1 X149.810 Y137.889 E607.49428 F3600
G0 X150.376 Y137.889 F7200
G1 X148.226 Y140.039 E607.64592 F3600
G0 X148.792 Y140.039 F7200
G1 X150.942 Y137.889 E607.79760 F3600
G0 X151.508 Y137.889 F7200
G1 X149.358 Y140.039 E607.94928 F3600
G0 X149.923 Y140.039 F7200
G1 X152.073 Y137.889 E608.10096 F3600
G0 X152.639 Y137.889 F7200
G1 X150.489 Y140.039 E608.25264 F3600
G0 X151.055 Y140.039 F7200
G1 X153.205 Y137.889 E608.40428 F3600
G0 X153.770 Y137.889 F7200
G1 X151.620 Y140.039 E608.55596 F3600
G0 X152.186 Y140.039 F7200
G1 X154.336 Y137.889 E608.70764 F3600
G0 X154.902 Y137.889 F7200
G1 X152.752 Y140.039 E608.85932 F3600
G0 X153.317 Y140.039 F7200
G1 X155.467 Y137.889 E609.01100 F3600
G0 X156.033 Y137.889 F7200
G1 X153.883 Y140.039 E609.16264 F3600
G0 X154.449 Y140.039 F7200
G1 X156.599 Y137.889 E609.31432 F3600
G0 X157.164 Y137.889 F7200
G1 X155.014 Y140.039 E609.46600 F3600
G0 X155.580 Y140.039 F7200
G1 X157.730 Y137.889 E609.61768 F3600
G0 X158.296 Y137.889 F7200
G1 X156.146 Y140.039 E609.76936 F3600
G0 X156.711 Y140.039 F7200
G1 X158.861 Y137.889 E609.92104 F3600
G0 X159.427 Y137.889 F7200
G1 X157.277 Y140.039 E610.07268 F3600
G0 X157.843 Y140.039 F7200
G1 X159.970 Y137.912 E610.22276 F3600
G0 X160.253 Y138.195 F7200
G1 X158.408 Y140.039 E610.35292 F3600
G0 X158.974 Y140.039 F7200
G1 X170.039 Y128.974 E611.13360 F3600
G0 X170.039 Y129.540 F7200
G1 X159.540 Y140.039 E611.87440 F3600
G0 X160.106 Y140.039 F7200
G1 X170.039 Y130.106 E612.57524 F3600
G0 X170.039 Y130.671 F7200
G1 X160.671 Y140.039 E613.23620 F3600
G0 X161.237 Y140.039 F7200
G1 X170.039 Y131.237 E613.85728 F3600
G0 X170.039 Y131.803 F7200
G1 X161.803 Y140.039 E614.43848 F3600
G0 X162.368 Y140.039 F7200
G1 X170.039 Y132.368 E614.97972 F3600
G0 X170.039 Y132.934 F7200
G1 X162.934 Y140.039 E615.48108 F3600
G0 X163.537 Y140.002 F7200
G1 X170.002 Y133.537 E615.93724 F3600
G0 X169.925 Y134.179 F7200
G1 X164.179 Y139.925 E616.34264 F3600
G0 X164.899 Y139.771 F7200
G1 X169.771 Y134.899 E616.68640 F3600
G0 X169.462 Y135.774 F7200
G1 X165.774 Y139.462 E616.94652 F3600
G0 X149.308 Y137.261 F7200
G1 X168.113 Y118.455 E618.27336 F3600
G0 X167.831 Y118.172 F7200
G1 X148.742 Y137.261 E619.62016 F3600
G0 X148.177 Y137.261 F7200
G1 X167.548 Y117.889 E620.98692 F3600
G0 X167.265 Y117.607 F7200
G1 X147.611 Y137.261 E622.37364 F3600
G0 X147.045 Y137.261 F7200
G1 X167.261 Y117.045 E623.80000 F3600
G0 X167.261 Y116.479 F7200
G1 X146.480 Y137.261 E625.26624 F3600
G0 X145.914 Y137.261 F7200
G1 X167.261 Y115.914 E626.77232 F3600
G0 X167.261 Y115.348 F7200
G1 X145.348 Y137.261 E628.31836 F3600
G0 X144.782 Y137.261 F7200
G1 X167.261 Y114.782 E629.90428 F3600
G0 X167.261 Y114.217 F7200
G1 X144.217 Y137.261 E631.53016 F3600
G0 X143.651 Y137.261 F7200
G1 X167.261 Y113.651 E633.19592 F3600
G0 X167.261 Y82.538 F7200
G1 X112.538 Y137.261 E637.05688 F3600
G0 X113.104 Y137.261 F7200
G1 X167.261 Y83.104 E640.87792 F3600
G0 X167.261 Y83.670 F7200
G1 X113.670 Y137.261 E644.65904 F3600
G0 X114.235 Y137.261 F7200
G1 X167.261 Y84.235 E648.40028 F3600
G0 X167.261 Y84.801 F7200
G1 X114.801 Y137.261 E652.10156 F3600
G0 X115.367 Y137.261 F7200
G1 X167.261 Y85.367 E655.76292 F3600
G0 X167.261 Y85.933 F7200
G1 X115.932 Y137.261 E659.38440 F3600
G0 X116.498 Y137.261 F7200
G1 X167.261 Y86.498 E662.96596 F3600
G0 X167.261 Y87.064 F7200
G1 X116.833 Y137.491 E666.52388 F3600
G0 X117.116 Y137.774 F7200
G1 X167.261 Y87.630 E670.06184 F3600
G0 X167.261 Y88.195 F7200
G1 X117.399 Y138.057 E673.57984 F3600
G0 X100.659 Y137.261 F7200
G1 X170.039 Y67.880 E678.47496 F3600
G0 X170.039 Y68.446 F7200
G1 X101.225 Y137.261 E683.33024 F3600
G0 X101.790 Y137.261 F7200
G1 X170.039 Y69.012 E688.14552 F3600
G0 X170.039 Y69.577 F7200
G1 X102.356 Y137.261 E692.92096 F3600
G0 X102.922 Y137.261 F7200
G1 X170.039 Y70.143 E697.65648 F3600
G0 X170.039 Y70.709 F7200
G1 X103.487 Y137.261 E702.35208 F3600
G0 X104.053 Y137.261 F7200
G1 X170.039 Y71.274 E707.00784 F3600
G0 X170.039 Y71.840 F7200
G1 X104.619 Y137.261 E711.62360 F3600
G0 X105.184 Y137.261 F7200
G1 X170.039 Y72.406 E716.19944 F3600
G0 X170.039 Y72.971 F7200
G1 X105.750 Y137.261 E720.73544 F3600
G0 X106.316 Y137.261 F7200
G1 X170.039 Y73.537 E725.23144 F3600
G0 X170.039 Y74.103 F7200
G1 X106.881 Y137.261 E729.68760 F3600
G0 X107.447 Y137.261 F7200
G1 X170.039 Y74.668 E734.10376 F3600
G0 X170.039 Y75.234 F7200
G1 X108.013 Y137.261 E738.48008 F3600
G0 X108.579 Y137.261 F7200
G1 X170.039 Y75.800 E742.81640 F3600
G0 X170.039 Y76.366 F7200
G1 X109.144 Y137.261 E747.11288 F3600
G0 X109.710 Y137.261 F7200
G1 X170.039 Y76.931 E751.36952 F3600
G0 X170.039 Y77.497 F7200
G1 X110.276 Y137.261 E755.58616 F3600
G0 X110.841 Y137.261 F7200
G1 X170.039 Y78.063 E759.76296 F3600
G0 X170.039 Y78.628 F7200
G1 X111.407 Y137.261 E763.89976 F3600
G0 X111.973 Y137.261 F7200
G1 X170.039 Y79.194 E767.99672 F3600
G0 X170.039 Y79.760 F7200
G1 X168.278 Y81.521 E768.12104 F3600
G0 X167.889 Y82.475 F7200
G1 X170.039 Y80.325 E768.27272 F3600
G0 X170.039 Y80.891 F7200
G1 X167.889 Y83.041 E768.42440 F3600
G0 X167.889 Y83.607 F7200
G1 X170.039 Y81.457 E768.57608 F3600
G0 X170.039 Y82.022 F7200
G1 X167.889 Y84.172 E768.72776 F3600
G0 X167.889 Y84.738 F7200
G1 X170.039 Y82.588 E768.87936 F3600
G0 X170.039 Y83.154 F7200
G1 X167.889 Y85.304 E769.03104 F3600
G0 X167.889 Y85.869 F7200
G1 X170.039 Y83.719 E769.18272 F3600
G0 X170.039 Y84.285 F7200
G1 X167.889 Y86.435 E769.33440 F3600
G0 X167.889 Y87.001 F7200
G1 X170.039 Y84.851 E769.48608 F3600
G0 X170.039 Y85.416 F7200
G1 X167.889 Y87.566 E769.63776 F3600
G0 X167.889 Y88.132 F7200
G1 X170.039 Y85.982 E769.78944 F3600
G0 X170.039 Y86.548 F7200
G1 X167.889 Y88.698 E769.94112 F3600
G0 X167.889 Y89.263 F7200
G1 X170.039 Y87.114 E770.09280 F3600
G0 X170.039 Y87.679 F7200
G1 X167.889 Y89.829 E770.24448 F3600
G0 X167.889 Y90.395 F7200
G1 X170.039 Y88.245 E770.39608 F3600
G0 X170.039 Y88.811 F7200
G1 X167.889 Y90.961 E770.54776 F3600
G0 X167.889 Y91.526 F7200
G1 X170.039 Y89.376 E770.69944 F3600
G0 X170.039 Y89.942 F7200
G1 X167.889 Y92.092 E770.85112 F3600
G0 X167.889 Y92.658 F7200
G1 X170.039 Y90.508 E771.00280 F3600
G0 X170.039 Y91.073 F7200
G1 X167.889 Y93.223 E771.15448 F3600
G0 X167.889 Y93.789 F7200
G1 X170.039 Y91.639 E771.30616 F3600
G0 X170.039 Y92.205 F7200
G1 X167.889 Y94.355 E771.45784 F3600
G0 X167.889 Y94.920 F7200
G1 X170.039 Y92.770 E771.60952 F3600
G0 X170.039 Y93.336 F7200
G1 X167.889 Y95.486 E771.76120 F3600
G0 X167.889 Y96.052 F7200
G1 X170.039 Y93.902 E771.91288 F3600
G0 X170.039 Y94.467 F7200
G1 X167.889 Y96.617 E772.06448 F3600
G0 X167.889 Y97.183 F7200
G1 X170.039 Y95.033 E772.21616 F3600
G0 X170.039 Y95.599 F7200
G1 X167.889 Y97.749 E772.36784 F3600
G0 X167.889 Y98.314 F7200
G1 X170.039 Y96.164 E772.51952 F3600
G0 X170.039 Y96.730 F7200
G1 X167.889 Y98.880 E772.67120 F3600
G0 X167.889 Y99.446 F7200
G1 X170.039 Y97.296 E772.82288 F3600
G0 X170.039 Y97.862 F7200
G1 X167.889 Y100.011 E772.97456 F3600
G0 X167.889 Y100.577 F7200
G1 X170.039 Y98.427 E773.12624 F3600
G0 X170.039 Y98.993 F7200
G1 X167.889 Y101.143 E773.27792 F3600
G0 X167.889 Y101.709 F7200
G1 X170.039 Y99.559 E773.42960 F3600
G0 X170.039 Y100.124 F7200
G1 X167.889 Y102.274 E773.58120 F3600
G0 X167.889 Y102.840 F7200
G1 X170.039 Y100.690 E773.73288 F3600
G0 X170.039 Y101.256 F7200
G1 X167.889 Y103.406 E773.88456 F3600
G0 X167.889 Y103.971 F7200
G1 X170.039 Y101.821 E774.03624 F3600
G0 X170.039 Y102.387 F7200
G1 X167.889 Y104.537 E774.18792 F3600
G0 X167.889 Y105.103 F7200
G1 X170.039 Y102.953 E774.33960 F3600
G0 X170.039 Y103.518 F7200
G1 X167.889 Y105.668 E774.49128 F3600
G0 X167.889 Y106.234 F7200
G1 X170.039 Y104.084 E774.64296 F3600
G0 X170.039 Y104.650 F7200
G1 X167.889 Y106.800 E774.79464 F3600
G0 X167.889 Y107.365 F7200
G1 X170.039 Y105.215 E774.94632 F3600
G0 X170.039 Y105.781 F7200
G1 X167.889 Y107.931 E775.09800 F3600
G0 X167.889 Y108.497 F7200
G1 X170.039 Y106.347 E775.24960 F3600
G0 X170.039 Y106.912 F7200
G1 X167.889 Y109.062 E775.40128 F3600
G0 X167.889 Y109.628 F7200
G1 X170.039 Y107.478 E775.55296 F3600
G0 X170.039 Y108.044 F7200
G1 X167.889 Y110.194 E775.70464 F3600
G0 X167.889 Y110.759 F7200
G1 X170.039 Y108.610 E775.85632 F3600
